;Project loidolt@gmail
;Created by Estlcam version 8 build 8.063
;Machining time about 1:09:41 PM hours

G90
M03 S24000
G00 Z5.0000


;No. 1: Engraving 1
G00 X0.0000 Y1.3370
G00 Z0.5000
G01 Z-1.0000 F60 S24000
G01 X454.5667 Y453.2297 F3600
G00 Z5.0000
G00 X0.0000 Y1.3370
G00 Z-0.5000
G01 Z-2.0000 F60
G01 X454.5667 Y453.2297 F3600
G00 Z5.0000
G00 X0.0000 Y1.3370
G00 Z-1.5000
G01 Z-3.0000 F60
G01 X454.5667 Y453.2297 F3600
G00 Z5.0000
G00 X0.0000 Y1.3370
G00 Z-2.5000
G01 Z-4.0000 F60
G01 X454.5667 Y453.2297 F3600
G00 Z5.0000
G00 X0.0000 Y1.3370
G00 Z-3.5000
G01 Z-5.0000 F60
G01 X454.5667 Y453.2297 F3600
G00 Z5.0000
G00 X0.0000 Y1.3370
G00 Z-4.5000
G01 Z-6.0000 F60
G01 X454.5667 Y453.2297 F3600
G00 Z5.0000
G00 X0.0000 Y1.3370
G00 Z-5.5000
G01 Z-7.0000 F60
G01 X454.5667 Y453.2297 F3600
G00 Z5.0000
G00 X0.0000 Y1.3370
G00 Z-6.5000
G01 Z-8.0000 F60
G01 X454.5667 Y453.2297 F3600
G00 Z5.0000
G00 X0.0000 Y1.3370
G00 Z-7.5000
G01 Z-9.0000 F60
G01 X454.5667 Y453.2297 F3600
G00 Z5.0000
G00 X0.0000 Y1.3370
G00 Z-8.5000
G01 Z-10.0000 F60
G01 X454.5667 Y453.2297 F3600
G00 Z5.0000
G00 X0.0000 Y1.3370
G00 Z-9.5000
G01 Z-11.0000 F60
G01 X454.5667 Y453.2297 F3600
G00 Z5.0000
G00 X0.0000 Y1.3370
G00 Z-10.5000
G01 Z-12.0000 F60
G01 X454.5667 Y453.2297 F3600
G00 Z5.0000
G00 X0.0000 Y1.3370
G00 Z-11.5000
G01 Z-13.0000 F60
G01 X454.5667 Y453.2297 F3600
G00 Z5.0000
G00 X0.0000 Y1.3370
G00 Z-12.5000
G01 Z-14.0000 F60
G01 X454.5667 Y453.2297 F3600
G00 Z5.0000
G00 X0.0000 Y1.3370
G00 Z-13.5000
G01 Z-15.0000 F60
G01 X454.5667 Y453.2297 F3600
G00 Z5.0000
G00 X0.0000 Y1.3370
G00 Z-14.5000
G01 Z-16.0000 F60
G01 X454.5667 Y453.2297 F3600
G00 Z5.0000
G00 X0.0000 Y1.3370
G00 Z-15.5000
G01 Z-17.0000 F60
G01 X454.5667 Y453.2297 F3600
G00 Z5.0000
G00 X0.0000 Y1.3370
G00 Z-16.5000
G01 Z-18.0000 F60
G01 X454.5667 Y453.2297 F3600
G00 Z5.0000
G00 X0.0000 Y1.3370
G00 Z-17.5000
G01 Z-19.0000 F60
G01 X454.5667 Y453.2297 F3600
G00 Z5.0000
G00 X0.0000 Y1.3370
G00 Z-18.5000
G01 Z-20.0000 F60
G01 X454.5667 Y453.2297 F3600
G00 Z5.0000
G00 X0.0000 Y1.3370
G00 Z-19.5000
G01 Z-21.0000 F60
G01 X454.5667 Y453.2297 F3600
G00 Z5.0000
G00 X0.0000 Y1.3370
G00 Z-20.5000
G01 Z-22.0000 F60
G01 X454.5667 Y453.2297 F3600
G00 Z5.0000
G00 X0.0000 Y1.3370
G00 Z-21.5000
G01 Z-23.0000 F60
G01 X454.5667 Y453.2297 F3600
G00 Z5.0000
G00 X0.0000 Y1.3370
G00 Z-22.5000
G01 Z-24.0000 F60
G01 X454.5667 Y453.2297 F3600
G00 Z5.0000
G00 X0.0000 Y1.3370
G00 Z-23.5000
G01 Z-25.0000 F60
G01 X454.5667 Y453.2297 F3600
G00 Z5.0000
G00 X0.0000 Y1.3370
G00 Z-24.5000
G01 Z-26.0000 F60
G01 X454.5667 Y453.2297 F3600
G00 Z5.0000
G00 X0.0000 Y1.3370
G00 Z-25.5000
G01 Z-27.0000 F60
G01 X454.5667 Y453.2297 F3600
G00 Z5.0000
G00 X0.0000 Y1.3370
G00 Z-26.5000
G01 Z-28.0000 F60
G01 X454.5667 Y453.2297 F3600
G00 Z5.0000
G00 X0.0000 Y1.3370
G00 Z-27.5000
G01 Z-29.0000 F60
G01 X454.5667 Y453.2297 F3600
G00 Z5.0000
G00 X0.0000 Y1.3370
G00 Z-28.5000
G01 Z-30.0000 F60
G01 X454.5667 Y453.2297 F3600
G00 Z5.0000
G00 X0.0000 Y1.3370
G00 Z-29.5000
G01 Z-31.0000 F60
G01 X454.5667 Y453.2297 F3600
G00 Z5.0000
G00 X0.0000 Y1.3370
G00 Z-30.5000
G01 Z-32.0000 F60
G01 X454.5667 Y453.2297 F3600
G00 Z5.0000
G00 X0.0000 Y1.3370
G00 Z-31.5000
G01 Z-33.0000 F60
G01 X454.5667 Y453.2297 F3600
G00 Z5.0000
G00 X0.0000 Y1.3370
G00 Z-32.5000
G01 Z-34.0000 F60
G01 X454.5667 Y453.2297 F3600
G00 Z5.0000
G00 X0.0000 Y1.3370
G00 Z-33.5000
G01 Z-35.0000 F60
G01 X454.5667 Y453.2297 F3600
G00 Z5.0000
G00 X0.0000 Y1.3370
G00 Z-34.5000
G01 Z-36.0000 F60
G01 X454.5667 Y453.2297 F3600
G00 Z5.0000
G00 X0.0000 Y1.3370
G00 Z-35.5000
G01 Z-37.0000 F60
G01 X454.5667 Y453.2297 F3600
G00 Z5.0000
G00 X0.0000 Y1.3370
G00 Z-36.5000
G01 Z-38.0000 F60
G01 X454.5667 Y453.2297 F3600
G00 Z5.0000
G00 X0.0000 Y1.3370
G00 Z-37.5000
G01 Z-39.0000 F60
G01 X454.5667 Y453.2297 F3600
G00 Z5.0000
G00 X0.0000 Y1.3370
G00 Z-38.5000
G01 Z-40.0000 F60
G01 X454.5667 Y453.2297 F3600
G00 Z5.0000


;No. 2: Engraving 2
G00 X0.0000 Y1.3370
G00 Z0.5000
G01 Z-1.0000 F60
G01 X454.5667 Y453.2297 F3600
G00 Z5.0000
G00 X0.0000 Y1.3370
G00 Z-0.5000
G01 Z-2.0000 F60
G01 X454.5667 Y453.2297 F3600
G00 Z5.0000
G00 X0.0000 Y1.3370
G00 Z-1.5000
G01 Z-3.0000 F60
G01 X454.5667 Y453.2297 F3600
G00 Z5.0000
G00 X0.0000 Y1.3370
G00 Z-2.5000
G01 Z-4.0000 F60
G01 X454.5667 Y453.2297 F3600
G00 Z5.0000
G00 X0.0000 Y1.3370
G00 Z-3.5000
G01 Z-5.0000 F60
G01 X454.5667 Y453.2297 F3600
G00 Z5.0000
G00 X0.0000 Y1.3370
G00 Z-4.5000
G01 Z-6.0000 F60
G01 X454.5667 Y453.2297 F3600
G00 Z5.0000
G00 X0.0000 Y1.3370
G00 Z-5.5000
G01 Z-7.0000 F60
G01 X454.5667 Y453.2297 F3600
G00 Z5.0000
G00 X0.0000 Y1.3370
G00 Z-6.5000
G01 Z-8.0000 F60
G01 X454.5667 Y453.2297 F3600
G00 Z5.0000
G00 X0.0000 Y1.3370
G00 Z-7.5000
G01 Z-9.0000 F60
G01 X454.5667 Y453.2297 F3600
G00 Z5.0000
G00 X0.0000 Y1.3370
G00 Z-8.5000
G01 Z-10.0000 F60
G01 X454.5667 Y453.2297 F3600
G00 Z5.0000
G00 X0.0000 Y1.3370
G00 Z-9.5000
G01 Z-11.0000 F60
G01 X454.5667 Y453.2297 F3600
G00 Z5.0000
G00 X0.0000 Y1.3370
G00 Z-10.5000
G01 Z-12.0000 F60
G01 X454.5667 Y453.2297 F3600
G00 Z5.0000
G00 X0.0000 Y1.3370
G00 Z-11.5000
G01 Z-13.0000 F60
G01 X454.5667 Y453.2297 F3600
G00 Z5.0000
G00 X0.0000 Y1.3370
G00 Z-12.5000
G01 Z-14.0000 F60
G01 X454.5667 Y453.2297 F3600
G00 Z5.0000
G00 X0.0000 Y1.3370
G00 Z-13.5000
G01 Z-15.0000 F60
G01 X454.5667 Y453.2297 F3600
G00 Z5.0000
G00 X0.0000 Y1.3370
G00 Z-14.5000
G01 Z-16.0000 F60
G01 X454.5667 Y453.2297 F3600
G00 Z5.0000
G00 X0.0000 Y1.3370
G00 Z-15.5000
G01 Z-17.0000 F60
G01 X454.5667 Y453.2297 F3600
G00 Z5.0000
G00 X0.0000 Y1.3370
G00 Z-16.5000
G01 Z-18.0000 F60
G01 X454.5667 Y453.2297 F3600
G00 Z5.0000
G00 X0.0000 Y1.3370
G00 Z-17.5000
G01 Z-19.0000 F60
G01 X454.5667 Y453.2297 F3600
G00 Z5.0000
G00 X0.0000 Y1.3370
G00 Z-18.5000
G01 Z-20.0000 F60
G01 X454.5667 Y453.2297 F3600
G00 Z5.0000
G00 X0.0000 Y1.3370
G00 Z-19.5000
G01 Z-21.0000 F60
G01 X454.5667 Y453.2297 F3600
G00 Z5.0000
G00 X0.0000 Y1.3370
G00 Z-20.5000
G01 Z-22.0000 F60
G01 X454.5667 Y453.2297 F3600
G00 Z5.0000
G00 X0.0000 Y1.3370
G00 Z-21.5000
G01 Z-23.0000 F60
G01 X454.5667 Y453.2297 F3600
G00 Z5.0000
G00 X0.0000 Y1.3370
G00 Z-22.5000
G01 Z-24.0000 F60
G01 X454.5667 Y453.2297 F3600
G00 Z5.0000
G00 X0.0000 Y1.3370
G00 Z-23.5000
G01 Z-25.0000 F60
G01 X454.5667 Y453.2297 F3600
G00 Z5.0000
G00 X0.0000 Y1.3370
G00 Z-24.5000
G01 Z-26.0000 F60
G01 X454.5667 Y453.2297 F3600
G00 Z5.0000
G00 X0.0000 Y1.3370
G00 Z-25.5000
G01 Z-27.0000 F60
G01 X454.5667 Y453.2297 F3600
G00 Z5.0000
G00 X0.0000 Y1.3370
G00 Z-26.5000
G01 Z-28.0000 F60
G01 X454.5667 Y453.2297 F3600
G00 Z5.0000
G00 X0.0000 Y1.3370
G00 Z-27.5000
G01 Z-29.0000 F60
G01 X454.5667 Y453.2297 F3600
G00 Z5.0000
G00 X0.0000 Y1.3370
G00 Z-28.5000
G01 Z-30.0000 F60
G01 X454.5667 Y453.2297 F3600
G00 Z5.0000
G00 X0.0000 Y1.3370
G00 Z-29.5000
G01 Z-31.0000 F60
G01 X454.5667 Y453.2297 F3600
G00 Z5.0000
G00 X0.0000 Y1.3370
G00 Z-30.5000
G01 Z-32.0000 F60
G01 X454.5667 Y453.2297 F3600
G00 Z5.0000
G00 X0.0000 Y1.3370
G00 Z-31.5000
G01 Z-33.0000 F60
G01 X454.5667 Y453.2297 F3600
G00 Z5.0000
G00 X0.0000 Y1.3370
G00 Z-32.5000
G01 Z-34.0000 F60
G01 X454.5667 Y453.2297 F3600
G00 Z5.0000
G00 X0.0000 Y1.3370
G00 Z-33.5000
G01 Z-35.0000 F60
G01 X454.5667 Y453.2297 F3600
G00 Z5.0000
G00 X0.0000 Y1.3370
G00 Z-34.5000
G01 Z-36.0000 F60
G01 X454.5667 Y453.2297 F3600
G00 Z5.0000
G00 X0.0000 Y1.3370
G00 Z-35.5000
G01 Z-37.0000 F60
G01 X454.5667 Y453.2297 F3600
G00 Z5.0000
G00 X0.0000 Y1.3370
G00 Z-36.5000
G01 Z-38.0000 F60
G01 X454.5667 Y453.2297 F3600
G00 Z5.0000
G00 X0.0000 Y1.3370
G00 Z-37.5000
G01 Z-39.0000 F60
G01 X454.5667 Y453.2297 F3600
G00 Z5.0000
G00 X0.0000 Y1.3370
G00 Z-38.5000
G01 Z-40.0000 F60
G01 X454.5667 Y453.2297 F3600
G00 Z5.0000


;No. 3: Engraving 3
G00 X0.0000 Y1.3370
G00 Z0.5000
G01 Z-1.0000 F60
G01 X454.5667 Y453.2297 F3600
G00 Z5.0000
G00 X0.0000 Y1.3370
G00 Z-0.5000
G01 Z-2.0000 F60
G01 X454.5667 Y453.2297 F3600
G00 Z5.0000
G00 X0.0000 Y1.3370
G00 Z-1.5000
G01 Z-3.0000 F60
G01 X454.5667 Y453.2297 F3600
G00 Z5.0000
G00 X0.0000 Y1.3370
G00 Z-2.5000
G01 Z-4.0000 F60
G01 X454.5667 Y453.2297 F3600
G00 Z5.0000
G00 X0.0000 Y1.3370
G00 Z-3.5000
G01 Z-5.0000 F60
G01 X454.5667 Y453.2297 F3600
G00 Z5.0000
G00 X0.0000 Y1.3370
G00 Z-4.5000
G01 Z-6.0000 F60
G01 X454.5667 Y453.2297 F3600
G00 Z5.0000
G00 X0.0000 Y1.3370
G00 Z-5.5000
G01 Z-7.0000 F60
G01 X454.5667 Y453.2297 F3600
G00 Z5.0000
G00 X0.0000 Y1.3370
G00 Z-6.5000
G01 Z-8.0000 F60
G01 X454.5667 Y453.2297 F3600
G00 Z5.0000
G00 X0.0000 Y1.3370
G00 Z-7.5000
G01 Z-9.0000 F60
G01 X454.5667 Y453.2297 F3600
G00 Z5.0000
G00 X0.0000 Y1.3370
G00 Z-8.5000
G01 Z-10.0000 F60
G01 X454.5667 Y453.2297 F3600
G00 Z5.0000
G00 X0.0000 Y1.3370
G00 Z-9.5000
G01 Z-11.0000 F60
G01 X454.5667 Y453.2297 F3600
G00 Z5.0000
G00 X0.0000 Y1.3370
G00 Z-10.5000
G01 Z-12.0000 F60
G01 X454.5667 Y453.2297 F3600
G00 Z5.0000
G00 X0.0000 Y1.3370
G00 Z-11.5000
G01 Z-13.0000 F60
G01 X454.5667 Y453.2297 F3600
G00 Z5.0000
G00 X0.0000 Y1.3370
G00 Z-12.5000
G01 Z-14.0000 F60
G01 X454.5667 Y453.2297 F3600
G00 Z5.0000
G00 X0.0000 Y1.3370
G00 Z-13.5000
G01 Z-15.0000 F60
G01 X454.5667 Y453.2297 F3600
G00 Z5.0000
G00 X0.0000 Y1.3370
G00 Z-14.5000
G01 Z-16.0000 F60
G01 X454.5667 Y453.2297 F3600
G00 Z5.0000
G00 X0.0000 Y1.3370
G00 Z-15.5000
G01 Z-17.0000 F60
G01 X454.5667 Y453.2297 F3600
G00 Z5.0000
G00 X0.0000 Y1.3370
G00 Z-16.5000
G01 Z-18.0000 F60
G01 X454.5667 Y453.2297 F3600
G00 Z5.0000
G00 X0.0000 Y1.3370
G00 Z-17.5000
G01 Z-19.0000 F60
G01 X454.5667 Y453.2297 F3600
G00 Z5.0000
G00 X0.0000 Y1.3370
G00 Z-18.5000
G01 Z-20.0000 F60
G01 X454.5667 Y453.2297 F3600
G00 Z5.0000
G00 X0.0000 Y1.3370
G00 Z-19.5000
G01 Z-21.0000 F60
G01 X454.5667 Y453.2297 F3600
G00 Z5.0000
G00 X0.0000 Y1.3370
G00 Z-20.5000
G01 Z-22.0000 F60
G01 X454.5667 Y453.2297 F3600
G00 Z5.0000
G00 X0.0000 Y1.3370
G00 Z-21.5000
G01 Z-23.0000 F60
G01 X454.5667 Y453.2297 F3600
G00 Z5.0000
G00 X0.0000 Y1.3370
G00 Z-22.5000
G01 Z-24.0000 F60
G01 X454.5667 Y453.2297 F3600
G00 Z5.0000
G00 X0.0000 Y1.3370
G00 Z-23.5000
G01 Z-25.0000 F60
G01 X454.5667 Y453.2297 F3600
G00 Z5.0000
G00 X0.0000 Y1.3370
G00 Z-24.5000
G01 Z-26.0000 F60
G01 X454.5667 Y453.2297 F3600
G00 Z5.0000
G00 X0.0000 Y1.3370
G00 Z-25.5000
G01 Z-27.0000 F60
G01 X454.5667 Y453.2297 F3600
G00 Z5.0000
G00 X0.0000 Y1.3370
G00 Z-26.5000
G01 Z-28.0000 F60
G01 X454.5667 Y453.2297 F3600
G00 Z5.0000
G00 X0.0000 Y1.3370
G00 Z-27.5000
G01 Z-29.0000 F60
G01 X454.5667 Y453.2297 F3600
G00 Z5.0000
G00 X0.0000 Y1.3370
G00 Z-28.5000
G01 Z-30.0000 F60
G01 X454.5667 Y453.2297 F3600
G00 Z5.0000
G00 X0.0000 Y1.3370
G00 Z-29.5000
G01 Z-31.0000 F60
G01 X454.5667 Y453.2297 F3600
G00 Z5.0000
G00 X0.0000 Y1.3370
G00 Z-30.5000
G01 Z-32.0000 F60
G01 X454.5667 Y453.2297 F3600
G00 Z5.0000
G00 X0.0000 Y1.3370
G00 Z-31.5000
G01 Z-33.0000 F60
G01 X454.5667 Y453.2297 F3600
G00 Z5.0000
G00 X0.0000 Y1.3370
G00 Z-32.5000
G01 Z-34.0000 F60
G01 X454.5667 Y453.2297 F3600
G00 Z5.0000
G00 X0.0000 Y1.3370
G00 Z-33.5000
G01 Z-35.0000 F60
G01 X454.5667 Y453.2297 F3600
G00 Z5.0000
G00 X0.0000 Y1.3370
G00 Z-34.5000
G01 Z-36.0000 F60
G01 X454.5667 Y453.2297 F3600
G00 Z5.0000
G00 X0.0000 Y1.3370
G00 Z-35.5000
G01 Z-37.0000 F60
G01 X454.5667 Y453.2297 F3600
G00 Z5.0000
G00 X0.0000 Y1.3370
G00 Z-36.5000
G01 Z-38.0000 F60
G01 X454.5667 Y453.2297 F3600
G00 Z5.0000
G00 X0.0000 Y1.3370
G00 Z-37.5000
G01 Z-39.0000 F60
G01 X454.5667 Y453.2297 F3600
G00 Z5.0000
G00 X0.0000 Y1.3370
G00 Z-38.5000
G01 Z-40.0000 F60
G01 X454.5667 Y453.2297 F3600
G00 Z5.0000


;No. 4: Engraving 4
G00 X0.0000 Y1.3370
G00 Z0.5000
G01 Z-1.0000 F60
G01 X454.5667 Y453.2297 F3600
G00 Z5.0000
G00 X0.0000 Y1.3370
G00 Z-0.5000
G01 Z-2.0000 F60
G01 X454.5667 Y453.2297 F3600
G00 Z5.0000
G00 X0.0000 Y1.3370
G00 Z-1.5000
G01 Z-3.0000 F60
G01 X454.5667 Y453.2297 F3600
G00 Z5.0000
G00 X0.0000 Y1.3370
G00 Z-2.5000
G01 Z-4.0000 F60
G01 X454.5667 Y453.2297 F3600
G00 Z5.0000
G00 X0.0000 Y1.3370
G00 Z-3.5000
G01 Z-5.0000 F60
G01 X454.5667 Y453.2297 F3600
G00 Z5.0000
G00 X0.0000 Y1.3370
G00 Z-4.5000
G01 Z-6.0000 F60
G01 X454.5667 Y453.2297 F3600
G00 Z5.0000
G00 X0.0000 Y1.3370
G00 Z-5.5000
G01 Z-7.0000 F60
G01 X454.5667 Y453.2297 F3600
G00 Z5.0000
G00 X0.0000 Y1.3370
G00 Z-6.5000
G01 Z-8.0000 F60
G01 X454.5667 Y453.2297 F3600
G00 Z5.0000
G00 X0.0000 Y1.3370
G00 Z-7.5000
G01 Z-9.0000 F60
G01 X454.5667 Y453.2297 F3600
G00 Z5.0000
G00 X0.0000 Y1.3370
G00 Z-8.5000
G01 Z-10.0000 F60
G01 X454.5667 Y453.2297 F3600
G00 Z5.0000
G00 X0.0000 Y1.3370
G00 Z-9.5000
G01 Z-11.0000 F60
G01 X454.5667 Y453.2297 F3600
G00 Z5.0000
G00 X0.0000 Y1.3370
G00 Z-10.5000
G01 Z-12.0000 F60
G01 X454.5667 Y453.2297 F3600
G00 Z5.0000
G00 X0.0000 Y1.3370
G00 Z-11.5000
G01 Z-13.0000 F60
G01 X454.5667 Y453.2297 F3600
G00 Z5.0000
G00 X0.0000 Y1.3370
G00 Z-12.5000
G01 Z-14.0000 F60
G01 X454.5667 Y453.2297 F3600
G00 Z5.0000
G00 X0.0000 Y1.3370
G00 Z-13.5000
G01 Z-15.0000 F60
G01 X454.5667 Y453.2297 F3600
G00 Z5.0000
G00 X0.0000 Y1.3370
G00 Z-14.5000
G01 Z-16.0000 F60
G01 X454.5667 Y453.2297 F3600
G00 Z5.0000
G00 X0.0000 Y1.3370
G00 Z-15.5000
G01 Z-17.0000 F60
G01 X454.5667 Y453.2297 F3600
G00 Z5.0000
G00 X0.0000 Y1.3370
G00 Z-16.5000
G01 Z-18.0000 F60
G01 X454.5667 Y453.2297 F3600
G00 Z5.0000
G00 X0.0000 Y1.3370
G00 Z-17.5000
G01 Z-19.0000 F60
G01 X454.5667 Y453.2297 F3600
G00 Z5.0000
G00 X0.0000 Y1.3370
G00 Z-18.5000
G01 Z-20.0000 F60
G01 X454.5667 Y453.2297 F3600
G00 Z5.0000
G00 X0.0000 Y1.3370
G00 Z-19.5000
G01 Z-21.0000 F60
G01 X454.5667 Y453.2297 F3600
G00 Z5.0000
G00 X0.0000 Y1.3370
G00 Z-20.5000
G01 Z-22.0000 F60
G01 X454.5667 Y453.2297 F3600
G00 Z5.0000
G00 X0.0000 Y1.3370
G00 Z-21.5000
G01 Z-23.0000 F60
G01 X454.5667 Y453.2297 F3600
G00 Z5.0000
G00 X0.0000 Y1.3370
G00 Z-22.5000
G01 Z-24.0000 F60
G01 X454.5667 Y453.2297 F3600
G00 Z5.0000
G00 X0.0000 Y1.3370
G00 Z-23.5000
G01 Z-25.0000 F60
G01 X454.5667 Y453.2297 F3600
G00 Z5.0000
G00 X0.0000 Y1.3370
G00 Z-24.5000
G01 Z-26.0000 F60
G01 X454.5667 Y453.2297 F3600
G00 Z5.0000
G00 X0.0000 Y1.3370
G00 Z-25.5000
G01 Z-27.0000 F60
G01 X454.5667 Y453.2297 F3600
G00 Z5.0000
G00 X0.0000 Y1.3370
G00 Z-26.5000
G01 Z-28.0000 F60
G01 X454.5667 Y453.2297 F3600
G00 Z5.0000
G00 X0.0000 Y1.3370
G00 Z-27.5000
G01 Z-29.0000 F60
G01 X454.5667 Y453.2297 F3600
G00 Z5.0000
G00 X0.0000 Y1.3370
G00 Z-28.5000
G01 Z-30.0000 F60
G01 X454.5667 Y453.2297 F3600
G00 Z5.0000
G00 X0.0000 Y1.3370
G00 Z-29.5000
G01 Z-31.0000 F60
G01 X454.5667 Y453.2297 F3600
G00 Z5.0000
G00 X0.0000 Y1.3370
G00 Z-30.5000
G01 Z-32.0000 F60
G01 X454.5667 Y453.2297 F3600
G00 Z5.0000
G00 X0.0000 Y1.3370
G00 Z-31.5000
G01 Z-33.0000 F60
G01 X454.5667 Y453.2297 F3600
G00 Z5.0000
G00 X0.0000 Y1.3370
G00 Z-32.5000
G01 Z-34.0000 F60
G01 X454.5667 Y453.2297 F3600
G00 Z5.0000
G00 X0.0000 Y1.3370
G00 Z-33.5000
G01 Z-35.0000 F60
G01 X454.5667 Y453.2297 F3600
G00 Z5.0000
G00 X0.0000 Y1.3370
G00 Z-34.5000
G01 Z-36.0000 F60
G01 X454.5667 Y453.2297 F3600
G00 Z5.0000
G00 X0.0000 Y1.3370
G00 Z-35.5000
G01 Z-37.0000 F60
G01 X454.5667 Y453.2297 F3600
G00 Z5.0000
G00 X0.0000 Y1.3370
G00 Z-36.5000
G01 Z-38.0000 F60
G01 X454.5667 Y453.2297 F3600
G00 Z5.0000
G00 X0.0000 Y1.3370
G00 Z-37.5000
G01 Z-39.0000 F60
G01 X454.5667 Y453.2297 F3600
G00 Z5.0000
G00 X0.0000 Y1.3370
G00 Z-38.5000
G01 Z-40.0000 F60
G01 X454.5667 Y453.2297 F3600
G00 Z5.0000


;No. 5: Engraving 5
G00 X0.0000 Y1.3370
G00 Z0.5000
G01 Z-1.0000 F60
G01 X454.5667 Y453.2297 F3600
G00 Z5.0000
G00 X0.0000 Y1.3370
G00 Z-0.5000
G01 Z-2.0000 F60
G01 X454.5667 Y453.2297 F3600
G00 Z5.0000
G00 X0.0000 Y1.3370
G00 Z-1.5000
G01 Z-3.0000 F60
G01 X454.5667 Y453.2297 F3600
G00 Z5.0000
G00 X0.0000 Y1.3370
G00 Z-2.5000
G01 Z-4.0000 F60
G01 X454.5667 Y453.2297 F3600
G00 Z5.0000
G00 X0.0000 Y1.3370
G00 Z-3.5000
G01 Z-5.0000 F60
G01 X454.5667 Y453.2297 F3600
G00 Z5.0000
G00 X0.0000 Y1.3370
G00 Z-4.5000
G01 Z-6.0000 F60
G01 X454.5667 Y453.2297 F3600
G00 Z5.0000
G00 X0.0000 Y1.3370
G00 Z-5.5000
G01 Z-7.0000 F60
G01 X454.5667 Y453.2297 F3600
G00 Z5.0000
G00 X0.0000 Y1.3370
G00 Z-6.5000
G01 Z-8.0000 F60
G01 X454.5667 Y453.2297 F3600
G00 Z5.0000
G00 X0.0000 Y1.3370
G00 Z-7.5000
G01 Z-9.0000 F60
G01 X454.5667 Y453.2297 F3600
G00 Z5.0000
G00 X0.0000 Y1.3370
G00 Z-8.5000
G01 Z-10.0000 F60
G01 X454.5667 Y453.2297 F3600
G00 Z5.0000
G00 X0.0000 Y1.3370
G00 Z-9.5000
G01 Z-11.0000 F60
G01 X454.5667 Y453.2297 F3600
G00 Z5.0000
G00 X0.0000 Y1.3370
G00 Z-10.5000
G01 Z-12.0000 F60
G01 X454.5667 Y453.2297 F3600
G00 Z5.0000
G00 X0.0000 Y1.3370
G00 Z-11.5000
G01 Z-13.0000 F60
G01 X454.5667 Y453.2297 F3600
G00 Z5.0000
G00 X0.0000 Y1.3370
G00 Z-12.5000
G01 Z-14.0000 F60
G01 X454.5667 Y453.2297 F3600
G00 Z5.0000
G00 X0.0000 Y1.3370
G00 Z-13.5000
G01 Z-15.0000 F60
G01 X454.5667 Y453.2297 F3600
G00 Z5.0000
G00 X0.0000 Y1.3370
G00 Z-14.5000
G01 Z-16.0000 F60
G01 X454.5667 Y453.2297 F3600
G00 Z5.0000
G00 X0.0000 Y1.3370
G00 Z-15.5000
G01 Z-17.0000 F60
G01 X454.5667 Y453.2297 F3600
G00 Z5.0000
G00 X0.0000 Y1.3370
G00 Z-16.5000
G01 Z-18.0000 F60
G01 X454.5667 Y453.2297 F3600
G00 Z5.0000
G00 X0.0000 Y1.3370
G00 Z-17.5000
G01 Z-19.0000 F60
G01 X454.5667 Y453.2297 F3600
G00 Z5.0000
G00 X0.0000 Y1.3370
G00 Z-18.5000
G01 Z-20.0000 F60
G01 X454.5667 Y453.2297 F3600
G00 Z5.0000
G00 X0.0000 Y1.3370
G00 Z-19.5000
G01 Z-21.0000 F60
G01 X454.5667 Y453.2297 F3600
G00 Z5.0000
G00 X0.0000 Y1.3370
G00 Z-20.5000
G01 Z-22.0000 F60
G01 X454.5667 Y453.2297 F3600
G00 Z5.0000
G00 X0.0000 Y1.3370
G00 Z-21.5000
G01 Z-23.0000 F60
G01 X454.5667 Y453.2297 F3600
G00 Z5.0000
G00 X0.0000 Y1.3370
G00 Z-22.5000
G01 Z-24.0000 F60
G01 X454.5667 Y453.2297 F3600
G00 Z5.0000
G00 X0.0000 Y1.3370
G00 Z-23.5000
G01 Z-25.0000 F60
G01 X454.5667 Y453.2297 F3600
G00 Z5.0000
G00 X0.0000 Y1.3370
G00 Z-24.5000
G01 Z-26.0000 F60
G01 X454.5667 Y453.2297 F3600
G00 Z5.0000
G00 X0.0000 Y1.3370
G00 Z-25.5000
G01 Z-27.0000 F60
G01 X454.5667 Y453.2297 F3600
G00 Z5.0000
G00 X0.0000 Y1.3370
G00 Z-26.5000
G01 Z-28.0000 F60
G01 X454.5667 Y453.2297 F3600
G00 Z5.0000
G00 X0.0000 Y1.3370
G00 Z-27.5000
G01 Z-29.0000 F60
G01 X454.5667 Y453.2297 F3600
G00 Z5.0000
G00 X0.0000 Y1.3370
G00 Z-28.5000
G01 Z-30.0000 F60
G01 X454.5667 Y453.2297 F3600
G00 Z5.0000
G00 X0.0000 Y1.3370
G00 Z-29.5000
G01 Z-31.0000 F60
G01 X454.5667 Y453.2297 F3600
G00 Z5.0000
G00 X0.0000 Y1.3370
G00 Z-30.5000
G01 Z-32.0000 F60
G01 X454.5667 Y453.2297 F3600
G00 Z5.0000
G00 X0.0000 Y1.3370
G00 Z-31.5000
G01 Z-33.0000 F60
G01 X454.5667 Y453.2297 F3600
G00 Z5.0000
G00 X0.0000 Y1.3370
G00 Z-32.5000
G01 Z-34.0000 F60
G01 X454.5667 Y453.2297 F3600
G00 Z5.0000
G00 X0.0000 Y1.3370
G00 Z-33.5000
G01 Z-35.0000 F60
G01 X454.5667 Y453.2297 F3600
G00 Z5.0000
G00 X0.0000 Y1.3370
G00 Z-34.5000
G01 Z-36.0000 F60
G01 X454.5667 Y453.2297 F3600
G00 Z5.0000
G00 X0.0000 Y1.3370
G00 Z-35.5000
G01 Z-37.0000 F60
G01 X454.5667 Y453.2297 F3600
G00 Z5.0000
G00 X0.0000 Y1.3370
G00 Z-36.5000
G01 Z-38.0000 F60
G01 X454.5667 Y453.2297 F3600
G00 Z5.0000
G00 X0.0000 Y1.3370
G00 Z-37.5000
G01 Z-39.0000 F60
G01 X454.5667 Y453.2297 F3600
G00 Z5.0000
G00 X0.0000 Y1.3370
G00 Z-38.5000
G01 Z-40.0000 F60
G01 X454.5667 Y453.2297 F3600
G00 Z5.0000


;No. 6: Engraving 6
G00 X0.0000 Y1.3370
G00 Z0.5000
G01 Z-1.0000 F60
G01 X454.5667 Y453.2297 F3600
G00 Z5.0000
G00 X0.0000 Y1.3370
G00 Z-0.5000
G01 Z-2.0000 F60
G01 X454.5667 Y453.2297 F3600
G00 Z5.0000
G00 X0.0000 Y1.3370
G00 Z-1.5000
G01 Z-3.0000 F60
G01 X454.5667 Y453.2297 F3600
G00 Z5.0000
G00 X0.0000 Y1.3370
G00 Z-2.5000
G01 Z-4.0000 F60
G01 X454.5667 Y453.2297 F3600
G00 Z5.0000
G00 X0.0000 Y1.3370
G00 Z-3.5000
G01 Z-5.0000 F60
G01 X454.5667 Y453.2297 F3600
G00 Z5.0000
G00 X0.0000 Y1.3370
G00 Z-4.5000
G01 Z-6.0000 F60
G01 X454.5667 Y453.2297 F3600
G00 Z5.0000
G00 X0.0000 Y1.3370
G00 Z-5.5000
G01 Z-7.0000 F60
G01 X454.5667 Y453.2297 F3600
G00 Z5.0000
G00 X0.0000 Y1.3370
G00 Z-6.5000
G01 Z-8.0000 F60
G01 X454.5667 Y453.2297 F3600
G00 Z5.0000
G00 X0.0000 Y1.3370
G00 Z-7.5000
G01 Z-9.0000 F60
G01 X454.5667 Y453.2297 F3600
G00 Z5.0000
G00 X0.0000 Y1.3370
G00 Z-8.5000
G01 Z-10.0000 F60
G01 X454.5667 Y453.2297 F3600
G00 Z5.0000
G00 X0.0000 Y1.3370
G00 Z-9.5000
G01 Z-11.0000 F60
G01 X454.5667 Y453.2297 F3600
G00 Z5.0000
G00 X0.0000 Y1.3370
G00 Z-10.5000
G01 Z-12.0000 F60
G01 X454.5667 Y453.2297 F3600
G00 Z5.0000
G00 X0.0000 Y1.3370
G00 Z-11.5000
G01 Z-13.0000 F60
G01 X454.5667 Y453.2297 F3600
G00 Z5.0000
G00 X0.0000 Y1.3370
G00 Z-12.5000
G01 Z-14.0000 F60
G01 X454.5667 Y453.2297 F3600
G00 Z5.0000
G00 X0.0000 Y1.3370
G00 Z-13.5000
G01 Z-15.0000 F60
G01 X454.5667 Y453.2297 F3600
G00 Z5.0000
G00 X0.0000 Y1.3370
G00 Z-14.5000
G01 Z-16.0000 F60
G01 X454.5667 Y453.2297 F3600
G00 Z5.0000
G00 X0.0000 Y1.3370
G00 Z-15.5000
G01 Z-17.0000 F60
G01 X454.5667 Y453.2297 F3600
G00 Z5.0000
G00 X0.0000 Y1.3370
G00 Z-16.5000
G01 Z-18.0000 F60
G01 X454.5667 Y453.2297 F3600
G00 Z5.0000
G00 X0.0000 Y1.3370
G00 Z-17.5000
G01 Z-19.0000 F60
G01 X454.5667 Y453.2297 F3600
G00 Z5.0000
G00 X0.0000 Y1.3370
G00 Z-18.5000
G01 Z-20.0000 F60
G01 X454.5667 Y453.2297 F3600
G00 Z5.0000
G00 X0.0000 Y1.3370
G00 Z-19.5000
G01 Z-21.0000 F60
G01 X454.5667 Y453.2297 F3600
G00 Z5.0000
G00 X0.0000 Y1.3370
G00 Z-20.5000
G01 Z-22.0000 F60
G01 X454.5667 Y453.2297 F3600
G00 Z5.0000
G00 X0.0000 Y1.3370
G00 Z-21.5000
G01 Z-23.0000 F60
G01 X454.5667 Y453.2297 F3600
G00 Z5.0000
G00 X0.0000 Y1.3370
G00 Z-22.5000
G01 Z-24.0000 F60
G01 X454.5667 Y453.2297 F3600
G00 Z5.0000
G00 X0.0000 Y1.3370
G00 Z-23.5000
G01 Z-25.0000 F60
G01 X454.5667 Y453.2297 F3600
G00 Z5.0000
G00 X0.0000 Y1.3370
G00 Z-24.5000
G01 Z-26.0000 F60
G01 X454.5667 Y453.2297 F3600
G00 Z5.0000
G00 X0.0000 Y1.3370
G00 Z-25.5000
G01 Z-27.0000 F60
G01 X454.5667 Y453.2297 F3600
G00 Z5.0000
G00 X0.0000 Y1.3370
G00 Z-26.5000
G01 Z-28.0000 F60
G01 X454.5667 Y453.2297 F3600
G00 Z5.0000
G00 X0.0000 Y1.3370
G00 Z-27.5000
G01 Z-29.0000 F60
G01 X454.5667 Y453.2297 F3600
G00 Z5.0000
G00 X0.0000 Y1.3370
G00 Z-28.5000
G01 Z-30.0000 F60
G01 X454.5667 Y453.2297 F3600
G00 Z5.0000
G00 X0.0000 Y1.3370
G00 Z-29.5000
G01 Z-31.0000 F60
G01 X454.5667 Y453.2297 F3600
G00 Z5.0000
G00 X0.0000 Y1.3370
G00 Z-30.5000
G01 Z-32.0000 F60
G01 X454.5667 Y453.2297 F3600
G00 Z5.0000
G00 X0.0000 Y1.3370
G00 Z-31.5000
G01 Z-33.0000 F60
G01 X454.5667 Y453.2297 F3600
G00 Z5.0000
G00 X0.0000 Y1.3370
G00 Z-32.5000
G01 Z-34.0000 F60
G01 X454.5667 Y453.2297 F3600
G00 Z5.0000
G00 X0.0000 Y1.3370
G00 Z-33.5000
G01 Z-35.0000 F60
G01 X454.5667 Y453.2297 F3600
G00 Z5.0000
G00 X0.0000 Y1.3370
G00 Z-34.5000
G01 Z-36.0000 F60
G01 X454.5667 Y453.2297 F3600
G00 Z5.0000
G00 X0.0000 Y1.3370
G00 Z-35.5000
G01 Z-37.0000 F60
G01 X454.5667 Y453.2297 F3600
G00 Z5.0000
G00 X0.0000 Y1.3370
G00 Z-36.5000
G01 Z-38.0000 F60
G01 X454.5667 Y453.2297 F3600
G00 Z5.0000
G00 X0.0000 Y1.3370
G00 Z-37.5000
G01 Z-39.0000 F60
G01 X454.5667 Y453.2297 F3600
G00 Z5.0000
G00 X0.0000 Y1.3370
G00 Z-38.5000
G01 Z-40.0000 F60
G01 X454.5667 Y453.2297 F3600
G00 Z5.0000


;No. 7: Engraving 7
G00 X0.0000 Y1.3370
G00 Z0.5000
G01 Z-1.0000 F60
G01 X454.5667 Y453.2297 F3600
G00 Z5.0000
G00 X0.0000 Y1.3370
G00 Z-0.5000
G01 Z-2.0000 F60
G01 X454.5667 Y453.2297 F3600
G00 Z5.0000
G00 X0.0000 Y1.3370
G00 Z-1.5000
G01 Z-3.0000 F60
G01 X454.5667 Y453.2297 F3600
G00 Z5.0000
G00 X0.0000 Y1.3370
G00 Z-2.5000
G01 Z-4.0000 F60
G01 X454.5667 Y453.2297 F3600
G00 Z5.0000
G00 X0.0000 Y1.3370
G00 Z-3.5000
G01 Z-5.0000 F60
G01 X454.5667 Y453.2297 F3600
G00 Z5.0000
G00 X0.0000 Y1.3370
G00 Z-4.5000
G01 Z-6.0000 F60
G01 X454.5667 Y453.2297 F3600
G00 Z5.0000
G00 X0.0000 Y1.3370
G00 Z-5.5000
G01 Z-7.0000 F60
G01 X454.5667 Y453.2297 F3600
G00 Z5.0000
G00 X0.0000 Y1.3370
G00 Z-6.5000
G01 Z-8.0000 F60
G01 X454.5667 Y453.2297 F3600
G00 Z5.0000
G00 X0.0000 Y1.3370
G00 Z-7.5000
G01 Z-9.0000 F60
G01 X454.5667 Y453.2297 F3600
G00 Z5.0000
G00 X0.0000 Y1.3370
G00 Z-8.5000
G01 Z-10.0000 F60
G01 X454.5667 Y453.2297 F3600
G00 Z5.0000
G00 X0.0000 Y1.3370
G00 Z-9.5000
G01 Z-11.0000 F60
G01 X454.5667 Y453.2297 F3600
G00 Z5.0000
G00 X0.0000 Y1.3370
G00 Z-10.5000
G01 Z-12.0000 F60
G01 X454.5667 Y453.2297 F3600
G00 Z5.0000
G00 X0.0000 Y1.3370
G00 Z-11.5000
G01 Z-13.0000 F60
G01 X454.5667 Y453.2297 F3600
G00 Z5.0000
G00 X0.0000 Y1.3370
G00 Z-12.5000
G01 Z-14.0000 F60
G01 X454.5667 Y453.2297 F3600
G00 Z5.0000
G00 X0.0000 Y1.3370
G00 Z-13.5000
G01 Z-15.0000 F60
G01 X454.5667 Y453.2297 F3600
G00 Z5.0000
G00 X0.0000 Y1.3370
G00 Z-14.5000
G01 Z-16.0000 F60
G01 X454.5667 Y453.2297 F3600
G00 Z5.0000
G00 X0.0000 Y1.3370
G00 Z-15.5000
G01 Z-17.0000 F60
G01 X454.5667 Y453.2297 F3600
G00 Z5.0000
G00 X0.0000 Y1.3370
G00 Z-16.5000
G01 Z-18.0000 F60
G01 X454.5667 Y453.2297 F3600
G00 Z5.0000
G00 X0.0000 Y1.3370
G00 Z-17.5000
G01 Z-19.0000 F60
G01 X454.5667 Y453.2297 F3600
G00 Z5.0000
G00 X0.0000 Y1.3370
G00 Z-18.5000
G01 Z-20.0000 F60
G01 X454.5667 Y453.2297 F3600
G00 Z5.0000
G00 X0.0000 Y1.3370
G00 Z-19.5000
G01 Z-21.0000 F60
G01 X454.5667 Y453.2297 F3600
G00 Z5.0000
G00 X0.0000 Y1.3370
G00 Z-20.5000
G01 Z-22.0000 F60
G01 X454.5667 Y453.2297 F3600
G00 Z5.0000
G00 X0.0000 Y1.3370
G00 Z-21.5000
G01 Z-23.0000 F60
G01 X454.5667 Y453.2297 F3600
G00 Z5.0000
G00 X0.0000 Y1.3370
G00 Z-22.5000
G01 Z-24.0000 F60
G01 X454.5667 Y453.2297 F3600
G00 Z5.0000
G00 X0.0000 Y1.3370
G00 Z-23.5000
G01 Z-25.0000 F60
G01 X454.5667 Y453.2297 F3600
G00 Z5.0000
G00 X0.0000 Y1.3370
G00 Z-24.5000
G01 Z-26.0000 F60
G01 X454.5667 Y453.2297 F3600
G00 Z5.0000
G00 X0.0000 Y1.3370
G00 Z-25.5000
G01 Z-27.0000 F60
G01 X454.5667 Y453.2297 F3600
G00 Z5.0000
G00 X0.0000 Y1.3370
G00 Z-26.5000
G01 Z-28.0000 F60
G01 X454.5667 Y453.2297 F3600
G00 Z5.0000
G00 X0.0000 Y1.3370
G00 Z-27.5000
G01 Z-29.0000 F60
G01 X454.5667 Y453.2297 F3600
G00 Z5.0000
G00 X0.0000 Y1.3370
G00 Z-28.5000
G01 Z-30.0000 F60
G01 X454.5667 Y453.2297 F3600
G00 Z5.0000
G00 X0.0000 Y1.3370
G00 Z-29.5000
G01 Z-31.0000 F60
G01 X454.5667 Y453.2297 F3600
G00 Z5.0000
G00 X0.0000 Y1.3370
G00 Z-30.5000
G01 Z-32.0000 F60
G01 X454.5667 Y453.2297 F3600
G00 Z5.0000
G00 X0.0000 Y1.3370
G00 Z-31.5000
G01 Z-33.0000 F60
G01 X454.5667 Y453.2297 F3600
G00 Z5.0000
G00 X0.0000 Y1.3370
G00 Z-32.5000
G01 Z-34.0000 F60
G01 X454.5667 Y453.2297 F3600
G00 Z5.0000
G00 X0.0000 Y1.3370
G00 Z-33.5000
G01 Z-35.0000 F60
G01 X454.5667 Y453.2297 F3600
G00 Z5.0000
G00 X0.0000 Y1.3370
G00 Z-34.5000
G01 Z-36.0000 F60
G01 X454.5667 Y453.2297 F3600
G00 Z5.0000
G00 X0.0000 Y1.3370
G00 Z-35.5000
G01 Z-37.0000 F60
G01 X454.5667 Y453.2297 F3600
G00 Z5.0000
G00 X0.0000 Y1.3370
G00 Z-36.5000
G01 Z-38.0000 F60
G01 X454.5667 Y453.2297 F3600
G00 Z5.0000
G00 X0.0000 Y1.3370
G00 Z-37.5000
G01 Z-39.0000 F60
G01 X454.5667 Y453.2297 F3600
G00 Z5.0000
G00 X0.0000 Y1.3370
G00 Z-38.5000
G01 Z-40.0000 F60
G01 X454.5667 Y453.2297 F3600
G00 Z5.0000


;No. 8: Engraving 8
G00 X0.0000 Y1.3370
G00 Z0.5000
G01 Z-1.0000 F60
G01 X454.5667 Y453.2297 F3600
G00 Z5.0000
G00 X0.0000 Y1.3370
G00 Z-0.5000
G01 Z-2.0000 F60
G01 X454.5667 Y453.2297 F3600
G00 Z5.0000
G00 X0.0000 Y1.3370
G00 Z-1.5000
G01 Z-3.0000 F60
G01 X454.5667 Y453.2297 F3600
G00 Z5.0000
G00 X0.0000 Y1.3370
G00 Z-2.5000
G01 Z-4.0000 F60
G01 X454.5667 Y453.2297 F3600
G00 Z5.0000
G00 X0.0000 Y1.3370
G00 Z-3.5000
G01 Z-5.0000 F60
G01 X454.5667 Y453.2297 F3600
G00 Z5.0000
G00 X0.0000 Y1.3370
G00 Z-4.5000
G01 Z-6.0000 F60
G01 X454.5667 Y453.2297 F3600
G00 Z5.0000
G00 X0.0000 Y1.3370
G00 Z-5.5000
G01 Z-7.0000 F60
G01 X454.5667 Y453.2297 F3600
G00 Z5.0000
G00 X0.0000 Y1.3370
G00 Z-6.5000
G01 Z-8.0000 F60
G01 X454.5667 Y453.2297 F3600
G00 Z5.0000
G00 X0.0000 Y1.3370
G00 Z-7.5000
G01 Z-9.0000 F60
G01 X454.5667 Y453.2297 F3600
G00 Z5.0000
G00 X0.0000 Y1.3370
G00 Z-8.5000
G01 Z-10.0000 F60
G01 X454.5667 Y453.2297 F3600
G00 Z5.0000
G00 X0.0000 Y1.3370
G00 Z-9.5000
G01 Z-11.0000 F60
G01 X454.5667 Y453.2297 F3600
G00 Z5.0000
G00 X0.0000 Y1.3370
G00 Z-10.5000
G01 Z-12.0000 F60
G01 X454.5667 Y453.2297 F3600
G00 Z5.0000
G00 X0.0000 Y1.3370
G00 Z-11.5000
G01 Z-13.0000 F60
G01 X454.5667 Y453.2297 F3600
G00 Z5.0000
G00 X0.0000 Y1.3370
G00 Z-12.5000
G01 Z-14.0000 F60
G01 X454.5667 Y453.2297 F3600
G00 Z5.0000
G00 X0.0000 Y1.3370
G00 Z-13.5000
G01 Z-15.0000 F60
G01 X454.5667 Y453.2297 F3600
G00 Z5.0000
G00 X0.0000 Y1.3370
G00 Z-14.5000
G01 Z-16.0000 F60
G01 X454.5667 Y453.2297 F3600
G00 Z5.0000
G00 X0.0000 Y1.3370
G00 Z-15.5000
G01 Z-17.0000 F60
G01 X454.5667 Y453.2297 F3600
G00 Z5.0000
G00 X0.0000 Y1.3370
G00 Z-16.5000
G01 Z-18.0000 F60
G01 X454.5667 Y453.2297 F3600
G00 Z5.0000
G00 X0.0000 Y1.3370
G00 Z-17.5000
G01 Z-19.0000 F60
G01 X454.5667 Y453.2297 F3600
G00 Z5.0000
G00 X0.0000 Y1.3370
G00 Z-18.5000
G01 Z-20.0000 F60
G01 X454.5667 Y453.2297 F3600
G00 Z5.0000
G00 X0.0000 Y1.3370
G00 Z-19.5000
G01 Z-21.0000 F60
G01 X454.5667 Y453.2297 F3600
G00 Z5.0000
G00 X0.0000 Y1.3370
G00 Z-20.5000
G01 Z-22.0000 F60
G01 X454.5667 Y453.2297 F3600
G00 Z5.0000
G00 X0.0000 Y1.3370
G00 Z-21.5000
G01 Z-23.0000 F60
G01 X454.5667 Y453.2297 F3600
G00 Z5.0000
G00 X0.0000 Y1.3370
G00 Z-22.5000
G01 Z-24.0000 F60
G01 X454.5667 Y453.2297 F3600
G00 Z5.0000
G00 X0.0000 Y1.3370
G00 Z-23.5000
G01 Z-25.0000 F60
G01 X454.5667 Y453.2297 F3600
G00 Z5.0000
G00 X0.0000 Y1.3370
G00 Z-24.5000
G01 Z-26.0000 F60
G01 X454.5667 Y453.2297 F3600
G00 Z5.0000
G00 X0.0000 Y1.3370
G00 Z-25.5000
G01 Z-27.0000 F60
G01 X454.5667 Y453.2297 F3600
G00 Z5.0000
G00 X0.0000 Y1.3370
G00 Z-26.5000
G01 Z-28.0000 F60
G01 X454.5667 Y453.2297 F3600
G00 Z5.0000
G00 X0.0000 Y1.3370
G00 Z-27.5000
G01 Z-29.0000 F60
G01 X454.5667 Y453.2297 F3600
G00 Z5.0000
G00 X0.0000 Y1.3370
G00 Z-28.5000
G01 Z-30.0000 F60
G01 X454.5667 Y453.2297 F3600
G00 Z5.0000
G00 X0.0000 Y1.3370
G00 Z-29.5000
G01 Z-31.0000 F60
G01 X454.5667 Y453.2297 F3600
G00 Z5.0000
G00 X0.0000 Y1.3370
G00 Z-30.5000
G01 Z-32.0000 F60
G01 X454.5667 Y453.2297 F3600
G00 Z5.0000
G00 X0.0000 Y1.3370
G00 Z-31.5000
G01 Z-33.0000 F60
G01 X454.5667 Y453.2297 F3600
G00 Z5.0000
G00 X0.0000 Y1.3370
G00 Z-32.5000
G01 Z-34.0000 F60
G01 X454.5667 Y453.2297 F3600
G00 Z5.0000
G00 X0.0000 Y1.3370
G00 Z-33.5000
G01 Z-35.0000 F60
G01 X454.5667 Y453.2297 F3600
G00 Z5.0000
G00 X0.0000 Y1.3370
G00 Z-34.5000
G01 Z-36.0000 F60
G01 X454.5667 Y453.2297 F3600
G00 Z5.0000
G00 X0.0000 Y1.3370
G00 Z-35.5000
G01 Z-37.0000 F60
G01 X454.5667 Y453.2297 F3600
G00 Z5.0000
G00 X0.0000 Y1.3370
G00 Z-36.5000
G01 Z-38.0000 F60
G01 X454.5667 Y453.2297 F3600
G00 Z5.0000
G00 X0.0000 Y1.3370
G00 Z-37.5000
G01 Z-39.0000 F60
G01 X454.5667 Y453.2297 F3600
G00 Z5.0000
G00 X0.0000 Y1.3370
G00 Z-38.5000
G01 Z-40.0000 F60
G01 X454.5667 Y453.2297 F3600
G00 Z5.0000


;No. 9: Engraving 9
G00 X0.0000 Y1.3370
G00 Z0.5000
G01 Z-1.0000 F60
G01 X454.5667 Y453.2297 F3600
G00 Z5.0000
G00 X0.0000 Y1.3370
G00 Z-0.5000
G01 Z-2.0000 F60
G01 X454.5667 Y453.2297 F3600
G00 Z5.0000
G00 X0.0000 Y1.3370
G00 Z-1.5000
G01 Z-3.0000 F60
G01 X454.5667 Y453.2297 F3600
G00 Z5.0000
G00 X0.0000 Y1.3370
G00 Z-2.5000
G01 Z-4.0000 F60
G01 X454.5667 Y453.2297 F3600
G00 Z5.0000
G00 X0.0000 Y1.3370
G00 Z-3.5000
G01 Z-5.0000 F60
G01 X454.5667 Y453.2297 F3600
G00 Z5.0000
G00 X0.0000 Y1.3370
G00 Z-4.5000
G01 Z-6.0000 F60
G01 X454.5667 Y453.2297 F3600
G00 Z5.0000
G00 X0.0000 Y1.3370
G00 Z-5.5000
G01 Z-7.0000 F60
G01 X454.5667 Y453.2297 F3600
G00 Z5.0000
G00 X0.0000 Y1.3370
G00 Z-6.5000
G01 Z-8.0000 F60
G01 X454.5667 Y453.2297 F3600
G00 Z5.0000
G00 X0.0000 Y1.3370
G00 Z-7.5000
G01 Z-9.0000 F60
G01 X454.5667 Y453.2297 F3600
G00 Z5.0000
G00 X0.0000 Y1.3370
G00 Z-8.5000
G01 Z-10.0000 F60
G01 X454.5667 Y453.2297 F3600
G00 Z5.0000
G00 X0.0000 Y1.3370
G00 Z-9.5000
G01 Z-11.0000 F60
G01 X454.5667 Y453.2297 F3600
G00 Z5.0000
G00 X0.0000 Y1.3370
G00 Z-10.5000
G01 Z-12.0000 F60
G01 X454.5667 Y453.2297 F3600
G00 Z5.0000
G00 X0.0000 Y1.3370
G00 Z-11.5000
G01 Z-13.0000 F60
G01 X454.5667 Y453.2297 F3600
G00 Z5.0000
G00 X0.0000 Y1.3370
G00 Z-12.5000
G01 Z-14.0000 F60
G01 X454.5667 Y453.2297 F3600
G00 Z5.0000
G00 X0.0000 Y1.3370
G00 Z-13.5000
G01 Z-15.0000 F60
G01 X454.5667 Y453.2297 F3600
G00 Z5.0000
G00 X0.0000 Y1.3370
G00 Z-14.5000
G01 Z-16.0000 F60
G01 X454.5667 Y453.2297 F3600
G00 Z5.0000
G00 X0.0000 Y1.3370
G00 Z-15.5000
G01 Z-17.0000 F60
G01 X454.5667 Y453.2297 F3600
G00 Z5.0000
G00 X0.0000 Y1.3370
G00 Z-16.5000
G01 Z-18.0000 F60
G01 X454.5667 Y453.2297 F3600
G00 Z5.0000
G00 X0.0000 Y1.3370
G00 Z-17.5000
G01 Z-19.0000 F60
G01 X454.5667 Y453.2297 F3600
G00 Z5.0000
G00 X0.0000 Y1.3370
G00 Z-18.5000
G01 Z-20.0000 F60
G01 X454.5667 Y453.2297 F3600
G00 Z5.0000
G00 X0.0000 Y1.3370
G00 Z-19.5000
G01 Z-21.0000 F60
G01 X454.5667 Y453.2297 F3600
G00 Z5.0000
G00 X0.0000 Y1.3370
G00 Z-20.5000
G01 Z-22.0000 F60
G01 X454.5667 Y453.2297 F3600
G00 Z5.0000
G00 X0.0000 Y1.3370
G00 Z-21.5000
G01 Z-23.0000 F60
G01 X454.5667 Y453.2297 F3600
G00 Z5.0000
G00 X0.0000 Y1.3370
G00 Z-22.5000
G01 Z-24.0000 F60
G01 X454.5667 Y453.2297 F3600
G00 Z5.0000
G00 X0.0000 Y1.3370
G00 Z-23.5000
G01 Z-25.0000 F60
G01 X454.5667 Y453.2297 F3600
G00 Z5.0000
G00 X0.0000 Y1.3370
G00 Z-24.5000
G01 Z-26.0000 F60
G01 X454.5667 Y453.2297 F3600
G00 Z5.0000
G00 X0.0000 Y1.3370
G00 Z-25.5000
G01 Z-27.0000 F60
G01 X454.5667 Y453.2297 F3600
G00 Z5.0000
G00 X0.0000 Y1.3370
G00 Z-26.5000
G01 Z-28.0000 F60
G01 X454.5667 Y453.2297 F3600
G00 Z5.0000
G00 X0.0000 Y1.3370
G00 Z-27.5000
G01 Z-29.0000 F60
G01 X454.5667 Y453.2297 F3600
G00 Z5.0000
G00 X0.0000 Y1.3370
G00 Z-28.5000
G01 Z-30.0000 F60
G01 X454.5667 Y453.2297 F3600
G00 Z5.0000
G00 X0.0000 Y1.3370
G00 Z-29.5000
G01 Z-31.0000 F60
G01 X454.5667 Y453.2297 F3600
G00 Z5.0000
G00 X0.0000 Y1.3370
G00 Z-30.5000
G01 Z-32.0000 F60
G01 X454.5667 Y453.2297 F3600
G00 Z5.0000
G00 X0.0000 Y1.3370
G00 Z-31.5000
G01 Z-33.0000 F60
G01 X454.5667 Y453.2297 F3600
G00 Z5.0000
G00 X0.0000 Y1.3370
G00 Z-32.5000
G01 Z-34.0000 F60
G01 X454.5667 Y453.2297 F3600
G00 Z5.0000
G00 X0.0000 Y1.3370
G00 Z-33.5000
G01 Z-35.0000 F60
G01 X454.5667 Y453.2297 F3600
G00 Z5.0000
G00 X0.0000 Y1.3370
G00 Z-34.5000
G01 Z-36.0000 F60
G01 X454.5667 Y453.2297 F3600
G00 Z5.0000
G00 X0.0000 Y1.3370
G00 Z-35.5000
G01 Z-37.0000 F60
G01 X454.5667 Y453.2297 F3600
G00 Z5.0000
G00 X0.0000 Y1.3370
G00 Z-36.5000
G01 Z-38.0000 F60
G01 X454.5667 Y453.2297 F3600
G00 Z5.0000
G00 X0.0000 Y1.3370
G00 Z-37.5000
G01 Z-39.0000 F60
G01 X454.5667 Y453.2297 F3600
G00 Z5.0000
G00 X0.0000 Y1.3370
G00 Z-38.5000
G01 Z-40.0000 F60
G01 X454.5667 Y453.2297 F3600
G00 Z5.0000


;No. 10: Engraving 10
G00 X0.0000 Y1.3370
G00 Z0.5000
G01 Z-1.0000 F60
G01 X454.5667 Y453.2297 F3600
G00 Z5.0000
G00 X0.0000 Y1.3370
G00 Z-0.5000
G01 Z-2.0000 F60
G01 X454.5667 Y453.2297 F3600
G00 Z5.0000
G00 X0.0000 Y1.3370
G00 Z-1.5000
G01 Z-3.0000 F60
G01 X454.5667 Y453.2297 F3600
G00 Z5.0000
G00 X0.0000 Y1.3370
G00 Z-2.5000
G01 Z-4.0000 F60
G01 X454.5667 Y453.2297 F3600
G00 Z5.0000
G00 X0.0000 Y1.3370
G00 Z-3.5000
G01 Z-5.0000 F60
G01 X454.5667 Y453.2297 F3600
G00 Z5.0000
G00 X0.0000 Y1.3370
G00 Z-4.5000
G01 Z-6.0000 F60
G01 X454.5667 Y453.2297 F3600
G00 Z5.0000
G00 X0.0000 Y1.3370
G00 Z-5.5000
G01 Z-7.0000 F60
G01 X454.5667 Y453.2297 F3600
G00 Z5.0000
G00 X0.0000 Y1.3370
G00 Z-6.5000
G01 Z-8.0000 F60
G01 X454.5667 Y453.2297 F3600
G00 Z5.0000
G00 X0.0000 Y1.3370
G00 Z-7.5000
G01 Z-9.0000 F60
G01 X454.5667 Y453.2297 F3600
G00 Z5.0000
G00 X0.0000 Y1.3370
G00 Z-8.5000
G01 Z-10.0000 F60
G01 X454.5667 Y453.2297 F3600
G00 Z5.0000
G00 X0.0000 Y1.3370
G00 Z-9.5000
G01 Z-11.0000 F60
G01 X454.5667 Y453.2297 F3600
G00 Z5.0000
G00 X0.0000 Y1.3370
G00 Z-10.5000
G01 Z-12.0000 F60
G01 X454.5667 Y453.2297 F3600
G00 Z5.0000
G00 X0.0000 Y1.3370
G00 Z-11.5000
G01 Z-13.0000 F60
G01 X454.5667 Y453.2297 F3600
G00 Z5.0000
G00 X0.0000 Y1.3370
G00 Z-12.5000
G01 Z-14.0000 F60
G01 X454.5667 Y453.2297 F3600
G00 Z5.0000
G00 X0.0000 Y1.3370
G00 Z-13.5000
G01 Z-15.0000 F60
G01 X454.5667 Y453.2297 F3600
G00 Z5.0000
G00 X0.0000 Y1.3370
G00 Z-14.5000
G01 Z-16.0000 F60
G01 X454.5667 Y453.2297 F3600
G00 Z5.0000
G00 X0.0000 Y1.3370
G00 Z-15.5000
G01 Z-17.0000 F60
G01 X454.5667 Y453.2297 F3600
G00 Z5.0000
G00 X0.0000 Y1.3370
G00 Z-16.5000
G01 Z-18.0000 F60
G01 X454.5667 Y453.2297 F3600
G00 Z5.0000
G00 X0.0000 Y1.3370
G00 Z-17.5000
G01 Z-19.0000 F60
G01 X454.5667 Y453.2297 F3600
G00 Z5.0000
G00 X0.0000 Y1.3370
G00 Z-18.5000
G01 Z-20.0000 F60
G01 X454.5667 Y453.2297 F3600
G00 Z5.0000
G00 X0.0000 Y1.3370
G00 Z-19.5000
G01 Z-21.0000 F60
G01 X454.5667 Y453.2297 F3600
G00 Z5.0000
G00 X0.0000 Y1.3370
G00 Z-20.5000
G01 Z-22.0000 F60
G01 X454.5667 Y453.2297 F3600
G00 Z5.0000
G00 X0.0000 Y1.3370
G00 Z-21.5000
G01 Z-23.0000 F60
G01 X454.5667 Y453.2297 F3600
G00 Z5.0000
G00 X0.0000 Y1.3370
G00 Z-22.5000
G01 Z-24.0000 F60
G01 X454.5667 Y453.2297 F3600
G00 Z5.0000
G00 X0.0000 Y1.3370
G00 Z-23.5000
G01 Z-25.0000 F60
G01 X454.5667 Y453.2297 F3600
G00 Z5.0000
G00 X0.0000 Y1.3370
G00 Z-24.5000
G01 Z-26.0000 F60
G01 X454.5667 Y453.2297 F3600
G00 Z5.0000
G00 X0.0000 Y1.3370
G00 Z-25.5000
G01 Z-27.0000 F60
G01 X454.5667 Y453.2297 F3600
G00 Z5.0000
G00 X0.0000 Y1.3370
G00 Z-26.5000
G01 Z-28.0000 F60
G01 X454.5667 Y453.2297 F3600
G00 Z5.0000
G00 X0.0000 Y1.3370
G00 Z-27.5000
G01 Z-29.0000 F60
G01 X454.5667 Y453.2297 F3600
G00 Z5.0000
G00 X0.0000 Y1.3370
G00 Z-28.5000
G01 Z-30.0000 F60
G01 X454.5667 Y453.2297 F3600
G00 Z5.0000
G00 X0.0000 Y1.3370
G00 Z-29.5000
G01 Z-31.0000 F60
G01 X454.5667 Y453.2297 F3600
G00 Z5.0000
G00 X0.0000 Y1.3370
G00 Z-30.5000
G01 Z-32.0000 F60
G01 X454.5667 Y453.2297 F3600
G00 Z5.0000
G00 X0.0000 Y1.3370
G00 Z-31.5000
G01 Z-33.0000 F60
G01 X454.5667 Y453.2297 F3600
G00 Z5.0000
G00 X0.0000 Y1.3370
G00 Z-32.5000
G01 Z-34.0000 F60
G01 X454.5667 Y453.2297 F3600
G00 Z5.0000
G00 X0.0000 Y1.3370
G00 Z-33.5000
G01 Z-35.0000 F60
G01 X454.5667 Y453.2297 F3600
G00 Z5.0000
G00 X0.0000 Y1.3370
G00 Z-34.5000
G01 Z-36.0000 F60
G01 X454.5667 Y453.2297 F3600
G00 Z5.0000
G00 X0.0000 Y1.3370
G00 Z-35.5000
G01 Z-37.0000 F60
G01 X454.5667 Y453.2297 F3600
G00 Z5.0000
G00 X0.0000 Y1.3370
G00 Z-36.5000
G01 Z-38.0000 F60
G01 X454.5667 Y453.2297 F3600
G00 Z5.0000
G00 X0.0000 Y1.3370
G00 Z-37.5000
G01 Z-39.0000 F60
G01 X454.5667 Y453.2297 F3600
G00 Z5.0000
G00 X0.0000 Y1.3370
G00 Z-38.5000
G01 Z-40.0000 F60
G01 X454.5667 Y453.2297 F3600
G00 Z5.0000


;No. 11: Engraving 11
G00 X0.0000 Y1.3370
G00 Z0.5000
G01 Z-1.0000 F60
G01 X454.5667 Y453.2297 F3600
G00 Z5.0000
G00 X0.0000 Y1.3370
G00 Z-0.5000
G01 Z-2.0000 F60
G01 X454.5667 Y453.2297 F3600
G00 Z5.0000
G00 X0.0000 Y1.3370
G00 Z-1.5000
G01 Z-3.0000 F60
G01 X454.5667 Y453.2297 F3600
G00 Z5.0000
G00 X0.0000 Y1.3370
G00 Z-2.5000
G01 Z-4.0000 F60
G01 X454.5667 Y453.2297 F3600
G00 Z5.0000
G00 X0.0000 Y1.3370
G00 Z-3.5000
G01 Z-5.0000 F60
G01 X454.5667 Y453.2297 F3600
G00 Z5.0000
G00 X0.0000 Y1.3370
G00 Z-4.5000
G01 Z-6.0000 F60
G01 X454.5667 Y453.2297 F3600
G00 Z5.0000
G00 X0.0000 Y1.3370
G00 Z-5.5000
G01 Z-7.0000 F60
G01 X454.5667 Y453.2297 F3600
G00 Z5.0000
G00 X0.0000 Y1.3370
G00 Z-6.5000
G01 Z-8.0000 F60
G01 X454.5667 Y453.2297 F3600
G00 Z5.0000
G00 X0.0000 Y1.3370
G00 Z-7.5000
G01 Z-9.0000 F60
G01 X454.5667 Y453.2297 F3600
G00 Z5.0000
G00 X0.0000 Y1.3370
G00 Z-8.5000
G01 Z-10.0000 F60
G01 X454.5667 Y453.2297 F3600
G00 Z5.0000
G00 X0.0000 Y1.3370
G00 Z-9.5000
G01 Z-11.0000 F60
G01 X454.5667 Y453.2297 F3600
G00 Z5.0000
G00 X0.0000 Y1.3370
G00 Z-10.5000
G01 Z-12.0000 F60
G01 X454.5667 Y453.2297 F3600
G00 Z5.0000
G00 X0.0000 Y1.3370
G00 Z-11.5000
G01 Z-13.0000 F60
G01 X454.5667 Y453.2297 F3600
G00 Z5.0000
G00 X0.0000 Y1.3370
G00 Z-12.5000
G01 Z-14.0000 F60
G01 X454.5667 Y453.2297 F3600
G00 Z5.0000
G00 X0.0000 Y1.3370
G00 Z-13.5000
G01 Z-15.0000 F60
G01 X454.5667 Y453.2297 F3600
G00 Z5.0000
G00 X0.0000 Y1.3370
G00 Z-14.5000
G01 Z-16.0000 F60
G01 X454.5667 Y453.2297 F3600
G00 Z5.0000
G00 X0.0000 Y1.3370
G00 Z-15.5000
G01 Z-17.0000 F60
G01 X454.5667 Y453.2297 F3600
G00 Z5.0000
G00 X0.0000 Y1.3370
G00 Z-16.5000
G01 Z-18.0000 F60
G01 X454.5667 Y453.2297 F3600
G00 Z5.0000
G00 X0.0000 Y1.3370
G00 Z-17.5000
G01 Z-19.0000 F60
G01 X454.5667 Y453.2297 F3600
G00 Z5.0000
G00 X0.0000 Y1.3370
G00 Z-18.5000
G01 Z-20.0000 F60
G01 X454.5667 Y453.2297 F3600
G00 Z5.0000
G00 X0.0000 Y1.3370
G00 Z-19.5000
G01 Z-21.0000 F60
G01 X454.5667 Y453.2297 F3600
G00 Z5.0000
G00 X0.0000 Y1.3370
G00 Z-20.5000
G01 Z-22.0000 F60
G01 X454.5667 Y453.2297 F3600
G00 Z5.0000
G00 X0.0000 Y1.3370
G00 Z-21.5000
G01 Z-23.0000 F60
G01 X454.5667 Y453.2297 F3600
G00 Z5.0000
G00 X0.0000 Y1.3370
G00 Z-22.5000
G01 Z-24.0000 F60
G01 X454.5667 Y453.2297 F3600
G00 Z5.0000
G00 X0.0000 Y1.3370
G00 Z-23.5000
G01 Z-25.0000 F60
G01 X454.5667 Y453.2297 F3600
G00 Z5.0000
G00 X0.0000 Y1.3370
G00 Z-24.5000
G01 Z-26.0000 F60
G01 X454.5667 Y453.2297 F3600
G00 Z5.0000
G00 X0.0000 Y1.3370
G00 Z-25.5000
G01 Z-27.0000 F60
G01 X454.5667 Y453.2297 F3600
G00 Z5.0000
G00 X0.0000 Y1.3370
G00 Z-26.5000
G01 Z-28.0000 F60
G01 X454.5667 Y453.2297 F3600
G00 Z5.0000
G00 X0.0000 Y1.3370
G00 Z-27.5000
G01 Z-29.0000 F60
G01 X454.5667 Y453.2297 F3600
G00 Z5.0000
G00 X0.0000 Y1.3370
G00 Z-28.5000
G01 Z-30.0000 F60
G01 X454.5667 Y453.2297 F3600
G00 Z5.0000
G00 X0.0000 Y1.3370
G00 Z-29.5000
G01 Z-31.0000 F60
G01 X454.5667 Y453.2297 F3600
G00 Z5.0000
G00 X0.0000 Y1.3370
G00 Z-30.5000
G01 Z-32.0000 F60
G01 X454.5667 Y453.2297 F3600
G00 Z5.0000
G00 X0.0000 Y1.3370
G00 Z-31.5000
G01 Z-33.0000 F60
G01 X454.5667 Y453.2297 F3600
G00 Z5.0000
G00 X0.0000 Y1.3370
G00 Z-32.5000
G01 Z-34.0000 F60
G01 X454.5667 Y453.2297 F3600
G00 Z5.0000
G00 X0.0000 Y1.3370
G00 Z-33.5000
G01 Z-35.0000 F60
G01 X454.5667 Y453.2297 F3600
G00 Z5.0000
G00 X0.0000 Y1.3370
G00 Z-34.5000
G01 Z-36.0000 F60
G01 X454.5667 Y453.2297 F3600
G00 Z5.0000
G00 X0.0000 Y1.3370
G00 Z-35.5000
G01 Z-37.0000 F60
G01 X454.5667 Y453.2297 F3600
G00 Z5.0000
G00 X0.0000 Y1.3370
G00 Z-36.5000
G01 Z-38.0000 F60
G01 X454.5667 Y453.2297 F3600
G00 Z5.0000
G00 X0.0000 Y1.3370
G00 Z-37.5000
G01 Z-39.0000 F60
G01 X454.5667 Y453.2297 F3600
G00 Z5.0000
G00 X0.0000 Y1.3370
G00 Z-38.5000
G01 Z-40.0000 F60
G01 X454.5667 Y453.2297 F3600
G00 Z5.0000


;No. 12: Engraving 12
G00 X0.0000 Y1.3370
G00 Z0.5000
G01 Z-1.0000 F60
G01 X454.5667 Y453.2297 F3600
G00 Z5.0000
G00 X0.0000 Y1.3370
G00 Z-0.5000
G01 Z-2.0000 F60
G01 X454.5667 Y453.2297 F3600
G00 Z5.0000
G00 X0.0000 Y1.3370
G00 Z-1.5000
G01 Z-3.0000 F60
G01 X454.5667 Y453.2297 F3600
G00 Z5.0000
G00 X0.0000 Y1.3370
G00 Z-2.5000
G01 Z-4.0000 F60
G01 X454.5667 Y453.2297 F3600
G00 Z5.0000
G00 X0.0000 Y1.3370
G00 Z-3.5000
G01 Z-5.0000 F60
G01 X454.5667 Y453.2297 F3600
G00 Z5.0000
G00 X0.0000 Y1.3370
G00 Z-4.5000
G01 Z-6.0000 F60
G01 X454.5667 Y453.2297 F3600
G00 Z5.0000
G00 X0.0000 Y1.3370
G00 Z-5.5000
G01 Z-7.0000 F60
G01 X454.5667 Y453.2297 F3600
G00 Z5.0000
G00 X0.0000 Y1.3370
G00 Z-6.5000
G01 Z-8.0000 F60
G01 X454.5667 Y453.2297 F3600
G00 Z5.0000
G00 X0.0000 Y1.3370
G00 Z-7.5000
G01 Z-9.0000 F60
G01 X454.5667 Y453.2297 F3600
G00 Z5.0000
G00 X0.0000 Y1.3370
G00 Z-8.5000
G01 Z-10.0000 F60
G01 X454.5667 Y453.2297 F3600
G00 Z5.0000
G00 X0.0000 Y1.3370
G00 Z-9.5000
G01 Z-11.0000 F60
G01 X454.5667 Y453.2297 F3600
G00 Z5.0000
G00 X0.0000 Y1.3370
G00 Z-10.5000
G01 Z-12.0000 F60
G01 X454.5667 Y453.2297 F3600
G00 Z5.0000
G00 X0.0000 Y1.3370
G00 Z-11.5000
G01 Z-13.0000 F60
G01 X454.5667 Y453.2297 F3600
G00 Z5.0000
G00 X0.0000 Y1.3370
G00 Z-12.5000
G01 Z-14.0000 F60
G01 X454.5667 Y453.2297 F3600
G00 Z5.0000
G00 X0.0000 Y1.3370
G00 Z-13.5000
G01 Z-15.0000 F60
G01 X454.5667 Y453.2297 F3600
G00 Z5.0000
G00 X0.0000 Y1.3370
G00 Z-14.5000
G01 Z-16.0000 F60
G01 X454.5667 Y453.2297 F3600
G00 Z5.0000
G00 X0.0000 Y1.3370
G00 Z-15.5000
G01 Z-17.0000 F60
G01 X454.5667 Y453.2297 F3600
G00 Z5.0000
G00 X0.0000 Y1.3370
G00 Z-16.5000
G01 Z-18.0000 F60
G01 X454.5667 Y453.2297 F3600
G00 Z5.0000
G00 X0.0000 Y1.3370
G00 Z-17.5000
G01 Z-19.0000 F60
G01 X454.5667 Y453.2297 F3600
G00 Z5.0000
G00 X0.0000 Y1.3370
G00 Z-18.5000
G01 Z-20.0000 F60
G01 X454.5667 Y453.2297 F3600
G00 Z5.0000
G00 X0.0000 Y1.3370
G00 Z-19.5000
G01 Z-21.0000 F60
G01 X454.5667 Y453.2297 F3600
G00 Z5.0000
G00 X0.0000 Y1.3370
G00 Z-20.5000
G01 Z-22.0000 F60
G01 X454.5667 Y453.2297 F3600
G00 Z5.0000
G00 X0.0000 Y1.3370
G00 Z-21.5000
G01 Z-23.0000 F60
G01 X454.5667 Y453.2297 F3600
G00 Z5.0000
G00 X0.0000 Y1.3370
G00 Z-22.5000
G01 Z-24.0000 F60
G01 X454.5667 Y453.2297 F3600
G00 Z5.0000
G00 X0.0000 Y1.3370
G00 Z-23.5000
G01 Z-25.0000 F60
G01 X454.5667 Y453.2297 F3600
G00 Z5.0000
G00 X0.0000 Y1.3370
G00 Z-24.5000
G01 Z-26.0000 F60
G01 X454.5667 Y453.2297 F3600
G00 Z5.0000
G00 X0.0000 Y1.3370
G00 Z-25.5000
G01 Z-27.0000 F60
G01 X454.5667 Y453.2297 F3600
G00 Z5.0000
G00 X0.0000 Y1.3370
G00 Z-26.5000
G01 Z-28.0000 F60
G01 X454.5667 Y453.2297 F3600
G00 Z5.0000
G00 X0.0000 Y1.3370
G00 Z-27.5000
G01 Z-29.0000 F60
G01 X454.5667 Y453.2297 F3600
G00 Z5.0000
G00 X0.0000 Y1.3370
G00 Z-28.5000
G01 Z-30.0000 F60
G01 X454.5667 Y453.2297 F3600
G00 Z5.0000
G00 X0.0000 Y1.3370
G00 Z-29.5000
G01 Z-31.0000 F60
G01 X454.5667 Y453.2297 F3600
G00 Z5.0000
G00 X0.0000 Y1.3370
G00 Z-30.5000
G01 Z-32.0000 F60
G01 X454.5667 Y453.2297 F3600
G00 Z5.0000
G00 X0.0000 Y1.3370
G00 Z-31.5000
G01 Z-33.0000 F60
G01 X454.5667 Y453.2297 F3600
G00 Z5.0000
G00 X0.0000 Y1.3370
G00 Z-32.5000
G01 Z-34.0000 F60
G01 X454.5667 Y453.2297 F3600
G00 Z5.0000
G00 X0.0000 Y1.3370
G00 Z-33.5000
G01 Z-35.0000 F60
G01 X454.5667 Y453.2297 F3600
G00 Z5.0000
G00 X0.0000 Y1.3370
G00 Z-34.5000
G01 Z-36.0000 F60
G01 X454.5667 Y453.2297 F3600
G00 Z5.0000
G00 X0.0000 Y1.3370
G00 Z-35.5000
G01 Z-37.0000 F60
G01 X454.5667 Y453.2297 F3600
G00 Z5.0000
G00 X0.0000 Y1.3370
G00 Z-36.5000
G01 Z-38.0000 F60
G01 X454.5667 Y453.2297 F3600
G00 Z5.0000
G00 X0.0000 Y1.3370
G00 Z-37.5000
G01 Z-39.0000 F60
G01 X454.5667 Y453.2297 F3600
G00 Z5.0000
G00 X0.0000 Y1.3370
G00 Z-38.5000
G01 Z-40.0000 F60
G01 X454.5667 Y453.2297 F3600
G00 Z5.0000


;No. 13: Engraving 13
G00 X0.0000 Y1.3370
G00 Z0.5000
G01 Z-1.0000 F60
G01 X454.5667 Y453.2297 F3600
G00 Z5.0000
G00 X0.0000 Y1.3370
G00 Z-0.5000
G01 Z-2.0000 F60
G01 X454.5667 Y453.2297 F3600
G00 Z5.0000
G00 X0.0000 Y1.3370
G00 Z-1.5000
G01 Z-3.0000 F60
G01 X454.5667 Y453.2297 F3600
G00 Z5.0000
G00 X0.0000 Y1.3370
G00 Z-2.5000
G01 Z-4.0000 F60
G01 X454.5667 Y453.2297 F3600
G00 Z5.0000
G00 X0.0000 Y1.3370
G00 Z-3.5000
G01 Z-5.0000 F60
G01 X454.5667 Y453.2297 F3600
G00 Z5.0000
G00 X0.0000 Y1.3370
G00 Z-4.5000
G01 Z-6.0000 F60
G01 X454.5667 Y453.2297 F3600
G00 Z5.0000
G00 X0.0000 Y1.3370
G00 Z-5.5000
G01 Z-7.0000 F60
G01 X454.5667 Y453.2297 F3600
G00 Z5.0000
G00 X0.0000 Y1.3370
G00 Z-6.5000
G01 Z-8.0000 F60
G01 X454.5667 Y453.2297 F3600
G00 Z5.0000
G00 X0.0000 Y1.3370
G00 Z-7.5000
G01 Z-9.0000 F60
G01 X454.5667 Y453.2297 F3600
G00 Z5.0000
G00 X0.0000 Y1.3370
G00 Z-8.5000
G01 Z-10.0000 F60
G01 X454.5667 Y453.2297 F3600
G00 Z5.0000
G00 X0.0000 Y1.3370
G00 Z-9.5000
G01 Z-11.0000 F60
G01 X454.5667 Y453.2297 F3600
G00 Z5.0000
G00 X0.0000 Y1.3370
G00 Z-10.5000
G01 Z-12.0000 F60
G01 X454.5667 Y453.2297 F3600
G00 Z5.0000
G00 X0.0000 Y1.3370
G00 Z-11.5000
G01 Z-13.0000 F60
G01 X454.5667 Y453.2297 F3600
G00 Z5.0000
G00 X0.0000 Y1.3370
G00 Z-12.5000
G01 Z-14.0000 F60
G01 X454.5667 Y453.2297 F3600
G00 Z5.0000
G00 X0.0000 Y1.3370
G00 Z-13.5000
G01 Z-15.0000 F60
G01 X454.5667 Y453.2297 F3600
G00 Z5.0000
G00 X0.0000 Y1.3370
G00 Z-14.5000
G01 Z-16.0000 F60
G01 X454.5667 Y453.2297 F3600
G00 Z5.0000
G00 X0.0000 Y1.3370
G00 Z-15.5000
G01 Z-17.0000 F60
G01 X454.5667 Y453.2297 F3600
G00 Z5.0000
G00 X0.0000 Y1.3370
G00 Z-16.5000
G01 Z-18.0000 F60
G01 X454.5667 Y453.2297 F3600
G00 Z5.0000
G00 X0.0000 Y1.3370
G00 Z-17.5000
G01 Z-19.0000 F60
G01 X454.5667 Y453.2297 F3600
G00 Z5.0000
G00 X0.0000 Y1.3370
G00 Z-18.5000
G01 Z-20.0000 F60
G01 X454.5667 Y453.2297 F3600
G00 Z5.0000
G00 X0.0000 Y1.3370
G00 Z-19.5000
G01 Z-21.0000 F60
G01 X454.5667 Y453.2297 F3600
G00 Z5.0000
G00 X0.0000 Y1.3370
G00 Z-20.5000
G01 Z-22.0000 F60
G01 X454.5667 Y453.2297 F3600
G00 Z5.0000
G00 X0.0000 Y1.3370
G00 Z-21.5000
G01 Z-23.0000 F60
G01 X454.5667 Y453.2297 F3600
G00 Z5.0000
G00 X0.0000 Y1.3370
G00 Z-22.5000
G01 Z-24.0000 F60
G01 X454.5667 Y453.2297 F3600
G00 Z5.0000
G00 X0.0000 Y1.3370
G00 Z-23.5000
G01 Z-25.0000 F60
G01 X454.5667 Y453.2297 F3600
G00 Z5.0000
G00 X0.0000 Y1.3370
G00 Z-24.5000
G01 Z-26.0000 F60
G01 X454.5667 Y453.2297 F3600
G00 Z5.0000
G00 X0.0000 Y1.3370
G00 Z-25.5000
G01 Z-27.0000 F60
G01 X454.5667 Y453.2297 F3600
G00 Z5.0000
G00 X0.0000 Y1.3370
G00 Z-26.5000
G01 Z-28.0000 F60
G01 X454.5667 Y453.2297 F3600
G00 Z5.0000
G00 X0.0000 Y1.3370
G00 Z-27.5000
G01 Z-29.0000 F60
G01 X454.5667 Y453.2297 F3600
G00 Z5.0000
G00 X0.0000 Y1.3370
G00 Z-28.5000
G01 Z-30.0000 F60
G01 X454.5667 Y453.2297 F3600
G00 Z5.0000
G00 X0.0000 Y1.3370
G00 Z-29.5000
G01 Z-31.0000 F60
G01 X454.5667 Y453.2297 F3600
G00 Z5.0000
G00 X0.0000 Y1.3370
G00 Z-30.5000
G01 Z-32.0000 F60
G01 X454.5667 Y453.2297 F3600
G00 Z5.0000
G00 X0.0000 Y1.3370
G00 Z-31.5000
G01 Z-33.0000 F60
G01 X454.5667 Y453.2297 F3600
G00 Z5.0000
G00 X0.0000 Y1.3370
G00 Z-32.5000
G01 Z-34.0000 F60
G01 X454.5667 Y453.2297 F3600
G00 Z5.0000
G00 X0.0000 Y1.3370
G00 Z-33.5000
G01 Z-35.0000 F60
G01 X454.5667 Y453.2297 F3600
G00 Z5.0000
G00 X0.0000 Y1.3370
G00 Z-34.5000
G01 Z-36.0000 F60
G01 X454.5667 Y453.2297 F3600
G00 Z5.0000
G00 X0.0000 Y1.3370
G00 Z-35.5000
G01 Z-37.0000 F60
G01 X454.5667 Y453.2297 F3600
G00 Z5.0000
G00 X0.0000 Y1.3370
G00 Z-36.5000
G01 Z-38.0000 F60
G01 X454.5667 Y453.2297 F3600
G00 Z5.0000
G00 X0.0000 Y1.3370
G00 Z-37.5000
G01 Z-39.0000 F60
G01 X454.5667 Y453.2297 F3600
G00 Z5.0000
G00 X0.0000 Y1.3370
G00 Z-38.5000
G01 Z-40.0000 F60
G01 X454.5667 Y453.2297 F3600
G00 Z5.0000


;No. 14: Engraving 14
G00 X0.0000 Y1.3370
G00 Z0.5000
G01 Z-1.0000 F60
G01 X454.5667 Y453.2297 F3600
G00 Z5.0000
G00 X0.0000 Y1.3370
G00 Z-0.5000
G01 Z-2.0000 F60
G01 X454.5667 Y453.2297 F3600
G00 Z5.0000
G00 X0.0000 Y1.3370
G00 Z-1.5000
G01 Z-3.0000 F60
G01 X454.5667 Y453.2297 F3600
G00 Z5.0000
G00 X0.0000 Y1.3370
G00 Z-2.5000
G01 Z-4.0000 F60
G01 X454.5667 Y453.2297 F3600
G00 Z5.0000
G00 X0.0000 Y1.3370
G00 Z-3.5000
G01 Z-5.0000 F60
G01 X454.5667 Y453.2297 F3600
G00 Z5.0000
G00 X0.0000 Y1.3370
G00 Z-4.5000
G01 Z-6.0000 F60
G01 X454.5667 Y453.2297 F3600
G00 Z5.0000
G00 X0.0000 Y1.3370
G00 Z-5.5000
G01 Z-7.0000 F60
G01 X454.5667 Y453.2297 F3600
G00 Z5.0000
G00 X0.0000 Y1.3370
G00 Z-6.5000
G01 Z-8.0000 F60
G01 X454.5667 Y453.2297 F3600
G00 Z5.0000
G00 X0.0000 Y1.3370
G00 Z-7.5000
G01 Z-9.0000 F60
G01 X454.5667 Y453.2297 F3600
G00 Z5.0000
G00 X0.0000 Y1.3370
G00 Z-8.5000
G01 Z-10.0000 F60
G01 X454.5667 Y453.2297 F3600
G00 Z5.0000
G00 X0.0000 Y1.3370
G00 Z-9.5000
G01 Z-11.0000 F60
G01 X454.5667 Y453.2297 F3600
G00 Z5.0000
G00 X0.0000 Y1.3370
G00 Z-10.5000
G01 Z-12.0000 F60
G01 X454.5667 Y453.2297 F3600
G00 Z5.0000
G00 X0.0000 Y1.3370
G00 Z-11.5000
G01 Z-13.0000 F60
G01 X454.5667 Y453.2297 F3600
G00 Z5.0000
G00 X0.0000 Y1.3370
G00 Z-12.5000
G01 Z-14.0000 F60
G01 X454.5667 Y453.2297 F3600
G00 Z5.0000
G00 X0.0000 Y1.3370
G00 Z-13.5000
G01 Z-15.0000 F60
G01 X454.5667 Y453.2297 F3600
G00 Z5.0000
G00 X0.0000 Y1.3370
G00 Z-14.5000
G01 Z-16.0000 F60
G01 X454.5667 Y453.2297 F3600
G00 Z5.0000
G00 X0.0000 Y1.3370
G00 Z-15.5000
G01 Z-17.0000 F60
G01 X454.5667 Y453.2297 F3600
G00 Z5.0000
G00 X0.0000 Y1.3370
G00 Z-16.5000
G01 Z-18.0000 F60
G01 X454.5667 Y453.2297 F3600
G00 Z5.0000
G00 X0.0000 Y1.3370
G00 Z-17.5000
G01 Z-19.0000 F60
G01 X454.5667 Y453.2297 F3600
G00 Z5.0000
G00 X0.0000 Y1.3370
G00 Z-18.5000
G01 Z-20.0000 F60
G01 X454.5667 Y453.2297 F3600
G00 Z5.0000
G00 X0.0000 Y1.3370
G00 Z-19.5000
G01 Z-21.0000 F60
G01 X454.5667 Y453.2297 F3600
G00 Z5.0000
G00 X0.0000 Y1.3370
G00 Z-20.5000
G01 Z-22.0000 F60
G01 X454.5667 Y453.2297 F3600
G00 Z5.0000
G00 X0.0000 Y1.3370
G00 Z-21.5000
G01 Z-23.0000 F60
G01 X454.5667 Y453.2297 F3600
G00 Z5.0000
G00 X0.0000 Y1.3370
G00 Z-22.5000
G01 Z-24.0000 F60
G01 X454.5667 Y453.2297 F3600
G00 Z5.0000
G00 X0.0000 Y1.3370
G00 Z-23.5000
G01 Z-25.0000 F60
G01 X454.5667 Y453.2297 F3600
G00 Z5.0000
G00 X0.0000 Y1.3370
G00 Z-24.5000
G01 Z-26.0000 F60
G01 X454.5667 Y453.2297 F3600
G00 Z5.0000
G00 X0.0000 Y1.3370
G00 Z-25.5000
G01 Z-27.0000 F60
G01 X454.5667 Y453.2297 F3600
G00 Z5.0000
G00 X0.0000 Y1.3370
G00 Z-26.5000
G01 Z-28.0000 F60
G01 X454.5667 Y453.2297 F3600
G00 Z5.0000
G00 X0.0000 Y1.3370
G00 Z-27.5000
G01 Z-29.0000 F60
G01 X454.5667 Y453.2297 F3600
G00 Z5.0000
G00 X0.0000 Y1.3370
G00 Z-28.5000
G01 Z-30.0000 F60
G01 X454.5667 Y453.2297 F3600
G00 Z5.0000
G00 X0.0000 Y1.3370
G00 Z-29.5000
G01 Z-31.0000 F60
G01 X454.5667 Y453.2297 F3600
G00 Z5.0000
G00 X0.0000 Y1.3370
G00 Z-30.5000
G01 Z-32.0000 F60
G01 X454.5667 Y453.2297 F3600
G00 Z5.0000
G00 X0.0000 Y1.3370
G00 Z-31.5000
G01 Z-33.0000 F60
G01 X454.5667 Y453.2297 F3600
G00 Z5.0000
G00 X0.0000 Y1.3370
G00 Z-32.5000
G01 Z-34.0000 F60
G01 X454.5667 Y453.2297 F3600
G00 Z5.0000
G00 X0.0000 Y1.3370
G00 Z-33.5000
G01 Z-35.0000 F60
G01 X454.5667 Y453.2297 F3600
G00 Z5.0000
G00 X0.0000 Y1.3370
G00 Z-34.5000
G01 Z-36.0000 F60
G01 X454.5667 Y453.2297 F3600
G00 Z5.0000
G00 X0.0000 Y1.3370
G00 Z-35.5000
G01 Z-37.0000 F60
G01 X454.5667 Y453.2297 F3600
G00 Z5.0000
G00 X0.0000 Y1.3370
G00 Z-36.5000
G01 Z-38.0000 F60
G01 X454.5667 Y453.2297 F3600
G00 Z5.0000
G00 X0.0000 Y1.3370
G00 Z-37.5000
G01 Z-39.0000 F60
G01 X454.5667 Y453.2297 F3600
G00 Z5.0000
G00 X0.0000 Y1.3370
G00 Z-38.5000
G01 Z-40.0000 F60
G01 X454.5667 Y453.2297 F3600
G00 Z5.0000


;No. 15: Engraving 15
G00 X0.0000 Y1.3370
G00 Z0.5000
G01 Z-1.0000 F60
G01 X454.5667 Y453.2297 F3600
G00 Z5.0000
G00 X0.0000 Y1.3370
G00 Z-0.5000
G01 Z-2.0000 F60
G01 X454.5667 Y453.2297 F3600
G00 Z5.0000
G00 X0.0000 Y1.3370
G00 Z-1.5000
G01 Z-3.0000 F60
G01 X454.5667 Y453.2297 F3600
G00 Z5.0000
G00 X0.0000 Y1.3370
G00 Z-2.5000
G01 Z-4.0000 F60
G01 X454.5667 Y453.2297 F3600
G00 Z5.0000
G00 X0.0000 Y1.3370
G00 Z-3.5000
G01 Z-5.0000 F60
G01 X454.5667 Y453.2297 F3600
G00 Z5.0000
G00 X0.0000 Y1.3370
G00 Z-4.5000
G01 Z-6.0000 F60
G01 X454.5667 Y453.2297 F3600
G00 Z5.0000
G00 X0.0000 Y1.3370
G00 Z-5.5000
G01 Z-7.0000 F60
G01 X454.5667 Y453.2297 F3600
G00 Z5.0000
G00 X0.0000 Y1.3370
G00 Z-6.5000
G01 Z-8.0000 F60
G01 X454.5667 Y453.2297 F3600
G00 Z5.0000
G00 X0.0000 Y1.3370
G00 Z-7.5000
G01 Z-9.0000 F60
G01 X454.5667 Y453.2297 F3600
G00 Z5.0000
G00 X0.0000 Y1.3370
G00 Z-8.5000
G01 Z-10.0000 F60
G01 X454.5667 Y453.2297 F3600
G00 Z5.0000
G00 X0.0000 Y1.3370
G00 Z-9.5000
G01 Z-11.0000 F60
G01 X454.5667 Y453.2297 F3600
G00 Z5.0000
G00 X0.0000 Y1.3370
G00 Z-10.5000
G01 Z-12.0000 F60
G01 X454.5667 Y453.2297 F3600
G00 Z5.0000
G00 X0.0000 Y1.3370
G00 Z-11.5000
G01 Z-13.0000 F60
G01 X454.5667 Y453.2297 F3600
G00 Z5.0000
G00 X0.0000 Y1.3370
G00 Z-12.5000
G01 Z-14.0000 F60
G01 X454.5667 Y453.2297 F3600
G00 Z5.0000
G00 X0.0000 Y1.3370
G00 Z-13.5000
G01 Z-15.0000 F60
G01 X454.5667 Y453.2297 F3600
G00 Z5.0000
G00 X0.0000 Y1.3370
G00 Z-14.5000
G01 Z-16.0000 F60
G01 X454.5667 Y453.2297 F3600
G00 Z5.0000
G00 X0.0000 Y1.3370
G00 Z-15.5000
G01 Z-17.0000 F60
G01 X454.5667 Y453.2297 F3600
G00 Z5.0000
G00 X0.0000 Y1.3370
G00 Z-16.5000
G01 Z-18.0000 F60
G01 X454.5667 Y453.2297 F3600
G00 Z5.0000
G00 X0.0000 Y1.3370
G00 Z-17.5000
G01 Z-19.0000 F60
G01 X454.5667 Y453.2297 F3600
G00 Z5.0000
G00 X0.0000 Y1.3370
G00 Z-18.5000
G01 Z-20.0000 F60
G01 X454.5667 Y453.2297 F3600
G00 Z5.0000
G00 X0.0000 Y1.3370
G00 Z-19.5000
G01 Z-21.0000 F60
G01 X454.5667 Y453.2297 F3600
G00 Z5.0000
G00 X0.0000 Y1.3370
G00 Z-20.5000
G01 Z-22.0000 F60
G01 X454.5667 Y453.2297 F3600
G00 Z5.0000
G00 X0.0000 Y1.3370
G00 Z-21.5000
G01 Z-23.0000 F60
G01 X454.5667 Y453.2297 F3600
G00 Z5.0000
G00 X0.0000 Y1.3370
G00 Z-22.5000
G01 Z-24.0000 F60
G01 X454.5667 Y453.2297 F3600
G00 Z5.0000
G00 X0.0000 Y1.3370
G00 Z-23.5000
G01 Z-25.0000 F60
G01 X454.5667 Y453.2297 F3600
G00 Z5.0000
G00 X0.0000 Y1.3370
G00 Z-24.5000
G01 Z-26.0000 F60
G01 X454.5667 Y453.2297 F3600
G00 Z5.0000
G00 X0.0000 Y1.3370
G00 Z-25.5000
G01 Z-27.0000 F60
G01 X454.5667 Y453.2297 F3600
G00 Z5.0000
G00 X0.0000 Y1.3370
G00 Z-26.5000
G01 Z-28.0000 F60
G01 X454.5667 Y453.2297 F3600
G00 Z5.0000
G00 X0.0000 Y1.3370
G00 Z-27.5000
G01 Z-29.0000 F60
G01 X454.5667 Y453.2297 F3600
G00 Z5.0000
G00 X0.0000 Y1.3370
G00 Z-28.5000
G01 Z-30.0000 F60
G01 X454.5667 Y453.2297 F3600
G00 Z5.0000
G00 X0.0000 Y1.3370
G00 Z-29.5000
G01 Z-31.0000 F60
G01 X454.5667 Y453.2297 F3600
G00 Z5.0000
G00 X0.0000 Y1.3370
G00 Z-30.5000
G01 Z-32.0000 F60
G01 X454.5667 Y453.2297 F3600
G00 Z5.0000
G00 X0.0000 Y1.3370
G00 Z-31.5000
G01 Z-33.0000 F60
G01 X454.5667 Y453.2297 F3600
G00 Z5.0000
G00 X0.0000 Y1.3370
G00 Z-32.5000
G01 Z-34.0000 F60
G01 X454.5667 Y453.2297 F3600
G00 Z5.0000
G00 X0.0000 Y1.3370
G00 Z-33.5000
G01 Z-35.0000 F60
G01 X454.5667 Y453.2297 F3600
G00 Z5.0000
G00 X0.0000 Y1.3370
G00 Z-34.5000
G01 Z-36.0000 F60
G01 X454.5667 Y453.2297 F3600
G00 Z5.0000
G00 X0.0000 Y1.3370
G00 Z-35.5000
G01 Z-37.0000 F60
G01 X454.5667 Y453.2297 F3600
G00 Z5.0000
G00 X0.0000 Y1.3370
G00 Z-36.5000
G01 Z-38.0000 F60
G01 X454.5667 Y453.2297 F3600
G00 Z5.0000
G00 X0.0000 Y1.3370
G00 Z-37.5000
G01 Z-39.0000 F60
G01 X454.5667 Y453.2297 F3600
G00 Z5.0000
G00 X0.0000 Y1.3370
G00 Z-38.5000
G01 Z-40.0000 F60
G01 X454.5667 Y453.2297 F3600
G00 Z5.0000


;No. 16: Engraving 16
G00 X0.0000 Y1.3370
G00 Z0.5000
G01 Z-1.0000 F60
G01 X454.5667 Y453.2297 F3600
G00 Z5.0000
G00 X0.0000 Y1.3370
G00 Z-0.5000
G01 Z-2.0000 F60
G01 X454.5667 Y453.2297 F3600
G00 Z5.0000
G00 X0.0000 Y1.3370
G00 Z-1.5000
G01 Z-3.0000 F60
G01 X454.5667 Y453.2297 F3600
G00 Z5.0000
G00 X0.0000 Y1.3370
G00 Z-2.5000
G01 Z-4.0000 F60
G01 X454.5667 Y453.2297 F3600
G00 Z5.0000
G00 X0.0000 Y1.3370
G00 Z-3.5000
G01 Z-5.0000 F60
G01 X454.5667 Y453.2297 F3600
G00 Z5.0000
G00 X0.0000 Y1.3370
G00 Z-4.5000
G01 Z-6.0000 F60
G01 X454.5667 Y453.2297 F3600
G00 Z5.0000
G00 X0.0000 Y1.3370
G00 Z-5.5000
G01 Z-7.0000 F60
G01 X454.5667 Y453.2297 F3600
G00 Z5.0000
G00 X0.0000 Y1.3370
G00 Z-6.5000
G01 Z-8.0000 F60
G01 X454.5667 Y453.2297 F3600
G00 Z5.0000
G00 X0.0000 Y1.3370
G00 Z-7.5000
G01 Z-9.0000 F60
G01 X454.5667 Y453.2297 F3600
G00 Z5.0000
G00 X0.0000 Y1.3370
G00 Z-8.5000
G01 Z-10.0000 F60
G01 X454.5667 Y453.2297 F3600
G00 Z5.0000
G00 X0.0000 Y1.3370
G00 Z-9.5000
G01 Z-11.0000 F60
G01 X454.5667 Y453.2297 F3600
G00 Z5.0000
G00 X0.0000 Y1.3370
G00 Z-10.5000
G01 Z-12.0000 F60
G01 X454.5667 Y453.2297 F3600
G00 Z5.0000
G00 X0.0000 Y1.3370
G00 Z-11.5000
G01 Z-13.0000 F60
G01 X454.5667 Y453.2297 F3600
G00 Z5.0000
G00 X0.0000 Y1.3370
G00 Z-12.5000
G01 Z-14.0000 F60
G01 X454.5667 Y453.2297 F3600
G00 Z5.0000
G00 X0.0000 Y1.3370
G00 Z-13.5000
G01 Z-15.0000 F60
G01 X454.5667 Y453.2297 F3600
G00 Z5.0000
G00 X0.0000 Y1.3370
G00 Z-14.5000
G01 Z-16.0000 F60
G01 X454.5667 Y453.2297 F3600
G00 Z5.0000
G00 X0.0000 Y1.3370
G00 Z-15.5000
G01 Z-17.0000 F60
G01 X454.5667 Y453.2297 F3600
G00 Z5.0000
G00 X0.0000 Y1.3370
G00 Z-16.5000
G01 Z-18.0000 F60
G01 X454.5667 Y453.2297 F3600
G00 Z5.0000
G00 X0.0000 Y1.3370
G00 Z-17.5000
G01 Z-19.0000 F60
G01 X454.5667 Y453.2297 F3600
G00 Z5.0000
G00 X0.0000 Y1.3370
G00 Z-18.5000
G01 Z-20.0000 F60
G01 X454.5667 Y453.2297 F3600
G00 Z5.0000
G00 X0.0000 Y1.3370
G00 Z-19.5000
G01 Z-21.0000 F60
G01 X454.5667 Y453.2297 F3600
G00 Z5.0000
G00 X0.0000 Y1.3370
G00 Z-20.5000
G01 Z-22.0000 F60
G01 X454.5667 Y453.2297 F3600
G00 Z5.0000
G00 X0.0000 Y1.3370
G00 Z-21.5000
G01 Z-23.0000 F60
G01 X454.5667 Y453.2297 F3600
G00 Z5.0000
G00 X0.0000 Y1.3370
G00 Z-22.5000
G01 Z-24.0000 F60
G01 X454.5667 Y453.2297 F3600
G00 Z5.0000
G00 X0.0000 Y1.3370
G00 Z-23.5000
G01 Z-25.0000 F60
G01 X454.5667 Y453.2297 F3600
G00 Z5.0000
G00 X0.0000 Y1.3370
G00 Z-24.5000
G01 Z-26.0000 F60
G01 X454.5667 Y453.2297 F3600
G00 Z5.0000
G00 X0.0000 Y1.3370
G00 Z-25.5000
G01 Z-27.0000 F60
G01 X454.5667 Y453.2297 F3600
G00 Z5.0000
G00 X0.0000 Y1.3370
G00 Z-26.5000
G01 Z-28.0000 F60
G01 X454.5667 Y453.2297 F3600
G00 Z5.0000
G00 X0.0000 Y1.3370
G00 Z-27.5000
G01 Z-29.0000 F60
G01 X454.5667 Y453.2297 F3600
G00 Z5.0000
G00 X0.0000 Y1.3370
G00 Z-28.5000
G01 Z-30.0000 F60
G01 X454.5667 Y453.2297 F3600
G00 Z5.0000
G00 X0.0000 Y1.3370
G00 Z-29.5000
G01 Z-31.0000 F60
G01 X454.5667 Y453.2297 F3600
G00 Z5.0000
G00 X0.0000 Y1.3370
G00 Z-30.5000
G01 Z-32.0000 F60
G01 X454.5667 Y453.2297 F3600
G00 Z5.0000
G00 X0.0000 Y1.3370
G00 Z-31.5000
G01 Z-33.0000 F60
G01 X454.5667 Y453.2297 F3600
G00 Z5.0000
G00 X0.0000 Y1.3370
G00 Z-32.5000
G01 Z-34.0000 F60
G01 X454.5667 Y453.2297 F3600
G00 Z5.0000
G00 X0.0000 Y1.3370
G00 Z-33.5000
G01 Z-35.0000 F60
G01 X454.5667 Y453.2297 F3600
G00 Z5.0000
G00 X0.0000 Y1.3370
G00 Z-34.5000
G01 Z-36.0000 F60
G01 X454.5667 Y453.2297 F3600
G00 Z5.0000
G00 X0.0000 Y1.3370
G00 Z-35.5000
G01 Z-37.0000 F60
G01 X454.5667 Y453.2297 F3600
G00 Z5.0000
G00 X0.0000 Y1.3370
G00 Z-36.5000
G01 Z-38.0000 F60
G01 X454.5667 Y453.2297 F3600
G00 Z5.0000
G00 X0.0000 Y1.3370
G00 Z-37.5000
G01 Z-39.0000 F60
G01 X454.5667 Y453.2297 F3600
G00 Z5.0000
G00 X0.0000 Y1.3370
G00 Z-38.5000
G01 Z-40.0000 F60
G01 X454.5667 Y453.2297 F3600
G00 Z5.0000


;No. 17: Engraving 17
G00 X0.0000 Y1.3370
G00 Z0.5000
G01 Z-1.0000 F60
G01 X454.5667 Y453.2297 F3600
G00 Z5.0000
G00 X0.0000 Y1.3370
G00 Z-0.5000
G01 Z-2.0000 F60
G01 X454.5667 Y453.2297 F3600
G00 Z5.0000
G00 X0.0000 Y1.3370
G00 Z-1.5000
G01 Z-3.0000 F60
G01 X454.5667 Y453.2297 F3600
G00 Z5.0000
G00 X0.0000 Y1.3370
G00 Z-2.5000
G01 Z-4.0000 F60
G01 X454.5667 Y453.2297 F3600
G00 Z5.0000
G00 X0.0000 Y1.3370
G00 Z-3.5000
G01 Z-5.0000 F60
G01 X454.5667 Y453.2297 F3600
G00 Z5.0000
G00 X0.0000 Y1.3370
G00 Z-4.5000
G01 Z-6.0000 F60
G01 X454.5667 Y453.2297 F3600
G00 Z5.0000
G00 X0.0000 Y1.3370
G00 Z-5.5000
G01 Z-7.0000 F60
G01 X454.5667 Y453.2297 F3600
G00 Z5.0000
G00 X0.0000 Y1.3370
G00 Z-6.5000
G01 Z-8.0000 F60
G01 X454.5667 Y453.2297 F3600
G00 Z5.0000
G00 X0.0000 Y1.3370
G00 Z-7.5000
G01 Z-9.0000 F60
G01 X454.5667 Y453.2297 F3600
G00 Z5.0000
G00 X0.0000 Y1.3370
G00 Z-8.5000
G01 Z-10.0000 F60
G01 X454.5667 Y453.2297 F3600
G00 Z5.0000
G00 X0.0000 Y1.3370
G00 Z-9.5000
G01 Z-11.0000 F60
G01 X454.5667 Y453.2297 F3600
G00 Z5.0000
G00 X0.0000 Y1.3370
G00 Z-10.5000
G01 Z-12.0000 F60
G01 X454.5667 Y453.2297 F3600
G00 Z5.0000
G00 X0.0000 Y1.3370
G00 Z-11.5000
G01 Z-13.0000 F60
G01 X454.5667 Y453.2297 F3600
G00 Z5.0000
G00 X0.0000 Y1.3370
G00 Z-12.5000
G01 Z-14.0000 F60
G01 X454.5667 Y453.2297 F3600
G00 Z5.0000
G00 X0.0000 Y1.3370
G00 Z-13.5000
G01 Z-15.0000 F60
G01 X454.5667 Y453.2297 F3600
G00 Z5.0000
G00 X0.0000 Y1.3370
G00 Z-14.5000
G01 Z-16.0000 F60
G01 X454.5667 Y453.2297 F3600
G00 Z5.0000
G00 X0.0000 Y1.3370
G00 Z-15.5000
G01 Z-17.0000 F60
G01 X454.5667 Y453.2297 F3600
G00 Z5.0000
G00 X0.0000 Y1.3370
G00 Z-16.5000
G01 Z-18.0000 F60
G01 X454.5667 Y453.2297 F3600
G00 Z5.0000
G00 X0.0000 Y1.3370
G00 Z-17.5000
G01 Z-19.0000 F60
G01 X454.5667 Y453.2297 F3600
G00 Z5.0000
G00 X0.0000 Y1.3370
G00 Z-18.5000
G01 Z-20.0000 F60
G01 X454.5667 Y453.2297 F3600
G00 Z5.0000
G00 X0.0000 Y1.3370
G00 Z-19.5000
G01 Z-21.0000 F60
G01 X454.5667 Y453.2297 F3600
G00 Z5.0000
G00 X0.0000 Y1.3370
G00 Z-20.5000
G01 Z-22.0000 F60
G01 X454.5667 Y453.2297 F3600
G00 Z5.0000
G00 X0.0000 Y1.3370
G00 Z-21.5000
G01 Z-23.0000 F60
G01 X454.5667 Y453.2297 F3600
G00 Z5.0000
G00 X0.0000 Y1.3370
G00 Z-22.5000
G01 Z-24.0000 F60
G01 X454.5667 Y453.2297 F3600
G00 Z5.0000
G00 X0.0000 Y1.3370
G00 Z-23.5000
G01 Z-25.0000 F60
G01 X454.5667 Y453.2297 F3600
G00 Z5.0000
G00 X0.0000 Y1.3370
G00 Z-24.5000
G01 Z-26.0000 F60
G01 X454.5667 Y453.2297 F3600
G00 Z5.0000
G00 X0.0000 Y1.3370
G00 Z-25.5000
G01 Z-27.0000 F60
G01 X454.5667 Y453.2297 F3600
G00 Z5.0000
G00 X0.0000 Y1.3370
G00 Z-26.5000
G01 Z-28.0000 F60
G01 X454.5667 Y453.2297 F3600
G00 Z5.0000
G00 X0.0000 Y1.3370
G00 Z-27.5000
G01 Z-29.0000 F60
G01 X454.5667 Y453.2297 F3600
G00 Z5.0000
G00 X0.0000 Y1.3370
G00 Z-28.5000
G01 Z-30.0000 F60
G01 X454.5667 Y453.2297 F3600
G00 Z5.0000
G00 X0.0000 Y1.3370
G00 Z-29.5000
G01 Z-31.0000 F60
G01 X454.5667 Y453.2297 F3600
G00 Z5.0000
G00 X0.0000 Y1.3370
G00 Z-30.5000
G01 Z-32.0000 F60
G01 X454.5667 Y453.2297 F3600
G00 Z5.0000
G00 X0.0000 Y1.3370
G00 Z-31.5000
G01 Z-33.0000 F60
G01 X454.5667 Y453.2297 F3600
G00 Z5.0000
G00 X0.0000 Y1.3370
G00 Z-32.5000
G01 Z-34.0000 F60
G01 X454.5667 Y453.2297 F3600
G00 Z5.0000
G00 X0.0000 Y1.3370
G00 Z-33.5000
G01 Z-35.0000 F60
G01 X454.5667 Y453.2297 F3600
G00 Z5.0000
G00 X0.0000 Y1.3370
G00 Z-34.5000
G01 Z-36.0000 F60
G01 X454.5667 Y453.2297 F3600
G00 Z5.0000
G00 X0.0000 Y1.3370
G00 Z-35.5000
G01 Z-37.0000 F60
G01 X454.5667 Y453.2297 F3600
G00 Z5.0000
G00 X0.0000 Y1.3370
G00 Z-36.5000
G01 Z-38.0000 F60
G01 X454.5667 Y453.2297 F3600
G00 Z5.0000
G00 X0.0000 Y1.3370
G00 Z-37.5000
G01 Z-39.0000 F60
G01 X454.5667 Y453.2297 F3600
G00 Z5.0000
G00 X0.0000 Y1.3370
G00 Z-38.5000
G01 Z-40.0000 F60
G01 X454.5667 Y453.2297 F3600
G00 Z5.0000


;No. 18: Engraving 18
G00 X0.0000 Y1.3370
G00 Z0.5000
G01 Z-1.0000 F60
G01 X454.5667 Y453.2297 F3600
G00 Z5.0000
G00 X0.0000 Y1.3370
G00 Z-0.5000
G01 Z-2.0000 F60
G01 X454.5667 Y453.2297 F3600
G00 Z5.0000
G00 X0.0000 Y1.3370
G00 Z-1.5000
G01 Z-3.0000 F60
G01 X454.5667 Y453.2297 F3600
G00 Z5.0000
G00 X0.0000 Y1.3370
G00 Z-2.5000
G01 Z-4.0000 F60
G01 X454.5667 Y453.2297 F3600
G00 Z5.0000
G00 X0.0000 Y1.3370
G00 Z-3.5000
G01 Z-5.0000 F60
G01 X454.5667 Y453.2297 F3600
G00 Z5.0000
G00 X0.0000 Y1.3370
G00 Z-4.5000
G01 Z-6.0000 F60
G01 X454.5667 Y453.2297 F3600
G00 Z5.0000
G00 X0.0000 Y1.3370
G00 Z-5.5000
G01 Z-7.0000 F60
G01 X454.5667 Y453.2297 F3600
G00 Z5.0000
G00 X0.0000 Y1.3370
G00 Z-6.5000
G01 Z-8.0000 F60
G01 X454.5667 Y453.2297 F3600
G00 Z5.0000
G00 X0.0000 Y1.3370
G00 Z-7.5000
G01 Z-9.0000 F60
G01 X454.5667 Y453.2297 F3600
G00 Z5.0000
G00 X0.0000 Y1.3370
G00 Z-8.5000
G01 Z-10.0000 F60
G01 X454.5667 Y453.2297 F3600
G00 Z5.0000
G00 X0.0000 Y1.3370
G00 Z-9.5000
G01 Z-11.0000 F60
G01 X454.5667 Y453.2297 F3600
G00 Z5.0000
G00 X0.0000 Y1.3370
G00 Z-10.5000
G01 Z-12.0000 F60
G01 X454.5667 Y453.2297 F3600
G00 Z5.0000
G00 X0.0000 Y1.3370
G00 Z-11.5000
G01 Z-13.0000 F60
G01 X454.5667 Y453.2297 F3600
G00 Z5.0000
G00 X0.0000 Y1.3370
G00 Z-12.5000
G01 Z-14.0000 F60
G01 X454.5667 Y453.2297 F3600
G00 Z5.0000
G00 X0.0000 Y1.3370
G00 Z-13.5000
G01 Z-15.0000 F60
G01 X454.5667 Y453.2297 F3600
G00 Z5.0000
G00 X0.0000 Y1.3370
G00 Z-14.5000
G01 Z-16.0000 F60
G01 X454.5667 Y453.2297 F3600
G00 Z5.0000
G00 X0.0000 Y1.3370
G00 Z-15.5000
G01 Z-17.0000 F60
G01 X454.5667 Y453.2297 F3600
G00 Z5.0000
G00 X0.0000 Y1.3370
G00 Z-16.5000
G01 Z-18.0000 F60
G01 X454.5667 Y453.2297 F3600
G00 Z5.0000
G00 X0.0000 Y1.3370
G00 Z-17.5000
G01 Z-19.0000 F60
G01 X454.5667 Y453.2297 F3600
G00 Z5.0000
G00 X0.0000 Y1.3370
G00 Z-18.5000
G01 Z-20.0000 F60
G01 X454.5667 Y453.2297 F3600
G00 Z5.0000
G00 X0.0000 Y1.3370
G00 Z-19.5000
G01 Z-21.0000 F60
G01 X454.5667 Y453.2297 F3600
G00 Z5.0000
G00 X0.0000 Y1.3370
G00 Z-20.5000
G01 Z-22.0000 F60
G01 X454.5667 Y453.2297 F3600
G00 Z5.0000
G00 X0.0000 Y1.3370
G00 Z-21.5000
G01 Z-23.0000 F60
G01 X454.5667 Y453.2297 F3600
G00 Z5.0000
G00 X0.0000 Y1.3370
G00 Z-22.5000
G01 Z-24.0000 F60
G01 X454.5667 Y453.2297 F3600
G00 Z5.0000
G00 X0.0000 Y1.3370
G00 Z-23.5000
G01 Z-25.0000 F60
G01 X454.5667 Y453.2297 F3600
G00 Z5.0000
G00 X0.0000 Y1.3370
G00 Z-24.5000
G01 Z-26.0000 F60
G01 X454.5667 Y453.2297 F3600
G00 Z5.0000
G00 X0.0000 Y1.3370
G00 Z-25.5000
G01 Z-27.0000 F60
G01 X454.5667 Y453.2297 F3600
G00 Z5.0000
G00 X0.0000 Y1.3370
G00 Z-26.5000
G01 Z-28.0000 F60
G01 X454.5667 Y453.2297 F3600
G00 Z5.0000
G00 X0.0000 Y1.3370
G00 Z-27.5000
G01 Z-29.0000 F60
G01 X454.5667 Y453.2297 F3600
G00 Z5.0000
G00 X0.0000 Y1.3370
G00 Z-28.5000
G01 Z-30.0000 F60
G01 X454.5667 Y453.2297 F3600
G00 Z5.0000
G00 X0.0000 Y1.3370
G00 Z-29.5000
G01 Z-31.0000 F60
G01 X454.5667 Y453.2297 F3600
G00 Z5.0000
G00 X0.0000 Y1.3370
G00 Z-30.5000
G01 Z-32.0000 F60
G01 X454.5667 Y453.2297 F3600
G00 Z5.0000
G00 X0.0000 Y1.3370
G00 Z-31.5000
G01 Z-33.0000 F60
G01 X454.5667 Y453.2297 F3600
G00 Z5.0000
G00 X0.0000 Y1.3370
G00 Z-32.5000
G01 Z-34.0000 F60
G01 X454.5667 Y453.2297 F3600
G00 Z5.0000
G00 X0.0000 Y1.3370
G00 Z-33.5000
G01 Z-35.0000 F60
G01 X454.5667 Y453.2297 F3600
G00 Z5.0000
G00 X0.0000 Y1.3370
G00 Z-34.5000
G01 Z-36.0000 F60
G01 X454.5667 Y453.2297 F3600
G00 Z5.0000
G00 X0.0000 Y1.3370
G00 Z-35.5000
G01 Z-37.0000 F60
G01 X454.5667 Y453.2297 F3600
G00 Z5.0000
G00 X0.0000 Y1.3370
G00 Z-36.5000
G01 Z-38.0000 F60
G01 X454.5667 Y453.2297 F3600
G00 Z5.0000
G00 X0.0000 Y1.3370
G00 Z-37.5000
G01 Z-39.0000 F60
G01 X454.5667 Y453.2297 F3600
G00 Z5.0000
G00 X0.0000 Y1.3370
G00 Z-38.5000
G01 Z-40.0000 F60
G01 X454.5667 Y453.2297 F3600
G00 Z5.0000


;No. 19: Engraving 19
G00 X0.0000 Y1.3370
G00 Z0.5000
G01 Z-1.0000 F60
G01 X454.5667 Y453.2297 F3600
G00 Z5.0000
G00 X0.0000 Y1.3370
G00 Z-0.5000
G01 Z-2.0000 F60
G01 X454.5667 Y453.2297 F3600
G00 Z5.0000
G00 X0.0000 Y1.3370
G00 Z-1.5000
G01 Z-3.0000 F60
G01 X454.5667 Y453.2297 F3600
G00 Z5.0000
G00 X0.0000 Y1.3370
G00 Z-2.5000
G01 Z-4.0000 F60
G01 X454.5667 Y453.2297 F3600
G00 Z5.0000
G00 X0.0000 Y1.3370
G00 Z-3.5000
G01 Z-5.0000 F60
G01 X454.5667 Y453.2297 F3600
G00 Z5.0000
G00 X0.0000 Y1.3370
G00 Z-4.5000
G01 Z-6.0000 F60
G01 X454.5667 Y453.2297 F3600
G00 Z5.0000
G00 X0.0000 Y1.3370
G00 Z-5.5000
G01 Z-7.0000 F60
G01 X454.5667 Y453.2297 F3600
G00 Z5.0000
G00 X0.0000 Y1.3370
G00 Z-6.5000
G01 Z-8.0000 F60
G01 X454.5667 Y453.2297 F3600
G00 Z5.0000
G00 X0.0000 Y1.3370
G00 Z-7.5000
G01 Z-9.0000 F60
G01 X454.5667 Y453.2297 F3600
G00 Z5.0000
G00 X0.0000 Y1.3370
G00 Z-8.5000
G01 Z-10.0000 F60
G01 X454.5667 Y453.2297 F3600
G00 Z5.0000
G00 X0.0000 Y1.3370
G00 Z-9.5000
G01 Z-11.0000 F60
G01 X454.5667 Y453.2297 F3600
G00 Z5.0000
G00 X0.0000 Y1.3370
G00 Z-10.5000
G01 Z-12.0000 F60
G01 X454.5667 Y453.2297 F3600
G00 Z5.0000
G00 X0.0000 Y1.3370
G00 Z-11.5000
G01 Z-13.0000 F60
G01 X454.5667 Y453.2297 F3600
G00 Z5.0000
G00 X0.0000 Y1.3370
G00 Z-12.5000
G01 Z-14.0000 F60
G01 X454.5667 Y453.2297 F3600
G00 Z5.0000
G00 X0.0000 Y1.3370
G00 Z-13.5000
G01 Z-15.0000 F60
G01 X454.5667 Y453.2297 F3600
G00 Z5.0000
G00 X0.0000 Y1.3370
G00 Z-14.5000
G01 Z-16.0000 F60
G01 X454.5667 Y453.2297 F3600
G00 Z5.0000
G00 X0.0000 Y1.3370
G00 Z-15.5000
G01 Z-17.0000 F60
G01 X454.5667 Y453.2297 F3600
G00 Z5.0000
G00 X0.0000 Y1.3370
G00 Z-16.5000
G01 Z-18.0000 F60
G01 X454.5667 Y453.2297 F3600
G00 Z5.0000
G00 X0.0000 Y1.3370
G00 Z-17.5000
G01 Z-19.0000 F60
G01 X454.5667 Y453.2297 F3600
G00 Z5.0000
G00 X0.0000 Y1.3370
G00 Z-18.5000
G01 Z-20.0000 F60
G01 X454.5667 Y453.2297 F3600
G00 Z5.0000
G00 X0.0000 Y1.3370
G00 Z-19.5000
G01 Z-21.0000 F60
G01 X454.5667 Y453.2297 F3600
G00 Z5.0000
G00 X0.0000 Y1.3370
G00 Z-20.5000
G01 Z-22.0000 F60
G01 X454.5667 Y453.2297 F3600
G00 Z5.0000
G00 X0.0000 Y1.3370
G00 Z-21.5000
G01 Z-23.0000 F60
G01 X454.5667 Y453.2297 F3600
G00 Z5.0000
G00 X0.0000 Y1.3370
G00 Z-22.5000
G01 Z-24.0000 F60
G01 X454.5667 Y453.2297 F3600
G00 Z5.0000
G00 X0.0000 Y1.3370
G00 Z-23.5000
G01 Z-25.0000 F60
G01 X454.5667 Y453.2297 F3600
G00 Z5.0000
G00 X0.0000 Y1.3370
G00 Z-24.5000
G01 Z-26.0000 F60
G01 X454.5667 Y453.2297 F3600
G00 Z5.0000
G00 X0.0000 Y1.3370
G00 Z-25.5000
G01 Z-27.0000 F60
G01 X454.5667 Y453.2297 F3600
G00 Z5.0000
G00 X0.0000 Y1.3370
G00 Z-26.5000
G01 Z-28.0000 F60
G01 X454.5667 Y453.2297 F3600
G00 Z5.0000
G00 X0.0000 Y1.3370
G00 Z-27.5000
G01 Z-29.0000 F60
G01 X454.5667 Y453.2297 F3600
G00 Z5.0000
G00 X0.0000 Y1.3370
G00 Z-28.5000
G01 Z-30.0000 F60
G01 X454.5667 Y453.2297 F3600
G00 Z5.0000
G00 X0.0000 Y1.3370
G00 Z-29.5000
G01 Z-31.0000 F60
G01 X454.5667 Y453.2297 F3600
G00 Z5.0000
G00 X0.0000 Y1.3370
G00 Z-30.5000
G01 Z-32.0000 F60
G01 X454.5667 Y453.2297 F3600
G00 Z5.0000
G00 X0.0000 Y1.3370
G00 Z-31.5000
G01 Z-33.0000 F60
G01 X454.5667 Y453.2297 F3600
G00 Z5.0000
G00 X0.0000 Y1.3370
G00 Z-32.5000
G01 Z-34.0000 F60
G01 X454.5667 Y453.2297 F3600
G00 Z5.0000
G00 X0.0000 Y1.3370
G00 Z-33.5000
G01 Z-35.0000 F60
G01 X454.5667 Y453.2297 F3600
G00 Z5.0000
G00 X0.0000 Y1.3370
G00 Z-34.5000
G01 Z-36.0000 F60
G01 X454.5667 Y453.2297 F3600
G00 Z5.0000
G00 X0.0000 Y1.3370
G00 Z-35.5000
G01 Z-37.0000 F60
G01 X454.5667 Y453.2297 F3600
G00 Z5.0000
G00 X0.0000 Y1.3370
G00 Z-36.5000
G01 Z-38.0000 F60
G01 X454.5667 Y453.2297 F3600
G00 Z5.0000
G00 X0.0000 Y1.3370
G00 Z-37.5000
G01 Z-39.0000 F60
G01 X454.5667 Y453.2297 F3600
G00 Z5.0000
G00 X0.0000 Y1.3370
G00 Z-38.5000
G01 Z-40.0000 F60
G01 X454.5667 Y453.2297 F3600
G00 Z5.0000


;No. 20: Engraving 20
G00 X0.0000 Y1.3370
G00 Z0.5000
G01 Z-1.0000 F60
G01 X454.5667 Y453.2297 F3600
G00 Z5.0000
G00 X0.0000 Y1.3370
G00 Z-0.5000
G01 Z-2.0000 F60
G01 X454.5667 Y453.2297 F3600
G00 Z5.0000
G00 X0.0000 Y1.3370
G00 Z-1.5000
G01 Z-3.0000 F60
G01 X454.5667 Y453.2297 F3600
G00 Z5.0000
G00 X0.0000 Y1.3370
G00 Z-2.5000
G01 Z-4.0000 F60
G01 X454.5667 Y453.2297 F3600
G00 Z5.0000
G00 X0.0000 Y1.3370
G00 Z-3.5000
G01 Z-5.0000 F60
G01 X454.5667 Y453.2297 F3600
G00 Z5.0000
G00 X0.0000 Y1.3370
G00 Z-4.5000
G01 Z-6.0000 F60
G01 X454.5667 Y453.2297 F3600
G00 Z5.0000
G00 X0.0000 Y1.3370
G00 Z-5.5000
G01 Z-7.0000 F60
G01 X454.5667 Y453.2297 F3600
G00 Z5.0000
G00 X0.0000 Y1.3370
G00 Z-6.5000
G01 Z-8.0000 F60
G01 X454.5667 Y453.2297 F3600
G00 Z5.0000
G00 X0.0000 Y1.3370
G00 Z-7.5000
G01 Z-9.0000 F60
G01 X454.5667 Y453.2297 F3600
G00 Z5.0000
G00 X0.0000 Y1.3370
G00 Z-8.5000
G01 Z-10.0000 F60
G01 X454.5667 Y453.2297 F3600
G00 Z5.0000
G00 X0.0000 Y1.3370
G00 Z-9.5000
G01 Z-11.0000 F60
G01 X454.5667 Y453.2297 F3600
G00 Z5.0000
G00 X0.0000 Y1.3370
G00 Z-10.5000
G01 Z-12.0000 F60
G01 X454.5667 Y453.2297 F3600
G00 Z5.0000
G00 X0.0000 Y1.3370
G00 Z-11.5000
G01 Z-13.0000 F60
G01 X454.5667 Y453.2297 F3600
G00 Z5.0000
G00 X0.0000 Y1.3370
G00 Z-12.5000
G01 Z-14.0000 F60
G01 X454.5667 Y453.2297 F3600
G00 Z5.0000
G00 X0.0000 Y1.3370
G00 Z-13.5000
G01 Z-15.0000 F60
G01 X454.5667 Y453.2297 F3600
G00 Z5.0000
G00 X0.0000 Y1.3370
G00 Z-14.5000
G01 Z-16.0000 F60
G01 X454.5667 Y453.2297 F3600
G00 Z5.0000
G00 X0.0000 Y1.3370
G00 Z-15.5000
G01 Z-17.0000 F60
G01 X454.5667 Y453.2297 F3600
G00 Z5.0000
G00 X0.0000 Y1.3370
G00 Z-16.5000
G01 Z-18.0000 F60
G01 X454.5667 Y453.2297 F3600
G00 Z5.0000
G00 X0.0000 Y1.3370
G00 Z-17.5000
G01 Z-19.0000 F60
G01 X454.5667 Y453.2297 F3600
G00 Z5.0000
G00 X0.0000 Y1.3370
G00 Z-18.5000
G01 Z-20.0000 F60
G01 X454.5667 Y453.2297 F3600
G00 Z5.0000
G00 X0.0000 Y1.3370
G00 Z-19.5000
G01 Z-21.0000 F60
G01 X454.5667 Y453.2297 F3600
G00 Z5.0000
G00 X0.0000 Y1.3370
G00 Z-20.5000
G01 Z-22.0000 F60
G01 X454.5667 Y453.2297 F3600
G00 Z5.0000
G00 X0.0000 Y1.3370
G00 Z-21.5000
G01 Z-23.0000 F60
G01 X454.5667 Y453.2297 F3600
G00 Z5.0000
G00 X0.0000 Y1.3370
G00 Z-22.5000
G01 Z-24.0000 F60
G01 X454.5667 Y453.2297 F3600
G00 Z5.0000
G00 X0.0000 Y1.3370
G00 Z-23.5000
G01 Z-25.0000 F60
G01 X454.5667 Y453.2297 F3600
G00 Z5.0000
G00 X0.0000 Y1.3370
G00 Z-24.5000
G01 Z-26.0000 F60
G01 X454.5667 Y453.2297 F3600
G00 Z5.0000
G00 X0.0000 Y1.3370
G00 Z-25.5000
G01 Z-27.0000 F60
G01 X454.5667 Y453.2297 F3600
G00 Z5.0000
G00 X0.0000 Y1.3370
G00 Z-26.5000
G01 Z-28.0000 F60
G01 X454.5667 Y453.2297 F3600
G00 Z5.0000
G00 X0.0000 Y1.3370
G00 Z-27.5000
G01 Z-29.0000 F60
G01 X454.5667 Y453.2297 F3600
G00 Z5.0000
G00 X0.0000 Y1.3370
G00 Z-28.5000
G01 Z-30.0000 F60
G01 X454.5667 Y453.2297 F3600
G00 Z5.0000
G00 X0.0000 Y1.3370
G00 Z-29.5000
G01 Z-31.0000 F60
G01 X454.5667 Y453.2297 F3600
G00 Z5.0000
G00 X0.0000 Y1.3370
G00 Z-30.5000
G01 Z-32.0000 F60
G01 X454.5667 Y453.2297 F3600
G00 Z5.0000
G00 X0.0000 Y1.3370
G00 Z-31.5000
G01 Z-33.0000 F60
G01 X454.5667 Y453.2297 F3600
G00 Z5.0000
G00 X0.0000 Y1.3370
G00 Z-32.5000
G01 Z-34.0000 F60
G01 X454.5667 Y453.2297 F3600
G00 Z5.0000
G00 X0.0000 Y1.3370
G00 Z-33.5000
G01 Z-35.0000 F60
G01 X454.5667 Y453.2297 F3600
G00 Z5.0000
G00 X0.0000 Y1.3370
G00 Z-34.5000
G01 Z-36.0000 F60
G01 X454.5667 Y453.2297 F3600
G00 Z5.0000
G00 X0.0000 Y1.3370
G00 Z-35.5000
G01 Z-37.0000 F60
G01 X454.5667 Y453.2297 F3600
G00 Z5.0000
G00 X0.0000 Y1.3370
G00 Z-36.5000
G01 Z-38.0000 F60
G01 X454.5667 Y453.2297 F3600
G00 Z5.0000
G00 X0.0000 Y1.3370
G00 Z-37.5000
G01 Z-39.0000 F60
G01 X454.5667 Y453.2297 F3600
G00 Z5.0000
G00 X0.0000 Y1.3370
G00 Z-38.5000
G01 Z-40.0000 F60
G01 X454.5667 Y453.2297 F3600
G00 Z5.0000


;No. 21: Engraving 21
G00 X0.0000 Y1.3370
G00 Z0.5000
G01 Z-1.0000 F60
G01 X454.5667 Y453.2297 F3600
G00 Z5.0000
G00 X0.0000 Y1.3370
G00 Z-0.5000
G01 Z-2.0000 F60
G01 X454.5667 Y453.2297 F3600
G00 Z5.0000
G00 X0.0000 Y1.3370
G00 Z-1.5000
G01 Z-3.0000 F60
G01 X454.5667 Y453.2297 F3600
G00 Z5.0000
G00 X0.0000 Y1.3370
G00 Z-2.5000
G01 Z-4.0000 F60
G01 X454.5667 Y453.2297 F3600
G00 Z5.0000
G00 X0.0000 Y1.3370
G00 Z-3.5000
G01 Z-5.0000 F60
G01 X454.5667 Y453.2297 F3600
G00 Z5.0000
G00 X0.0000 Y1.3370
G00 Z-4.5000
G01 Z-6.0000 F60
G01 X454.5667 Y453.2297 F3600
G00 Z5.0000
G00 X0.0000 Y1.3370
G00 Z-5.5000
G01 Z-7.0000 F60
G01 X454.5667 Y453.2297 F3600
G00 Z5.0000
G00 X0.0000 Y1.3370
G00 Z-6.5000
G01 Z-8.0000 F60
G01 X454.5667 Y453.2297 F3600
G00 Z5.0000
G00 X0.0000 Y1.3370
G00 Z-7.5000
G01 Z-9.0000 F60
G01 X454.5667 Y453.2297 F3600
G00 Z5.0000
G00 X0.0000 Y1.3370
G00 Z-8.5000
G01 Z-10.0000 F60
G01 X454.5667 Y453.2297 F3600
G00 Z5.0000
G00 X0.0000 Y1.3370
G00 Z-9.5000
G01 Z-11.0000 F60
G01 X454.5667 Y453.2297 F3600
G00 Z5.0000
G00 X0.0000 Y1.3370
G00 Z-10.5000
G01 Z-12.0000 F60
G01 X454.5667 Y453.2297 F3600
G00 Z5.0000
G00 X0.0000 Y1.3370
G00 Z-11.5000
G01 Z-13.0000 F60
G01 X454.5667 Y453.2297 F3600
G00 Z5.0000
G00 X0.0000 Y1.3370
G00 Z-12.5000
G01 Z-14.0000 F60
G01 X454.5667 Y453.2297 F3600
G00 Z5.0000
G00 X0.0000 Y1.3370
G00 Z-13.5000
G01 Z-15.0000 F60
G01 X454.5667 Y453.2297 F3600
G00 Z5.0000
G00 X0.0000 Y1.3370
G00 Z-14.5000
G01 Z-16.0000 F60
G01 X454.5667 Y453.2297 F3600
G00 Z5.0000
G00 X0.0000 Y1.3370
G00 Z-15.5000
G01 Z-17.0000 F60
G01 X454.5667 Y453.2297 F3600
G00 Z5.0000
G00 X0.0000 Y1.3370
G00 Z-16.5000
G01 Z-18.0000 F60
G01 X454.5667 Y453.2297 F3600
G00 Z5.0000
G00 X0.0000 Y1.3370
G00 Z-17.5000
G01 Z-19.0000 F60
G01 X454.5667 Y453.2297 F3600
G00 Z5.0000
G00 X0.0000 Y1.3370
G00 Z-18.5000
G01 Z-20.0000 F60
G01 X454.5667 Y453.2297 F3600
G00 Z5.0000
G00 X0.0000 Y1.3370
G00 Z-19.5000
G01 Z-21.0000 F60
G01 X454.5667 Y453.2297 F3600
G00 Z5.0000
G00 X0.0000 Y1.3370
G00 Z-20.5000
G01 Z-22.0000 F60
G01 X454.5667 Y453.2297 F3600
G00 Z5.0000
G00 X0.0000 Y1.3370
G00 Z-21.5000
G01 Z-23.0000 F60
G01 X454.5667 Y453.2297 F3600
G00 Z5.0000
G00 X0.0000 Y1.3370
G00 Z-22.5000
G01 Z-24.0000 F60
G01 X454.5667 Y453.2297 F3600
G00 Z5.0000
G00 X0.0000 Y1.3370
G00 Z-23.5000
G01 Z-25.0000 F60
G01 X454.5667 Y453.2297 F3600
G00 Z5.0000
G00 X0.0000 Y1.3370
G00 Z-24.5000
G01 Z-26.0000 F60
G01 X454.5667 Y453.2297 F3600
G00 Z5.0000
G00 X0.0000 Y1.3370
G00 Z-25.5000
G01 Z-27.0000 F60
G01 X454.5667 Y453.2297 F3600
G00 Z5.0000
G00 X0.0000 Y1.3370
G00 Z-26.5000
G01 Z-28.0000 F60
G01 X454.5667 Y453.2297 F3600
G00 Z5.0000
G00 X0.0000 Y1.3370
G00 Z-27.5000
G01 Z-29.0000 F60
G01 X454.5667 Y453.2297 F3600
G00 Z5.0000
G00 X0.0000 Y1.3370
G00 Z-28.5000
G01 Z-30.0000 F60
G01 X454.5667 Y453.2297 F3600
G00 Z5.0000
G00 X0.0000 Y1.3370
G00 Z-29.5000
G01 Z-31.0000 F60
G01 X454.5667 Y453.2297 F3600
G00 Z5.0000
G00 X0.0000 Y1.3370
G00 Z-30.5000
G01 Z-32.0000 F60
G01 X454.5667 Y453.2297 F3600
G00 Z5.0000
G00 X0.0000 Y1.3370
G00 Z-31.5000
G01 Z-33.0000 F60
G01 X454.5667 Y453.2297 F3600
G00 Z5.0000
G00 X0.0000 Y1.3370
G00 Z-32.5000
G01 Z-34.0000 F60
G01 X454.5667 Y453.2297 F3600
G00 Z5.0000
G00 X0.0000 Y1.3370
G00 Z-33.5000
G01 Z-35.0000 F60
G01 X454.5667 Y453.2297 F3600
G00 Z5.0000
G00 X0.0000 Y1.3370
G00 Z-34.5000
G01 Z-36.0000 F60
G01 X454.5667 Y453.2297 F3600
G00 Z5.0000
G00 X0.0000 Y1.3370
G00 Z-35.5000
G01 Z-37.0000 F60
G01 X454.5667 Y453.2297 F3600
G00 Z5.0000
G00 X0.0000 Y1.3370
G00 Z-36.5000
G01 Z-38.0000 F60
G01 X454.5667 Y453.2297 F3600
G00 Z5.0000
G00 X0.0000 Y1.3370
G00 Z-37.5000
G01 Z-39.0000 F60
G01 X454.5667 Y453.2297 F3600
G00 Z5.0000
G00 X0.0000 Y1.3370
G00 Z-38.5000
G01 Z-40.0000 F60
G01 X454.5667 Y453.2297 F3600
G00 Z5.0000


;No. 22: Engraving 22
G00 X0.0000 Y1.3370
G00 Z0.5000
G01 Z-1.0000 F60
G01 X454.5667 Y453.2297 F3600
G00 Z5.0000
G00 X0.0000 Y1.3370
G00 Z-0.5000
G01 Z-2.0000 F60
G01 X454.5667 Y453.2297 F3600
G00 Z5.0000
G00 X0.0000 Y1.3370
G00 Z-1.5000
G01 Z-3.0000 F60
G01 X454.5667 Y453.2297 F3600
G00 Z5.0000
G00 X0.0000 Y1.3370
G00 Z-2.5000
G01 Z-4.0000 F60
G01 X454.5667 Y453.2297 F3600
G00 Z5.0000
G00 X0.0000 Y1.3370
G00 Z-3.5000
G01 Z-5.0000 F60
G01 X454.5667 Y453.2297 F3600
G00 Z5.0000
G00 X0.0000 Y1.3370
G00 Z-4.5000
G01 Z-6.0000 F60
G01 X454.5667 Y453.2297 F3600
G00 Z5.0000
G00 X0.0000 Y1.3370
G00 Z-5.5000
G01 Z-7.0000 F60
G01 X454.5667 Y453.2297 F3600
G00 Z5.0000
G00 X0.0000 Y1.3370
G00 Z-6.5000
G01 Z-8.0000 F60
G01 X454.5667 Y453.2297 F3600
G00 Z5.0000
G00 X0.0000 Y1.3370
G00 Z-7.5000
G01 Z-9.0000 F60
G01 X454.5667 Y453.2297 F3600
G00 Z5.0000
G00 X0.0000 Y1.3370
G00 Z-8.5000
G01 Z-10.0000 F60
G01 X454.5667 Y453.2297 F3600
G00 Z5.0000
G00 X0.0000 Y1.3370
G00 Z-9.5000
G01 Z-11.0000 F60
G01 X454.5667 Y453.2297 F3600
G00 Z5.0000
G00 X0.0000 Y1.3370
G00 Z-10.5000
G01 Z-12.0000 F60
G01 X454.5667 Y453.2297 F3600
G00 Z5.0000
G00 X0.0000 Y1.3370
G00 Z-11.5000
G01 Z-13.0000 F60
G01 X454.5667 Y453.2297 F3600
G00 Z5.0000
G00 X0.0000 Y1.3370
G00 Z-12.5000
G01 Z-14.0000 F60
G01 X454.5667 Y453.2297 F3600
G00 Z5.0000
G00 X0.0000 Y1.3370
G00 Z-13.5000
G01 Z-15.0000 F60
G01 X454.5667 Y453.2297 F3600
G00 Z5.0000
G00 X0.0000 Y1.3370
G00 Z-14.5000
G01 Z-16.0000 F60
G01 X454.5667 Y453.2297 F3600
G00 Z5.0000
G00 X0.0000 Y1.3370
G00 Z-15.5000
G01 Z-17.0000 F60
G01 X454.5667 Y453.2297 F3600
G00 Z5.0000
G00 X0.0000 Y1.3370
G00 Z-16.5000
G01 Z-18.0000 F60
G01 X454.5667 Y453.2297 F3600
G00 Z5.0000
G00 X0.0000 Y1.3370
G00 Z-17.5000
G01 Z-19.0000 F60
G01 X454.5667 Y453.2297 F3600
G00 Z5.0000
G00 X0.0000 Y1.3370
G00 Z-18.5000
G01 Z-20.0000 F60
G01 X454.5667 Y453.2297 F3600
G00 Z5.0000
G00 X0.0000 Y1.3370
G00 Z-19.5000
G01 Z-21.0000 F60
G01 X454.5667 Y453.2297 F3600
G00 Z5.0000
G00 X0.0000 Y1.3370
G00 Z-20.5000
G01 Z-22.0000 F60
G01 X454.5667 Y453.2297 F3600
G00 Z5.0000
G00 X0.0000 Y1.3370
G00 Z-21.5000
G01 Z-23.0000 F60
G01 X454.5667 Y453.2297 F3600
G00 Z5.0000
G00 X0.0000 Y1.3370
G00 Z-22.5000
G01 Z-24.0000 F60
G01 X454.5667 Y453.2297 F3600
G00 Z5.0000
G00 X0.0000 Y1.3370
G00 Z-23.5000
G01 Z-25.0000 F60
G01 X454.5667 Y453.2297 F3600
G00 Z5.0000
G00 X0.0000 Y1.3370
G00 Z-24.5000
G01 Z-26.0000 F60
G01 X454.5667 Y453.2297 F3600
G00 Z5.0000
G00 X0.0000 Y1.3370
G00 Z-25.5000
G01 Z-27.0000 F60
G01 X454.5667 Y453.2297 F3600
G00 Z5.0000
G00 X0.0000 Y1.3370
G00 Z-26.5000
G01 Z-28.0000 F60
G01 X454.5667 Y453.2297 F3600
G00 Z5.0000
G00 X0.0000 Y1.3370
G00 Z-27.5000
G01 Z-29.0000 F60
G01 X454.5667 Y453.2297 F3600
G00 Z5.0000
G00 X0.0000 Y1.3370
G00 Z-28.5000
G01 Z-30.0000 F60
G01 X454.5667 Y453.2297 F3600
G00 Z5.0000
G00 X0.0000 Y1.3370
G00 Z-29.5000
G01 Z-31.0000 F60
G01 X454.5667 Y453.2297 F3600
G00 Z5.0000
G00 X0.0000 Y1.3370
G00 Z-30.5000
G01 Z-32.0000 F60
G01 X454.5667 Y453.2297 F3600
G00 Z5.0000
G00 X0.0000 Y1.3370
G00 Z-31.5000
G01 Z-33.0000 F60
G01 X454.5667 Y453.2297 F3600
G00 Z5.0000
G00 X0.0000 Y1.3370
G00 Z-32.5000
G01 Z-34.0000 F60
G01 X454.5667 Y453.2297 F3600
G00 Z5.0000
G00 X0.0000 Y1.3370
G00 Z-33.5000
G01 Z-35.0000 F60
G01 X454.5667 Y453.2297 F3600
G00 Z5.0000
G00 X0.0000 Y1.3370
G00 Z-34.5000
G01 Z-36.0000 F60
G01 X454.5667 Y453.2297 F3600
G00 Z5.0000
G00 X0.0000 Y1.3370
G00 Z-35.5000
G01 Z-37.0000 F60
G01 X454.5667 Y453.2297 F3600
G00 Z5.0000
G00 X0.0000 Y1.3370
G00 Z-36.5000
G01 Z-38.0000 F60
G01 X454.5667 Y453.2297 F3600
G00 Z5.0000
G00 X0.0000 Y1.3370
G00 Z-37.5000
G01 Z-39.0000 F60
G01 X454.5667 Y453.2297 F3600
G00 Z5.0000
G00 X0.0000 Y1.3370
G00 Z-38.5000
G01 Z-40.0000 F60
G01 X454.5667 Y453.2297 F3600
G00 Z5.0000


;No. 23: Engraving 23
G00 X0.0000 Y1.3370
G00 Z0.5000
G01 Z-1.0000 F60
G01 X454.5667 Y453.2297 F3600
G00 Z5.0000
G00 X0.0000 Y1.3370
G00 Z-0.5000
G01 Z-2.0000 F60
G01 X454.5667 Y453.2297 F3600
G00 Z5.0000
G00 X0.0000 Y1.3370
G00 Z-1.5000
G01 Z-3.0000 F60
G01 X454.5667 Y453.2297 F3600
G00 Z5.0000
G00 X0.0000 Y1.3370
G00 Z-2.5000
G01 Z-4.0000 F60
G01 X454.5667 Y453.2297 F3600
G00 Z5.0000
G00 X0.0000 Y1.3370
G00 Z-3.5000
G01 Z-5.0000 F60
G01 X454.5667 Y453.2297 F3600
G00 Z5.0000
G00 X0.0000 Y1.3370
G00 Z-4.5000
G01 Z-6.0000 F60
G01 X454.5667 Y453.2297 F3600
G00 Z5.0000
G00 X0.0000 Y1.3370
G00 Z-5.5000
G01 Z-7.0000 F60
G01 X454.5667 Y453.2297 F3600
G00 Z5.0000
G00 X0.0000 Y1.3370
G00 Z-6.5000
G01 Z-8.0000 F60
G01 X454.5667 Y453.2297 F3600
G00 Z5.0000
G00 X0.0000 Y1.3370
G00 Z-7.5000
G01 Z-9.0000 F60
G01 X454.5667 Y453.2297 F3600
G00 Z5.0000
G00 X0.0000 Y1.3370
G00 Z-8.5000
G01 Z-10.0000 F60
G01 X454.5667 Y453.2297 F3600
G00 Z5.0000
G00 X0.0000 Y1.3370
G00 Z-9.5000
G01 Z-11.0000 F60
G01 X454.5667 Y453.2297 F3600
G00 Z5.0000
G00 X0.0000 Y1.3370
G00 Z-10.5000
G01 Z-12.0000 F60
G01 X454.5667 Y453.2297 F3600
G00 Z5.0000
G00 X0.0000 Y1.3370
G00 Z-11.5000
G01 Z-13.0000 F60
G01 X454.5667 Y453.2297 F3600
G00 Z5.0000
G00 X0.0000 Y1.3370
G00 Z-12.5000
G01 Z-14.0000 F60
G01 X454.5667 Y453.2297 F3600
G00 Z5.0000
G00 X0.0000 Y1.3370
G00 Z-13.5000
G01 Z-15.0000 F60
G01 X454.5667 Y453.2297 F3600
G00 Z5.0000
G00 X0.0000 Y1.3370
G00 Z-14.5000
G01 Z-16.0000 F60
G01 X454.5667 Y453.2297 F3600
G00 Z5.0000
G00 X0.0000 Y1.3370
G00 Z-15.5000
G01 Z-17.0000 F60
G01 X454.5667 Y453.2297 F3600
G00 Z5.0000
G00 X0.0000 Y1.3370
G00 Z-16.5000
G01 Z-18.0000 F60
G01 X454.5667 Y453.2297 F3600
G00 Z5.0000
G00 X0.0000 Y1.3370
G00 Z-17.5000
G01 Z-19.0000 F60
G01 X454.5667 Y453.2297 F3600
G00 Z5.0000
G00 X0.0000 Y1.3370
G00 Z-18.5000
G01 Z-20.0000 F60
G01 X454.5667 Y453.2297 F3600
G00 Z5.0000
G00 X0.0000 Y1.3370
G00 Z-19.5000
G01 Z-21.0000 F60
G01 X454.5667 Y453.2297 F3600
G00 Z5.0000
G00 X0.0000 Y1.3370
G00 Z-20.5000
G01 Z-22.0000 F60
G01 X454.5667 Y453.2297 F3600
G00 Z5.0000
G00 X0.0000 Y1.3370
G00 Z-21.5000
G01 Z-23.0000 F60
G01 X454.5667 Y453.2297 F3600
G00 Z5.0000
G00 X0.0000 Y1.3370
G00 Z-22.5000
G01 Z-24.0000 F60
G01 X454.5667 Y453.2297 F3600
G00 Z5.0000
G00 X0.0000 Y1.3370
G00 Z-23.5000
G01 Z-25.0000 F60
G01 X454.5667 Y453.2297 F3600
G00 Z5.0000
G00 X0.0000 Y1.3370
G00 Z-24.5000
G01 Z-26.0000 F60
G01 X454.5667 Y453.2297 F3600
G00 Z5.0000
G00 X0.0000 Y1.3370
G00 Z-25.5000
G01 Z-27.0000 F60
G01 X454.5667 Y453.2297 F3600
G00 Z5.0000
G00 X0.0000 Y1.3370
G00 Z-26.5000
G01 Z-28.0000 F60
G01 X454.5667 Y453.2297 F3600
G00 Z5.0000
G00 X0.0000 Y1.3370
G00 Z-27.5000
G01 Z-29.0000 F60
G01 X454.5667 Y453.2297 F3600
G00 Z5.0000
G00 X0.0000 Y1.3370
G00 Z-28.5000
G01 Z-30.0000 F60
G01 X454.5667 Y453.2297 F3600
G00 Z5.0000
G00 X0.0000 Y1.3370
G00 Z-29.5000
G01 Z-31.0000 F60
G01 X454.5667 Y453.2297 F3600
G00 Z5.0000
G00 X0.0000 Y1.3370
G00 Z-30.5000
G01 Z-32.0000 F60
G01 X454.5667 Y453.2297 F3600
G00 Z5.0000
G00 X0.0000 Y1.3370
G00 Z-31.5000
G01 Z-33.0000 F60
G01 X454.5667 Y453.2297 F3600
G00 Z5.0000
G00 X0.0000 Y1.3370
G00 Z-32.5000
G01 Z-34.0000 F60
G01 X454.5667 Y453.2297 F3600
G00 Z5.0000
G00 X0.0000 Y1.3370
G00 Z-33.5000
G01 Z-35.0000 F60
G01 X454.5667 Y453.2297 F3600
G00 Z5.0000
G00 X0.0000 Y1.3370
G00 Z-34.5000
G01 Z-36.0000 F60
G01 X454.5667 Y453.2297 F3600
G00 Z5.0000
G00 X0.0000 Y1.3370
G00 Z-35.5000
G01 Z-37.0000 F60
G01 X454.5667 Y453.2297 F3600
G00 Z5.0000
G00 X0.0000 Y1.3370
G00 Z-36.5000
G01 Z-38.0000 F60
G01 X454.5667 Y453.2297 F3600
G00 Z5.0000
G00 X0.0000 Y1.3370
G00 Z-37.5000
G01 Z-39.0000 F60
G01 X454.5667 Y453.2297 F3600
G00 Z5.0000
G00 X0.0000 Y1.3370
G00 Z-38.5000
G01 Z-40.0000 F60
G01 X454.5667 Y453.2297 F3600
G00 Z5.0000


;No. 24: Engraving 24
G00 X0.0000 Y1.3370
G00 Z0.5000
G01 Z-1.0000 F60
G01 X454.5667 Y453.2297 F3600
G00 Z5.0000
G00 X0.0000 Y1.3370
G00 Z-0.5000
G01 Z-2.0000 F60
G01 X454.5667 Y453.2297 F3600
G00 Z5.0000
G00 X0.0000 Y1.3370
G00 Z-1.5000
G01 Z-3.0000 F60
G01 X454.5667 Y453.2297 F3600
G00 Z5.0000
G00 X0.0000 Y1.3370
G00 Z-2.5000
G01 Z-4.0000 F60
G01 X454.5667 Y453.2297 F3600
G00 Z5.0000
G00 X0.0000 Y1.3370
G00 Z-3.5000
G01 Z-5.0000 F60
G01 X454.5667 Y453.2297 F3600
G00 Z5.0000
G00 X0.0000 Y1.3370
G00 Z-4.5000
G01 Z-6.0000 F60
G01 X454.5667 Y453.2297 F3600
G00 Z5.0000
G00 X0.0000 Y1.3370
G00 Z-5.5000
G01 Z-7.0000 F60
G01 X454.5667 Y453.2297 F3600
G00 Z5.0000
G00 X0.0000 Y1.3370
G00 Z-6.5000
G01 Z-8.0000 F60
G01 X454.5667 Y453.2297 F3600
G00 Z5.0000
G00 X0.0000 Y1.3370
G00 Z-7.5000
G01 Z-9.0000 F60
G01 X454.5667 Y453.2297 F3600
G00 Z5.0000
G00 X0.0000 Y1.3370
G00 Z-8.5000
G01 Z-10.0000 F60
G01 X454.5667 Y453.2297 F3600
G00 Z5.0000
G00 X0.0000 Y1.3370
G00 Z-9.5000
G01 Z-11.0000 F60
G01 X454.5667 Y453.2297 F3600
G00 Z5.0000
G00 X0.0000 Y1.3370
G00 Z-10.5000
G01 Z-12.0000 F60
G01 X454.5667 Y453.2297 F3600
G00 Z5.0000
G00 X0.0000 Y1.3370
G00 Z-11.5000
G01 Z-13.0000 F60
G01 X454.5667 Y453.2297 F3600
G00 Z5.0000
G00 X0.0000 Y1.3370
G00 Z-12.5000
G01 Z-14.0000 F60
G01 X454.5667 Y453.2297 F3600
G00 Z5.0000
G00 X0.0000 Y1.3370
G00 Z-13.5000
G01 Z-15.0000 F60
G01 X454.5667 Y453.2297 F3600
G00 Z5.0000
G00 X0.0000 Y1.3370
G00 Z-14.5000
G01 Z-16.0000 F60
G01 X454.5667 Y453.2297 F3600
G00 Z5.0000
G00 X0.0000 Y1.3370
G00 Z-15.5000
G01 Z-17.0000 F60
G01 X454.5667 Y453.2297 F3600
G00 Z5.0000
G00 X0.0000 Y1.3370
G00 Z-16.5000
G01 Z-18.0000 F60
G01 X454.5667 Y453.2297 F3600
G00 Z5.0000
G00 X0.0000 Y1.3370
G00 Z-17.5000
G01 Z-19.0000 F60
G01 X454.5667 Y453.2297 F3600
G00 Z5.0000
G00 X0.0000 Y1.3370
G00 Z-18.5000
G01 Z-20.0000 F60
G01 X454.5667 Y453.2297 F3600
G00 Z5.0000
G00 X0.0000 Y1.3370
G00 Z-19.5000
G01 Z-21.0000 F60
G01 X454.5667 Y453.2297 F3600
G00 Z5.0000
G00 X0.0000 Y1.3370
G00 Z-20.5000
G01 Z-22.0000 F60
G01 X454.5667 Y453.2297 F3600
G00 Z5.0000
G00 X0.0000 Y1.3370
G00 Z-21.5000
G01 Z-23.0000 F60
G01 X454.5667 Y453.2297 F3600
G00 Z5.0000
G00 X0.0000 Y1.3370
G00 Z-22.5000
G01 Z-24.0000 F60
G01 X454.5667 Y453.2297 F3600
G00 Z5.0000
G00 X0.0000 Y1.3370
G00 Z-23.5000
G01 Z-25.0000 F60
G01 X454.5667 Y453.2297 F3600
G00 Z5.0000
G00 X0.0000 Y1.3370
G00 Z-24.5000
G01 Z-26.0000 F60
G01 X454.5667 Y453.2297 F3600
G00 Z5.0000
G00 X0.0000 Y1.3370
G00 Z-25.5000
G01 Z-27.0000 F60
G01 X454.5667 Y453.2297 F3600
G00 Z5.0000
G00 X0.0000 Y1.3370
G00 Z-26.5000
G01 Z-28.0000 F60
G01 X454.5667 Y453.2297 F3600
G00 Z5.0000
G00 X0.0000 Y1.3370
G00 Z-27.5000
G01 Z-29.0000 F60
G01 X454.5667 Y453.2297 F3600
G00 Z5.0000
G00 X0.0000 Y1.3370
G00 Z-28.5000
G01 Z-30.0000 F60
G01 X454.5667 Y453.2297 F3600
G00 Z5.0000
G00 X0.0000 Y1.3370
G00 Z-29.5000
G01 Z-31.0000 F60
G01 X454.5667 Y453.2297 F3600
G00 Z5.0000
G00 X0.0000 Y1.3370
G00 Z-30.5000
G01 Z-32.0000 F60
G01 X454.5667 Y453.2297 F3600
G00 Z5.0000
G00 X0.0000 Y1.3370
G00 Z-31.5000
G01 Z-33.0000 F60
G01 X454.5667 Y453.2297 F3600
G00 Z5.0000
G00 X0.0000 Y1.3370
G00 Z-32.5000
G01 Z-34.0000 F60
G01 X454.5667 Y453.2297 F3600
G00 Z5.0000
G00 X0.0000 Y1.3370
G00 Z-33.5000
G01 Z-35.0000 F60
G01 X454.5667 Y453.2297 F3600
G00 Z5.0000
G00 X0.0000 Y1.3370
G00 Z-34.5000
G01 Z-36.0000 F60
G01 X454.5667 Y453.2297 F3600
G00 Z5.0000
G00 X0.0000 Y1.3370
G00 Z-35.5000
G01 Z-37.0000 F60
G01 X454.5667 Y453.2297 F3600
G00 Z5.0000
G00 X0.0000 Y1.3370
G00 Z-36.5000
G01 Z-38.0000 F60
G01 X454.5667 Y453.2297 F3600
G00 Z5.0000
G00 X0.0000 Y1.3370
G00 Z-37.5000
G01 Z-39.0000 F60
G01 X454.5667 Y453.2297 F3600
G00 Z5.0000
G00 X0.0000 Y1.3370
G00 Z-38.5000
G01 Z-40.0000 F60
G01 X454.5667 Y453.2297 F3600
G00 Z5.0000


;No. 25: Engraving 25
G00 X0.0000 Y1.3370
G00 Z0.5000
G01 Z-1.0000 F60
G01 X454.5667 Y453.2297 F3600
G00 Z5.0000
G00 X0.0000 Y1.3370
G00 Z-0.5000
G01 Z-2.0000 F60
G01 X454.5667 Y453.2297 F3600
G00 Z5.0000
G00 X0.0000 Y1.3370
G00 Z-1.5000
G01 Z-3.0000 F60
G01 X454.5667 Y453.2297 F3600
G00 Z5.0000
G00 X0.0000 Y1.3370
G00 Z-2.5000
G01 Z-4.0000 F60
G01 X454.5667 Y453.2297 F3600
G00 Z5.0000
G00 X0.0000 Y1.3370
G00 Z-3.5000
G01 Z-5.0000 F60
G01 X454.5667 Y453.2297 F3600
G00 Z5.0000
G00 X0.0000 Y1.3370
G00 Z-4.5000
G01 Z-6.0000 F60
G01 X454.5667 Y453.2297 F3600
G00 Z5.0000
G00 X0.0000 Y1.3370
G00 Z-5.5000
G01 Z-7.0000 F60
G01 X454.5667 Y453.2297 F3600
G00 Z5.0000
G00 X0.0000 Y1.3370
G00 Z-6.5000
G01 Z-8.0000 F60
G01 X454.5667 Y453.2297 F3600
G00 Z5.0000
G00 X0.0000 Y1.3370
G00 Z-7.5000
G01 Z-9.0000 F60
G01 X454.5667 Y453.2297 F3600
G00 Z5.0000
G00 X0.0000 Y1.3370
G00 Z-8.5000
G01 Z-10.0000 F60
G01 X454.5667 Y453.2297 F3600
G00 Z5.0000
G00 X0.0000 Y1.3370
G00 Z-9.5000
G01 Z-11.0000 F60
G01 X454.5667 Y453.2297 F3600
G00 Z5.0000
G00 X0.0000 Y1.3370
G00 Z-10.5000
G01 Z-12.0000 F60
G01 X454.5667 Y453.2297 F3600
G00 Z5.0000
G00 X0.0000 Y1.3370
G00 Z-11.5000
G01 Z-13.0000 F60
G01 X454.5667 Y453.2297 F3600
G00 Z5.0000
G00 X0.0000 Y1.3370
G00 Z-12.5000
G01 Z-14.0000 F60
G01 X454.5667 Y453.2297 F3600
G00 Z5.0000
G00 X0.0000 Y1.3370
G00 Z-13.5000
G01 Z-15.0000 F60
G01 X454.5667 Y453.2297 F3600
G00 Z5.0000
G00 X0.0000 Y1.3370
G00 Z-14.5000
G01 Z-16.0000 F60
G01 X454.5667 Y453.2297 F3600
G00 Z5.0000
G00 X0.0000 Y1.3370
G00 Z-15.5000
G01 Z-17.0000 F60
G01 X454.5667 Y453.2297 F3600
G00 Z5.0000
G00 X0.0000 Y1.3370
G00 Z-16.5000
G01 Z-18.0000 F60
G01 X454.5667 Y453.2297 F3600
G00 Z5.0000
G00 X0.0000 Y1.3370
G00 Z-17.5000
G01 Z-19.0000 F60
G01 X454.5667 Y453.2297 F3600
G00 Z5.0000
G00 X0.0000 Y1.3370
G00 Z-18.5000
G01 Z-20.0000 F60
G01 X454.5667 Y453.2297 F3600
G00 Z5.0000
G00 X0.0000 Y1.3370
G00 Z-19.5000
G01 Z-21.0000 F60
G01 X454.5667 Y453.2297 F3600
G00 Z5.0000
G00 X0.0000 Y1.3370
G00 Z-20.5000
G01 Z-22.0000 F60
G01 X454.5667 Y453.2297 F3600
G00 Z5.0000
G00 X0.0000 Y1.3370
G00 Z-21.5000
G01 Z-23.0000 F60
G01 X454.5667 Y453.2297 F3600
G00 Z5.0000
G00 X0.0000 Y1.3370
G00 Z-22.5000
G01 Z-24.0000 F60
G01 X454.5667 Y453.2297 F3600
G00 Z5.0000
G00 X0.0000 Y1.3370
G00 Z-23.5000
G01 Z-25.0000 F60
G01 X454.5667 Y453.2297 F3600
G00 Z5.0000
G00 X0.0000 Y1.3370
G00 Z-24.5000
G01 Z-26.0000 F60
G01 X454.5667 Y453.2297 F3600
G00 Z5.0000
G00 X0.0000 Y1.3370
G00 Z-25.5000
G01 Z-27.0000 F60
G01 X454.5667 Y453.2297 F3600
G00 Z5.0000
G00 X0.0000 Y1.3370
G00 Z-26.5000
G01 Z-28.0000 F60
G01 X454.5667 Y453.2297 F3600
G00 Z5.0000
G00 X0.0000 Y1.3370
G00 Z-27.5000
G01 Z-29.0000 F60
G01 X454.5667 Y453.2297 F3600
G00 Z5.0000
G00 X0.0000 Y1.3370
G00 Z-28.5000
G01 Z-30.0000 F60
G01 X454.5667 Y453.2297 F3600
G00 Z5.0000
G00 X0.0000 Y1.3370
G00 Z-29.5000
G01 Z-31.0000 F60
G01 X454.5667 Y453.2297 F3600
G00 Z5.0000
G00 X0.0000 Y1.3370
G00 Z-30.5000
G01 Z-32.0000 F60
G01 X454.5667 Y453.2297 F3600
G00 Z5.0000
G00 X0.0000 Y1.3370
G00 Z-31.5000
G01 Z-33.0000 F60
G01 X454.5667 Y453.2297 F3600
G00 Z5.0000
G00 X0.0000 Y1.3370
G00 Z-32.5000
G01 Z-34.0000 F60
G01 X454.5667 Y453.2297 F3600
G00 Z5.0000
G00 X0.0000 Y1.3370
G00 Z-33.5000
G01 Z-35.0000 F60
G01 X454.5667 Y453.2297 F3600
G00 Z5.0000
G00 X0.0000 Y1.3370
G00 Z-34.5000
G01 Z-36.0000 F60
G01 X454.5667 Y453.2297 F3600
G00 Z5.0000
G00 X0.0000 Y1.3370
G00 Z-35.5000
G01 Z-37.0000 F60
G01 X454.5667 Y453.2297 F3600
G00 Z5.0000
G00 X0.0000 Y1.3370
G00 Z-36.5000
G01 Z-38.0000 F60
G01 X454.5667 Y453.2297 F3600
G00 Z5.0000
G00 X0.0000 Y1.3370
G00 Z-37.5000
G01 Z-39.0000 F60
G01 X454.5667 Y453.2297 F3600
G00 Z5.0000
G00 X0.0000 Y1.3370
G00 Z-38.5000
G01 Z-40.0000 F60
G01 X454.5667 Y453.2297 F3600
G00 Z5.0000


;No. 26: Engraving 26
G00 X0.0000 Y1.3370
G00 Z0.5000
G01 Z-1.0000 F60
G01 X454.5667 Y453.2297 F3600
G00 Z5.0000
G00 X0.0000 Y1.3370
G00 Z-0.5000
G01 Z-2.0000 F60
G01 X454.5667 Y453.2297 F3600
G00 Z5.0000
G00 X0.0000 Y1.3370
G00 Z-1.5000
G01 Z-3.0000 F60
G01 X454.5667 Y453.2297 F3600
G00 Z5.0000
G00 X0.0000 Y1.3370
G00 Z-2.5000
G01 Z-4.0000 F60
G01 X454.5667 Y453.2297 F3600
G00 Z5.0000
G00 X0.0000 Y1.3370
G00 Z-3.5000
G01 Z-5.0000 F60
G01 X454.5667 Y453.2297 F3600
G00 Z5.0000
G00 X0.0000 Y1.3370
G00 Z-4.5000
G01 Z-6.0000 F60
G01 X454.5667 Y453.2297 F3600
G00 Z5.0000
G00 X0.0000 Y1.3370
G00 Z-5.5000
G01 Z-7.0000 F60
G01 X454.5667 Y453.2297 F3600
G00 Z5.0000
G00 X0.0000 Y1.3370
G00 Z-6.5000
G01 Z-8.0000 F60
G01 X454.5667 Y453.2297 F3600
G00 Z5.0000
G00 X0.0000 Y1.3370
G00 Z-7.5000
G01 Z-9.0000 F60
G01 X454.5667 Y453.2297 F3600
G00 Z5.0000
G00 X0.0000 Y1.3370
G00 Z-8.5000
G01 Z-10.0000 F60
G01 X454.5667 Y453.2297 F3600
G00 Z5.0000
G00 X0.0000 Y1.3370
G00 Z-9.5000
G01 Z-11.0000 F60
G01 X454.5667 Y453.2297 F3600
G00 Z5.0000
G00 X0.0000 Y1.3370
G00 Z-10.5000
G01 Z-12.0000 F60
G01 X454.5667 Y453.2297 F3600
G00 Z5.0000
G00 X0.0000 Y1.3370
G00 Z-11.5000
G01 Z-13.0000 F60
G01 X454.5667 Y453.2297 F3600
G00 Z5.0000
G00 X0.0000 Y1.3370
G00 Z-12.5000
G01 Z-14.0000 F60
G01 X454.5667 Y453.2297 F3600
G00 Z5.0000
G00 X0.0000 Y1.3370
G00 Z-13.5000
G01 Z-15.0000 F60
G01 X454.5667 Y453.2297 F3600
G00 Z5.0000
G00 X0.0000 Y1.3370
G00 Z-14.5000
G01 Z-16.0000 F60
G01 X454.5667 Y453.2297 F3600
G00 Z5.0000
G00 X0.0000 Y1.3370
G00 Z-15.5000
G01 Z-17.0000 F60
G01 X454.5667 Y453.2297 F3600
G00 Z5.0000
G00 X0.0000 Y1.3370
G00 Z-16.5000
G01 Z-18.0000 F60
G01 X454.5667 Y453.2297 F3600
G00 Z5.0000
G00 X0.0000 Y1.3370
G00 Z-17.5000
G01 Z-19.0000 F60
G01 X454.5667 Y453.2297 F3600
G00 Z5.0000
G00 X0.0000 Y1.3370
G00 Z-18.5000
G01 Z-20.0000 F60
G01 X454.5667 Y453.2297 F3600
G00 Z5.0000
G00 X0.0000 Y1.3370
G00 Z-19.5000
G01 Z-21.0000 F60
G01 X454.5667 Y453.2297 F3600
G00 Z5.0000
G00 X0.0000 Y1.3370
G00 Z-20.5000
G01 Z-22.0000 F60
G01 X454.5667 Y453.2297 F3600
G00 Z5.0000
G00 X0.0000 Y1.3370
G00 Z-21.5000
G01 Z-23.0000 F60
G01 X454.5667 Y453.2297 F3600
G00 Z5.0000
G00 X0.0000 Y1.3370
G00 Z-22.5000
G01 Z-24.0000 F60
G01 X454.5667 Y453.2297 F3600
G00 Z5.0000
G00 X0.0000 Y1.3370
G00 Z-23.5000
G01 Z-25.0000 F60
G01 X454.5667 Y453.2297 F3600
G00 Z5.0000
G00 X0.0000 Y1.3370
G00 Z-24.5000
G01 Z-26.0000 F60
G01 X454.5667 Y453.2297 F3600
G00 Z5.0000
G00 X0.0000 Y1.3370
G00 Z-25.5000
G01 Z-27.0000 F60
G01 X454.5667 Y453.2297 F3600
G00 Z5.0000
G00 X0.0000 Y1.3370
G00 Z-26.5000
G01 Z-28.0000 F60
G01 X454.5667 Y453.2297 F3600
G00 Z5.0000
G00 X0.0000 Y1.3370
G00 Z-27.5000
G01 Z-29.0000 F60
G01 X454.5667 Y453.2297 F3600
G00 Z5.0000
G00 X0.0000 Y1.3370
G00 Z-28.5000
G01 Z-30.0000 F60
G01 X454.5667 Y453.2297 F3600
G00 Z5.0000
G00 X0.0000 Y1.3370
G00 Z-29.5000
G01 Z-31.0000 F60
G01 X454.5667 Y453.2297 F3600
G00 Z5.0000
G00 X0.0000 Y1.3370
G00 Z-30.5000
G01 Z-32.0000 F60
G01 X454.5667 Y453.2297 F3600
G00 Z5.0000
G00 X0.0000 Y1.3370
G00 Z-31.5000
G01 Z-33.0000 F60
G01 X454.5667 Y453.2297 F3600
G00 Z5.0000
G00 X0.0000 Y1.3370
G00 Z-32.5000
G01 Z-34.0000 F60
G01 X454.5667 Y453.2297 F3600
G00 Z5.0000
G00 X0.0000 Y1.3370
G00 Z-33.5000
G01 Z-35.0000 F60
G01 X454.5667 Y453.2297 F3600
G00 Z5.0000
G00 X0.0000 Y1.3370
G00 Z-34.5000
G01 Z-36.0000 F60
G01 X454.5667 Y453.2297 F3600
G00 Z5.0000
G00 X0.0000 Y1.3370
G00 Z-35.5000
G01 Z-37.0000 F60
G01 X454.5667 Y453.2297 F3600
G00 Z5.0000
G00 X0.0000 Y1.3370
G00 Z-36.5000
G01 Z-38.0000 F60
G01 X454.5667 Y453.2297 F3600
G00 Z5.0000
G00 X0.0000 Y1.3370
G00 Z-37.5000
G01 Z-39.0000 F60
G01 X454.5667 Y453.2297 F3600
G00 Z5.0000
G00 X0.0000 Y1.3370
G00 Z-38.5000
G01 Z-40.0000 F60
G01 X454.5667 Y453.2297 F3600
G00 Z5.0000


;No. 27: Engraving 27
G00 X0.0000 Y1.3370
G00 Z0.5000
G01 Z-1.0000 F60
G01 X454.5667 Y453.2297 F3600
G00 Z5.0000
G00 X0.0000 Y1.3370
G00 Z-0.5000
G01 Z-2.0000 F60
G01 X454.5667 Y453.2297 F3600
G00 Z5.0000
G00 X0.0000 Y1.3370
G00 Z-1.5000
G01 Z-3.0000 F60
G01 X454.5667 Y453.2297 F3600
G00 Z5.0000
G00 X0.0000 Y1.3370
G00 Z-2.5000
G01 Z-4.0000 F60
G01 X454.5667 Y453.2297 F3600
G00 Z5.0000
G00 X0.0000 Y1.3370
G00 Z-3.5000
G01 Z-5.0000 F60
G01 X454.5667 Y453.2297 F3600
G00 Z5.0000
G00 X0.0000 Y1.3370
G00 Z-4.5000
G01 Z-6.0000 F60
G01 X454.5667 Y453.2297 F3600
G00 Z5.0000
G00 X0.0000 Y1.3370
G00 Z-5.5000
G01 Z-7.0000 F60
G01 X454.5667 Y453.2297 F3600
G00 Z5.0000
G00 X0.0000 Y1.3370
G00 Z-6.5000
G01 Z-8.0000 F60
G01 X454.5667 Y453.2297 F3600
G00 Z5.0000
G00 X0.0000 Y1.3370
G00 Z-7.5000
G01 Z-9.0000 F60
G01 X454.5667 Y453.2297 F3600
G00 Z5.0000
G00 X0.0000 Y1.3370
G00 Z-8.5000
G01 Z-10.0000 F60
G01 X454.5667 Y453.2297 F3600
G00 Z5.0000
G00 X0.0000 Y1.3370
G00 Z-9.5000
G01 Z-11.0000 F60
G01 X454.5667 Y453.2297 F3600
G00 Z5.0000
G00 X0.0000 Y1.3370
G00 Z-10.5000
G01 Z-12.0000 F60
G01 X454.5667 Y453.2297 F3600
G00 Z5.0000
G00 X0.0000 Y1.3370
G00 Z-11.5000
G01 Z-13.0000 F60
G01 X454.5667 Y453.2297 F3600
G00 Z5.0000
G00 X0.0000 Y1.3370
G00 Z-12.5000
G01 Z-14.0000 F60
G01 X454.5667 Y453.2297 F3600
G00 Z5.0000
G00 X0.0000 Y1.3370
G00 Z-13.5000
G01 Z-15.0000 F60
G01 X454.5667 Y453.2297 F3600
G00 Z5.0000
G00 X0.0000 Y1.3370
G00 Z-14.5000
G01 Z-16.0000 F60
G01 X454.5667 Y453.2297 F3600
G00 Z5.0000
G00 X0.0000 Y1.3370
G00 Z-15.5000
G01 Z-17.0000 F60
G01 X454.5667 Y453.2297 F3600
G00 Z5.0000
G00 X0.0000 Y1.3370
G00 Z-16.5000
G01 Z-18.0000 F60
G01 X454.5667 Y453.2297 F3600
G00 Z5.0000
G00 X0.0000 Y1.3370
G00 Z-17.5000
G01 Z-19.0000 F60
G01 X454.5667 Y453.2297 F3600
G00 Z5.0000
G00 X0.0000 Y1.3370
G00 Z-18.5000
G01 Z-20.0000 F60
G01 X454.5667 Y453.2297 F3600
G00 Z5.0000
G00 X0.0000 Y1.3370
G00 Z-19.5000
G01 Z-21.0000 F60
G01 X454.5667 Y453.2297 F3600
G00 Z5.0000
G00 X0.0000 Y1.3370
G00 Z-20.5000
G01 Z-22.0000 F60
