;Project loidolt@gmail
;Created by Estlcam version 8 build 8.063
;Machining time about 12:11:44 AM hours

G90
M03 S24000
G00 Z5.0000


;No. 1: Engraving 2
G00 X84.6666 Y8.4666
G00 Z0.5000
G01 Z-1.0000 F60 S24000
G02 X8.4664 Y84.6668 I0.0000 J76.2002 F900
G02 X84.6666 Y160.8670 I76.2002 J0.0000
G02 X160.8667 Y84.6668 I0.0000 J-76.2002
G02 X84.6666 Y8.4666 I-76.2002 J0.0000
G00 Z5.0000


;No. 2: Engraving 20
G00 X36.6889 Y84.6667
G00 Z0.5000
G01 Z-1.0000 F60
G01 Y110.0667 F900
G00 Z5.0000


;No. 3: Engraving 12
G00 X33.8667 Y107.2444
G00 Z0.5000
G01 Z-1.0000 F60
G01 X59.2667 F900
G01 X62.0889 Y110.0667
G00 Z5.0000


;No. 4: Engraving 28
G00 Z0.5000
G01 Z-1.0000 F60
G01 X59.2667 Y107.2444 F900
G01 X33.8667
G00 Z5.0000


;No. 5: Engraving 13
G00 Y104.4222
G00 Z0.5000
G01 Z-1.0000 F60
G01 X59.2667 F900
G00 Z5.0000


;No. 6: Engraving 57
G00 Y110.0667
G00 Z0.5000
G01 Z-1.0000 F60
G01 X84.6667 Y135.4667 F900
G01 X160.8667
G00 Z5.0000


;No. 7: Engraving 8
G00 X135.4667 Y160.8667
G00 Z0.5000
G01 Z-1.0000 F60
G01 Y84.6667 F900
G00 Z5.0000


;No. 8: Engraving 45
G00 X122.7667 Y87.4889
G00 Z0.5000
G01 Z-1.0000 F60
G02 X112.8889 Y97.3667 I0.0000 J9.8778 F900
G02 X122.7667 Y107.2444 I9.8778 J0.0000
G02 X132.6444 Y97.3667 I0.0000 J-9.8778
G02 X122.7667 Y87.4889 I-9.8778 J0.0000
G00 Z5.0000


;No. 9: Engraving 44
G00 X114.7313 Y87.5319
G00 Z0.5000
G01 Z-1.0000 F60
G02 X110.0667 Y97.3667 I8.0355 J9.8349 F900
G02 X87.3292 Y89.5860 I-12.7000 J0.0000
G02 X97.3667 Y110.0667 I10.0375 J7.7807
G02 X110.0667 Y97.3667 I0.0000 J-12.7000
G02 X132.8041 Y105.1474 I12.7000 J0.0000
G02 X114.7313 Y87.5319 I-10.0375 J-7.7807
G00 Z5.0000


;No. 10: Engraving 46
G00 X122.7667 Y90.3111
G00 Z0.5000
G01 Z-1.0000 F60
G02 X115.7111 Y97.3667 I0.0000 J7.0555 F900
G02 X122.7667 Y104.4222 I7.0555 J0.0000
G02 X129.8222 Y97.3667 I0.0000 J-7.0555
G02 X122.7667 Y90.3111 I-7.0555 J0.0000
G00 Z5.0000


;No. 11: Engraving 47
G00 Y93.1334
G00 Z0.5000
G01 Z-1.0000 F60
G02 X118.5334 Y97.3667 I0.0000 J4.2333 F900
G02 X122.7667 Y101.6000 I4.2333 J0.0000
G02 X127.0000 Y97.3667 I0.0000 J-4.2333
G02 X122.7667 Y93.1334 I-4.2333 J0.0000
G00 Z5.0000


;No. 12: Engraving 48
G00 Y95.9556
G00 Z0.5000
G01 Z-1.0000 F60
G02 X121.3556 Y97.3666 I0.0000 J1.4111 F900
G02 X122.7667 Y98.7777 I1.4111 J0.0000
G02 X124.1778 Y97.3666 I0.0000 J-1.4111
G02 X122.7667 Y95.9556 I-1.4111 J0.0000
G00 Z5.0000


;No. 13: Engraving 51
G00 X110.0667 Y110.0667
G00 Z0.5000
G01 Z-1.0000 F60
G01 X135.4667 Y135.4667 F900
G00 Z5.0000


;No. 14: Engraving 50
G00 X110.0667
G00 Z0.5000
G01 Z-1.0000 F60
G01 X135.4667 Y110.0667 F900
G00 Z5.0000


;No. 15: Engraving 49
G00 X115.7111 Y115.7111
G00 Z0.5000
G01 Z-1.0000 F60
G01 Y129.8222 F900
G01 X129.8222
G01 Y115.7111
G01 X115.7111
G00 Z5.0000


;No. 16: Engraving 55
G00 X98.7778 Y121.3556
G00 Z0.5000
G01 Z-1.0000 F60
G01 Y124.1778 F900
G01 X95.9556
G01 Y121.3556
G01 X98.7778
G00 Z5.0000


;No. 17: Engraving 54
G00 X101.6000 Y127.0000
G00 Z0.5000
G01 Z-1.0000 F60
G01 Y118.5333 F900
G01 X93.1333
G01 Y127.0000
G01 X101.6000
G00 Z5.0000


;No. 18: Engraving 53
G00 X104.4222 Y129.8222
G00 Z0.5000
G01 Z-1.0000 F60
G01 Y115.7111 F900
G01 X90.3111
G01 Y129.8222
G01 X104.4222
G00 Z5.0000


;No. 19: Engraving 52
G00 X107.2444 Y132.6444
G00 Z0.5000
G01 Z-1.0000 F60
G01 Y112.8889 F900
G01 X87.4889
G01 Y132.6444
G01 X107.2444
G00 Z5.0000


;No. 20: Engraving 56
G00 X84.6667 Y129.8222
G00 Z0.5000
G01 Z-1.0000 F60
G01 X64.9111 Y110.0667 F900
G00 Z5.0000


;No. 21: Engraving 29
G00 X59.2667 Y118.5333
G00 Z0.5000
G01 Z-1.0000 F60
G01 X67.7333 Y110.0667 F900
G01 X59.2667 Y101.6000
G01 X33.8667
G00 Z5.0000


;No. 22: Engraving 14
G00 Z0.5000
G01 Z-1.0000 F60
G01 X59.2667 F900
G01 X67.7333 Y110.0667
G01 X59.2667 Y118.5333
G00 Z5.0000


;No. 23: Engraving 67
G00 Z0.5000
G01 Z-1.0000 F60
G01 X67.7333 Y110.0667 F900
G01 X59.2667 Y101.6000
G01 X33.8667
G00 Z5.0000


;No. 24: Engraving 15
G00 Y98.7778
G00 Z0.5000
G01 Z-1.0000 F60
G01 X59.2667 F900
G01 X84.6667 Y124.1778
G00 Z5.0000


;No. 25: Engraving 30
G00 Z0.5000
G01 Z-1.0000 F60
G01 X59.2667 Y98.7778 F900
G01 X33.8667
G00 Z5.0000


;No. 26: Engraving 16
G00 Y95.9556
G00 Z0.5000
G01 Z-1.0000 F60
G01 X59.2667 F900
G01 X73.3778 Y110.0667
G01 X59.2667 Y124.1778
G00 Z5.0000


;No. 27: Engraving 31
G00 Z0.5000
G01 Z-1.0000 F60
G01 X73.3778 Y110.0667 F900
G01 X59.2667 Y95.9556
G01 X33.8667
G00 Z5.0000


;No. 28: Engraving 17
G00 Y93.1333
G00 Z0.5000
G01 Z-1.0000 F60
G01 X59.2667 F900
G01 X84.6667 Y118.5333
G00 Z5.0000


;No. 29: Engraving 32
G00 Z0.5000
G01 Z-1.0000 F60
G01 X59.2667 Y93.1333 F900
G01 X33.8667
G00 Z5.0000


;No. 30: Engraving 18
G00 Y90.3111
G00 Z0.5000
G01 Z-1.0000 F60
G01 X59.2667 F900
G01 X79.0222 Y110.0667
G01 X59.2667 Y129.8222
G00 Z5.0000


;No. 31: Engraving 33
G00 Z0.5000
G01 Z-1.0000 F60
G01 X79.0222 Y110.0667 F900
G01 X59.2667 Y90.3111
G01 X33.8667
G00 Z5.0000


;No. 32: Engraving 19
G00 Y87.4889
G00 Z0.5000
G01 Z-1.0000 F60
G01 X59.2667 F900
G01 X81.8444 Y110.0667
G00 Z5.0000


;No. 33: Engraving 35
G00 Z0.5000
G01 Z-1.0000 F60
G01 X59.2667 Y87.4889 F900
G01 X33.8667
G00 Z5.0000


;No. 34: Engraving 21
G00 X39.5111 Y84.6667
G00 Z0.5000
G01 Z-1.0000 F60
G01 Y110.0667 F900
G00 Z5.0000


;No. 35: Engraving 66
G00 X59.2667 Y124.1778
G00 Z0.5000
G01 Z-1.0000 F60
G01 X73.3778 Y110.0667 F900
G01 X59.2667 Y95.9556
G01 X33.8667
G00 Z5.0000


;No. 36: Engraving 22
G00 X42.3333 Y84.6667
G00 Z0.5000
G01 Z-1.0000 F60
G01 Y110.0667 F900
G00 Z5.0000


;No. 37: Engraving 60
G00 X59.2667 Y127.0000
G00 Z0.5000
G01 Z-1.0000 F60
G01 X67.7333 Y135.4667 F900
G00 Z5.0000


;No. 38: Engraving 59
G00 X73.3778
G00 Z0.5000
G01 Z-1.0000 F60
G01 X59.2667 Y121.3556 F900
G00 Z5.0000


;No. 39: Engraving 65
G00 Y129.8222
G00 Z0.5000
G01 Z-1.0000 F60
G01 X79.0222 Y110.0667 F900
G01 X59.2667 Y90.3111
G01 X33.8667
G00 Z5.0000


;No. 40: Engraving 23
G00 X45.1556 Y84.6667
G00 Z0.5000
G01 Z-1.0000 F60
G01 Y110.0667 F900
G00 Z5.0000


;No. 41: Engraving 24
G00 X47.9778 Y84.6667
G00 Z0.5000
G01 Z-1.0000 F60
G01 Y110.0667 F900
G00 Z5.0000


;No. 42: Engraving 25
G00 X50.8000 Y84.6667
G00 Z0.5000
G01 Z-1.0000 F60
G01 Y110.0667 F900
G00 Z5.0000


;No. 43: Engraving 26
G00 X53.6222 Y84.6667
G00 Z0.5000
G01 Z-1.0000 F60
G01 Y110.0667 F900
G00 Z5.0000


;No. 44: Engraving 27
G00 X56.4444 Y84.6667
G00 Z0.5000
G01 Z-1.0000 F60
G01 Y110.0667 F900
G00 Z5.0000


;No. 45: Engraving 64
G00 X59.2667 Y135.4667
G00 Z0.5000
G01 Z-1.0000 F60
G01 X84.6667 Y110.0667 F900
G01 X160.8667
G00 Z5.0000


;No. 46: Engraving 4
G00 Y84.6667
G00 Z0.5000
G01 Z-1.0000 F60
G01 X84.6667 F900
G01 Y160.8667
G03 X160.8667 Y84.6667 I0.0000 J-76.2000
G00 Z5.0000


;No. 47: Engraving 43
G00 X84.6667 Y87.4889
G00 Z0.5000
G01 Z-1.0000 F60
G01 X81.8444 Y84.6667 F900
G00 Z5.0000


;No. 48: Engraving 42
G00 X84.6667 Y90.3111
G00 Z0.5000
G01 Z-1.0000 F60
G01 X79.0222 Y84.6667 F900
G00 Z5.0000


;No. 49: Engraving 41
G00 X84.6667 Y93.1333
G00 Z0.5000
G01 Z-1.0000 F60
G01 X76.2000 Y84.6667 F900
G00 Z5.0000


;No. 50: Engraving 40
G00 X84.7410 Y95.9948
G00 Z0.5000
G01 Z-1.0000 F60
G02 X106.3469 Y88.3864 I12.6257 J1.3719 F900
G02 X93.1484 Y85.3877 I-8.9802 J8.9802
G02 X87.4530 Y89.4289 I4.2180 J11.9786
G02 X85.6671 Y92.4261 I9.9137 J7.9378
G01 X85.3793 Y93.1724
G01 X85.1390 Y93.9353
G02 X84.7522 Y95.8954 I12.2248 J3.4309
G01 X84.6667 Y95.9556
G01 X73.3778 Y84.6667
G00 Z5.0000


;No. 51: Engraving 39
G00 X84.7438 Y98.7638
G00 Z0.5000
G01 Z-1.0000 F60
G02 X106.3469 Y88.3864 I12.6229 J-1.3972 F900
G02 X91.8561 Y85.9245 I-8.9802 J8.9802
G02 X86.2816 Y91.1690 I5.5106 J11.4422
G02 X84.9472 Y94.7118 I11.0859 J6.1981
G02 X84.6968 Y96.4928 I12.4162 J2.6543
G02 X84.7331 Y98.6644 I12.6724 J0.8739
G01 X84.6667 Y98.7778
G01 X70.5556 Y84.6667
G00 Z5.0000


;No. 52: Engraving 38
G00 X84.6667 Y101.6000
G00 Z0.5000
G01 Z-1.0000 F60
G01 X67.7333 Y84.6667 F900
G00 Z5.0000


;No. 53: Engraving 37
G00 X84.6667 Y104.4222
G00 Z0.5000
G01 Z-1.0000 F60
G01 X64.9111 Y84.6667 F900
G00 Z5.0000


;No. 54: Engraving 36
G00 X84.6667 Y107.2444
G00 Z0.5000
G01 Z-1.0000 F60
G01 X62.0889 Y84.6667 F900
G00 Z5.0000


;No. 55: Engraving 63
G00 X84.6667 Y115.7111
G00 Z0.5000
G01 Z-1.0000 F60
G01 X64.9111 Y135.4667 F900
G00 Z5.0000


;No. 56: Engraving 58
G00 X79.0222
G00 Z0.5000
G01 Z-1.0000 F60
G01 X59.2667 Y115.7111 F900
G00 Z5.0000


;No. 57: Engraving 62
G00 X84.6667 Y121.3556
G00 Z0.5000
G01 Z-1.0000 F60
G01 X70.5556 Y135.4667 F900
G00 Z5.0000


;No. 58: Engraving 61
G00 X84.6667 Y127.0000
G00 Z0.5000
G01 Z-1.0000 F60
G01 X76.2000 Y135.4667 F900
G00 Z5.0000


;No. 59: Engraving 10
G00 X59.2667 Y160.8667
G00 Z0.5000
G01 Z-1.0000 F60
G01 Y84.6667 F900
G01 X84.6667 Y110.0667
G01 X160.8667
G00 Z5.0000


;No. 60: Engraving 9
G00 X110.0667 Y160.8667
G00 Z0.5000
G01 Z-1.0000 F60
G01 Y84.6667 F900
G00 Z5.0000


;No. 61: Engraving 7
G00 X84.6667 Y8.4667
G00 Z0.5000
G01 Z-1.0000 F60
G02 X160.8667 Y84.6667 I0.0000 J76.2000 F900
G02 X84.6667 Y8.4667 I-76.2000 J0.0000
G01 Y160.8667
G00 Z5.0000


;No. 62: Engraving 34
G00 X59.2667
G00 Z0.5000
G01 Z-1.0000 F60
G01 Y84.6667 F900
G01 X84.6667 Y110.0667
G01 X160.8667
G00 Z5.0000


;No. 63: Engraving 11
G00 X33.8667 Y160.8667
G00 Z0.5000
G01 Z-1.0000 F60
G01 Y84.6667 F900
G00 Z5.0000


;No. 64: Engraving 3
G00 X8.4667
G00 Z0.5000
G01 Z-1.0000 F60
G02 X138.5482 Y30.7851 I76.2000 J0.0000 F900
G02 X14.2671 Y55.5062 I-53.8817 J53.8809
G02 X8.4667 Y84.6667 I70.3841 J29.1574
G01 X84.6667
G01 Y160.8667
G00 Z5.0000


;No. 65: Engraving 1
G00 X8.4667
G00 Z0.5000
G01 Z-1.0000 F60
G01 X160.8667 F900
G01 Y8.4667
G01 X8.4667 Y160.8667
G01 Y8.4667
G01 X160.8667
G00 Z5.0000


;No. 66: Engraving 6
G00 X8.4667 Y110.0667
G00 Z0.5000
G01 Z-1.0000 F60
G01 X160.8667 F900
G00 Z5.0000


;No. 67: Engraving 5
G00 X8.4667 Y135.4667
G00 Z0.5000
G01 Z-1.0000 F60
G01 X160.8667 F900
G00 Z5.0000
G00 X0.0000 Y0.0000

M05
