;Project loidolt@gmail
;Created by Estlcam version 8 build 8.065
;Machining time about 12:10:23 AM hours

G90
M03 S24000
G00 Z5.0000


;No. 1: Drill 1
G00 X3.1750 Y3.1750
G00 Z0.5000
G01 Z-6.0000 F1020 S24000
G00 Z0.5000
G00 Z-5.5000
G01 Z-12.0000
G00 Z5.0000


;No. 2: Drill 2
G00 X3.1750 Y3.1750 Z5.0000
G00 X53.9750
G00 Z0.5000
G01 Z-6.0000
G00 Z0.5000
G00 Z-5.5000
G01 Z-12.0000
G00 Z5.0000


;No. 3: Drill 3
G00 X53.9750 Y3.1750 Z5.0000
G00 X104.7750
G00 Z0.5000
G01 Z-6.0000
G00 Z0.5000
G00 Z-5.5000
G01 Z-12.0000
G00 Z5.0000


;No. 4: Drill 4
G00 X104.7750 Y3.1750 Z5.0000
G00 X155.5750
G00 Z0.5000
G01 Z-6.0000
G00 Z0.5000
G00 Z-5.5000
G01 Z-12.0000
G00 Z5.0000


;No. 5: Drill 19
G00 X155.5750 Y3.1750 Z5.0000
G00 Y53.9750
G00 Z0.5000
G01 Z-6.0000
G00 Z0.5000
G00 Z-5.5000
G01 Z-12.0000
G00 Z5.0000


;No. 6: Drill 20
G00 X155.5750 Y53.9750 Z5.0000
G00 X104.7750
G00 Z0.5000
G01 Z-6.0000
G00 Z0.5000
G00 Z-5.5000
G01 Z-12.0000
G00 Z5.0000


;No. 7: Drill 21
G00 X104.7750 Y53.9750 Z5.0000
G00 X53.9750
G00 Z0.5000
G01 Z-6.0000
G00 Z0.5000
G00 Z-5.5000
G01 Z-12.0000
G00 Z5.0000


;No. 8: Drill 22
G00 X53.9750 Y53.9750 Z5.0000
G00 X3.1750
G00 Z0.5000
G01 Z-6.0000
G00 Z0.5000
G00 Z-5.5000
G01 Z-12.0000
G00 Z5.0000


;No. 9: Drill 23
G00 X3.1750 Y53.9750 Z5.0000
G00 Y104.7750
G00 Z0.5000
G01 Z-6.0000
G00 Z0.5000
G00 Z-5.5000
G01 Z-12.0000
G00 Z5.0000


;No. 10: Drill 24
G00 X3.1750 Y104.7750 Z5.0000
G00 X53.9750
G00 Z0.5000
G01 Z-6.0000
G00 Z0.5000
G00 Z-5.5000
G01 Z-12.0000
G00 Z5.0000


;No. 11: Drill 25
G00 X53.9750 Y104.7750 Z5.0000
G00 X104.7750
G00 Z0.5000
G01 Z-6.0000
G00 Z0.5000
G00 Z-5.5000
G01 Z-12.0000
G00 Z5.0000


;No. 12: Drill 26
G00 X104.7750 Y104.7750 Z5.0000
G00 X155.5750
G00 Z0.5000
G01 Z-6.0000
G00 Z0.5000
G00 Z-5.5000
G01 Z-12.0000
G00 Z5.0000


;No. 13: Drill 41
G00 X155.5750 Y104.7750 Z5.0000
G00 Y155.5750
G00 Z0.5000
G01 Z-6.0000
G00 Z0.5000
G00 Z-5.5000
G01 Z-12.0000
G00 Z5.0000


;No. 14: Drill 42
G00 X155.5750 Y155.5750 Z5.0000
G00 X104.7750
G00 Z0.5000
G01 Z-6.0000
G00 Z0.5000
G00 Z-5.5000
G01 Z-12.0000
G00 Z5.0000


;No. 15: Drill 43
G00 X104.7750 Y155.5750 Z5.0000
G00 X53.9750
G00 Z0.5000
G01 Z-6.0000
G00 Z0.5000
G00 Z-5.5000
G01 Z-12.0000
G00 Z5.0000


;No. 16: Drill 44
G00 X53.9750 Y155.5750 Z5.0000
G00 X3.1750
G00 Z0.5000
G01 Z-6.0000
G00 Z0.5000
G00 Z-5.5000
G01 Z-12.0000
G00 Z5.0000


;No. 17: Drill 45
G00 X3.1750 Y155.5750 Z5.0000
G00 Y206.3750
G00 Z0.5000
G01 Z-6.0000
G00 Z0.5000
G00 Z-5.5000
G01 Z-12.0000
G00 Z5.0000


;No. 18: Drill 46
G00 X3.1750 Y206.3750 Z5.0000
G00 X53.9750
G00 Z0.5000
G01 Z-6.0000
G00 Z0.5000
G00 Z-5.5000
G01 Z-12.0000
G00 Z5.0000


;No. 19: Drill 47
G00 X53.9750 Y206.3750 Z5.0000
G00 X104.7750
G00 Z0.5000
G01 Z-6.0000
G00 Z0.5000
G00 Z-5.5000
G01 Z-12.0000
G00 Z5.0000


;No. 20: Drill 48
G00 X104.7750 Y206.3750 Z5.0000
G00 X155.5750
G00 Z0.5000
G01 Z-6.0000
G00 Z0.5000
G00 Z-5.5000
G01 Z-12.0000
G00 Z5.0000


;No. 21: Drill 49
G00 X155.5750 Y206.3750 Z5.0000
G00 X206.3750
G00 Z0.5000
G01 Z-6.0000
G00 Z0.5000
G00 Z-5.5000
G01 Z-12.0000
G00 Z5.0000


;No. 22: Drill 40
G00 X206.3750 Y206.3750 Z5.0000
G00 Y155.5750
G00 Z0.5000
G01 Z-6.0000
G00 Z0.5000
G00 Z-5.5000
G01 Z-12.0000
G00 Z5.0000


;No. 23: Drill 27
G00 X206.3750 Y155.5750 Z5.0000
G00 Y104.7750
G00 Z0.5000
G01 Z-6.0000
G00 Z0.5000
G00 Z-5.5000
G01 Z-12.0000
G00 Z5.0000


;No. 24: Drill 18
G00 X206.3750 Y104.7750 Z5.0000
G00 Y53.9750
G00 Z0.5000
G01 Z-6.0000
G00 Z0.5000
G00 Z-5.5000
G01 Z-12.0000
G00 Z5.0000


;No. 25: Drill 5
G00 X206.3750 Y53.9750 Z5.0000
G00 Y3.1750
G00 Z0.5000
G01 Z-6.0000
G00 Z0.5000
G00 Z-5.5000
G01 Z-12.0000
G00 Z5.0000


;No. 26: Drill 6
G00 X206.3750 Y3.1750 Z5.0000
G00 X257.1750
G00 Z0.5000
G01 Z-6.0000
G00 Z0.5000
G00 Z-5.5000
G01 Z-12.0000
G00 Z5.0000


;No. 27: Drill 7
G00 X257.1750 Y3.1750 Z5.0000
G00 X307.9750
G00 Z0.5000
G01 Z-6.0000
G00 Z0.5000
G00 Z-5.5000
G01 Z-12.0000
G00 Z5.0000


;No. 28: Drill 16
G00 X307.9750 Y3.1750 Z5.0000
G00 Y53.9750
G00 Z0.5000
G01 Z-6.0000
G00 Z0.5000
G00 Z-5.5000
G01 Z-12.0000
G00 Z5.0000


;No. 29: Drill 17
G00 X307.9750 Y53.9750 Z5.0000
G00 X257.1750
G00 Z0.5000
G01 Z-6.0000
G00 Z0.5000
G00 Z-5.5000
G01 Z-12.0000
G00 Z5.0000


;No. 30: Drill 28
G00 X257.1750 Y53.9750 Z5.0000
G00 Y104.7750
G00 Z0.5000
G01 Z-6.0000
G00 Z0.5000
G00 Z-5.5000
G01 Z-12.0000
G00 Z5.0000


;No. 31: Drill 29
G00 X257.1750 Y104.7750 Z5.0000
G00 X307.9750
G00 Z0.5000
G01 Z-6.0000
G00 Z0.5000
G00 Z-5.5000
G01 Z-12.0000
G00 Z5.0000


;No. 32: Drill 38
G00 X307.9750 Y104.7750 Z5.0000
G00 Y155.5750
G00 Z0.5000
G01 Z-6.0000
G00 Z0.5000
G00 Z-5.5000
G01 Z-12.0000
G00 Z5.0000


;No. 33: Drill 39
G00 X307.9750 Y155.5750 Z5.0000
G00 X257.1750
G00 Z0.5000
G01 Z-6.0000
G00 Z0.5000
G00 Z-5.5000
G01 Z-12.0000
G00 Z5.0000


;No. 34: Drill 50
G00 X257.1750 Y155.5750 Z5.0000
G00 Y206.3750
G00 Z0.5000
G01 Z-6.0000
G00 Z0.5000
G00 Z-5.5000
G01 Z-12.0000
G00 Z5.0000


;No. 35: Drill 51
G00 X257.1750 Y206.3750 Z5.0000
G00 X307.9750
G00 Z0.5000
G01 Z-6.0000
G00 Z0.5000
G00 Z-5.5000
G01 Z-12.0000
G00 Z5.0000


;No. 36: Drill 52
G00 X307.9750 Y206.3750 Z5.0000
G00 X358.7750
G00 Z0.5000
G01 Z-6.0000
G00 Z0.5000
G00 Z-5.5000
G01 Z-12.0000
G00 Z5.0000


;No. 37: Drill 37
G00 X358.7750 Y206.3750 Z5.0000
G00 Y155.5750
G00 Z0.5000
G01 Z-6.0000
G00 Z0.5000
G00 Z-5.5000
G01 Z-12.0000
G00 Z5.0000


;No. 38: Drill 30
G00 X358.7750 Y155.5750 Z5.0000
G00 Y104.7750
G00 Z0.5000
G01 Z-6.0000
G00 Z0.5000
G00 Z-5.5000
G01 Z-12.0000
G00 Z5.0000


;No. 39: Drill 15
G00 X358.7750 Y104.7750 Z5.0000
G00 Y53.9750
G00 Z0.5000
G01 Z-6.0000
G00 Z0.5000
G00 Z-5.5000
G01 Z-12.0000
G00 Z5.0000


;No. 40: Drill 8
G00 X358.7750 Y53.9750 Z5.0000
G00 Y3.1750
G00 Z0.5000
G01 Z-6.0000
G00 Z0.5000
G00 Z-5.5000
G01 Z-12.0000
G00 Z5.0000


;No. 41: Drill 9
G00 X358.7750 Y3.1750 Z5.0000
G00 X409.5750
G00 Z0.5000
G01 Z-6.0000
G00 Z0.5000
G00 Z-5.5000
G01 Z-12.0000
G00 Z5.0000


;No. 42: Drill 14
G00 X409.5750 Y3.1750 Z5.0000
G00 Y53.9750
G00 Z0.5000
G01 Z-6.0000
G00 Z0.5000
G00 Z-5.5000
G01 Z-12.0000
G00 Z5.0000


;No. 43: Drill 31
G00 X409.5750 Y53.9750 Z5.0000
G00 Y104.7750
G00 Z0.5000
G01 Z-6.0000
G00 Z0.5000
G00 Z-5.5000
G01 Z-12.0000
G00 Z5.0000


;No. 44: Drill 36
G00 X409.5750 Y104.7750 Z5.0000
G00 Y155.5750
G00 Z0.5000
G01 Z-6.0000
G00 Z0.5000
G00 Z-5.5000
G01 Z-12.0000
G00 Z5.0000


;No. 45: Drill 35
G00 X409.5750 Y155.5750 Z5.0000
G00 X460.3750
G00 Z0.5000
G01 Z-6.0000
G00 Z0.5000
G00 Z-5.5000
G01 Z-12.0000
G00 Z5.0000


;No. 46: Drill 32
G00 X460.3750 Y155.5750 Z5.0000
G00 Y104.7750
G00 Z0.5000
G01 Z-6.0000
G00 Z0.5000
G00 Z-5.5000
G01 Z-12.0000
G00 Z5.0000


;No. 47: Drill 13
G00 X460.3750 Y104.7750 Z5.0000
G00 Y53.9750
G00 Z0.5000
G01 Z-6.0000
G00 Z0.5000
G00 Z-5.5000
G01 Z-12.0000
G00 Z5.0000


;No. 48: Drill 10
G00 X460.3750 Y53.9750 Z5.0000
G00 Y3.1750
G00 Z0.5000
G01 Z-6.0000
G00 Z0.5000
G00 Z-5.5000
G01 Z-12.0000
G00 Z5.0000


;No. 49: Drill 54
G00 X460.3750 Y3.1750 Z5.0000
G00 Y206.3750
G00 Z0.5000
G01 Z-6.0000
G00 Z0.5000
G00 Z-5.5000
G01 Z-12.0000
G00 Z5.0000


;No. 50: Drill 53
G00 X460.3750 Y206.3750 Z5.0000
G00 X409.5750
G00 Z0.5000
G01 Z-6.0000
G00 Z0.5000
G00 Z-5.5000
G01 Z-12.0000
G00 Z5.0000


;No. 51: Drill 58
G00 X409.5750 Y206.3750 Z5.0000
G00 Y257.1750
G00 Z0.5000
G01 Z-6.0000
G00 Z0.5000
G00 Z-5.5000
G01 Z-12.0000
G00 Z5.0000


;No. 52: Drill 75
G00 X409.5750 Y257.1750 Z5.0000
G00 Y307.9750
G00 Z0.5000
G01 Z-6.0000
G00 Z0.5000
G00 Z-5.5000
G01 Z-12.0000
G00 Z5.0000


;No. 53: Drill 74
G00 X409.5750 Y307.9750 Z5.0000
G00 X358.7750
G00 Z0.5000
G01 Z-6.0000
G00 Z0.5000
G00 Z-5.5000
G01 Z-12.0000
G00 Z5.0000


;No. 54: Drill 59
G00 X358.7750 Y307.9750 Z5.0000
G00 Y257.1750
G00 Z0.5000
G01 Z-6.0000
G00 Z0.5000
G00 Z-5.5000
G01 Z-12.0000
G00 Z5.0000


;No. 55: Drill 60
G00 X358.7750 Y257.1750 Z5.0000
G00 X307.9750
G00 Z0.5000
G01 Z-6.0000
G00 Z0.5000
G00 Z-5.5000
G01 Z-12.0000
G00 Z5.0000


;No. 56: Drill 61
G00 X307.9750 Y257.1750 Z5.0000
G00 X257.1750
G00 Z0.5000
G01 Z-6.0000
G00 Z0.5000
G00 Z-5.5000
G01 Z-12.0000
G00 Z5.0000


;No. 57: Drill 72
G00 X257.1750 Y257.1750 Z5.0000
G00 Y307.9750
G00 Z0.5000
G01 Z-6.0000
G00 Z0.5000
G00 Z-5.5000
G01 Z-12.0000
G00 Z5.0000


;No. 58: Drill 73
G00 X257.1750 Y307.9750 Z5.0000
G00 X307.9750
G00 Z0.5000
G01 Z-6.0000
G00 Z0.5000
G00 Z-5.5000
G01 Z-12.0000
G00 Z5.0000


;No. 59: Drill 82
G00 X307.9750 Y307.9750 Z5.0000
G00 Y358.7750
G00 Z0.5000
G01 Z-6.0000
G00 Z0.5000
G00 Z-5.5000
G01 Z-12.0000
G00 Z5.0000


;No. 60: Drill 83
G00 X307.9750 Y358.7750 Z5.0000
G00 X257.1750
G00 Z0.5000
G01 Z-6.0000
G00 Z0.5000
G00 Z-5.5000
G01 Z-12.0000
G00 Z5.0000


;No. 61: Drill 84
G00 X257.1750 Y358.7750 Z5.0000
G00 X206.3750
G00 Z0.5000
G01 Z-6.0000
G00 Z0.5000
G00 Z-5.5000
G01 Z-12.0000
G00 Z5.0000


;No. 62: Drill 71
G00 X206.3750 Y358.7750 Z5.0000
G00 Y307.9750
G00 Z0.5000
G01 Z-6.0000
G00 Z0.5000
G00 Z-5.5000
G01 Z-12.0000
G00 Z5.0000


;No. 63: Drill 62
G00 X206.3750 Y307.9750 Z5.0000
G00 Y257.1750
G00 Z0.5000
G01 Z-6.0000
G00 Z0.5000
G00 Z-5.5000
G01 Z-12.0000
G00 Z5.0000


;No. 64: Drill 63
G00 X206.3750 Y257.1750 Z5.0000
G00 X155.5750
G00 Z0.5000
G01 Z-6.0000
G00 Z0.5000
G00 Z-5.5000
G01 Z-12.0000
G00 Z5.0000


;No. 65: Drill 70
G00 X155.5750 Y257.1750 Z5.0000
G00 Y307.9750
G00 Z0.5000
G01 Z-6.0000
G00 Z0.5000
G00 Z-5.5000
G01 Z-12.0000
G00 Z5.0000


;No. 66: Drill 69
G00 X155.5750 Y307.9750 Z5.0000
G00 X104.7750
G00 Z0.5000
G01 Z-6.0000
G00 Z0.5000
G00 Z-5.5000
G01 Z-12.0000
G00 Z5.0000


;No. 67: Drill 64
G00 X104.7750 Y307.9750 Z5.0000
G00 Y257.1750
G00 Z0.5000
G01 Z-6.0000
G00 Z0.5000
G00 Z-5.5000
G01 Z-12.0000
G00 Z5.0000


;No. 68: Drill 65
G00 X104.7750 Y257.1750 Z5.0000
G00 X53.9750
G00 Z0.5000
G01 Z-6.0000
G00 Z0.5000
G00 Z-5.5000
G01 Z-12.0000
G00 Z5.0000


;No. 69: Drill 68
G00 X53.9750 Y257.1750 Z5.0000
G00 Y307.9750
G00 Z0.5000
G01 Z-6.0000
G00 Z0.5000
G00 Z-5.5000
G01 Z-12.0000
G00 Z5.0000


;No. 70: Drill 67
G00 X53.9750 Y307.9750 Z5.0000
G00 X3.1750
G00 Z0.5000
G01 Z-6.0000
G00 Z0.5000
G00 Z-5.5000
G01 Z-12.0000
G00 Z5.0000


;No. 71: Drill 66
G00 X3.1750 Y307.9750 Z5.0000
G00 Y257.1750
G00 Z0.5000
G01 Z-6.0000
G00 Z0.5000
G00 Z-5.5000
G01 Z-12.0000
G00 Z5.0000


;No. 72: Drill 88
G00 X3.1750 Y257.1750 Z5.0000
G00 Y358.7750
G00 Z0.5000
G01 Z-6.0000
G00 Z0.5000
G00 Z-5.5000
G01 Z-12.0000
G00 Z5.0000


;No. 73: Drill 87
G00 X3.1750 Y358.7750 Z5.0000
G00 X53.9750
G00 Z0.5000
G01 Z-6.0000
G00 Z0.5000
G00 Z-5.5000
G01 Z-12.0000
G00 Z5.0000


;No. 74: Drill 86
G00 X53.9750 Y358.7750 Z5.0000
G00 X104.7750
G00 Z0.5000
G01 Z-6.0000
G00 Z0.5000
G00 Z-5.5000
G01 Z-12.0000
G00 Z5.0000


;No. 75: Drill 85
G00 X104.7750 Y358.7750 Z5.0000
G00 X155.5750
G00 Z0.5000
G01 Z-6.0000
G00 Z0.5000
G00 Z-5.5000
G01 Z-12.0000
G00 Z5.0000


;No. 76: Drill 92
G00 X155.5750 Y358.7750 Z5.0000
G00 Y409.5750
G00 Z0.5000
G01 Z-6.0000
G00 Z0.5000
G00 Z-5.5000
G01 Z-12.0000
G00 Z5.0000


;No. 77: Drill 91
G00 X155.5750 Y409.5750 Z5.0000
G00 X104.7750
G00 Z0.5000
G01 Z-6.0000
G00 Z0.5000
G00 Z-5.5000
G01 Z-12.0000
G00 Z5.0000


;No. 78: Drill 90
G00 X104.7750 Y409.5750 Z5.0000
G00 X53.9750
G00 Z0.5000
G01 Z-6.0000
G00 Z0.5000
G00 Z-5.5000
G01 Z-12.0000
G00 Z5.0000


;No. 79: Drill 89
G00 X53.9750 Y409.5750 Z5.0000
G00 X3.1750
G00 Z0.5000
G01 Z-6.0000
G00 Z0.5000
G00 Z-5.5000
G01 Z-12.0000
G00 Z5.0000


;No. 80: Drill 110
G00 X3.1750 Y409.5750 Z5.0000
G00 Y460.3750
G00 Z0.5000
G01 Z-6.0000
G00 Z0.5000
G00 Z-5.5000
G01 Z-12.0000
G00 Z5.0000


;No. 81: Drill 109
G00 X3.1750 Y460.3750 Z5.0000
G00 X53.9750
G00 Z0.5000
G01 Z-6.0000
G00 Z0.5000
G00 Z-5.5000
G01 Z-12.0000
G00 Z5.0000


;No. 82: Drill 108
G00 X53.9750 Y460.3750 Z5.0000
G00 X104.7750
G00 Z0.5000
G01 Z-6.0000
G00 Z0.5000
G00 Z-5.5000
G01 Z-12.0000
G00 Z5.0000


;No. 83: Drill 107
G00 X104.7750 Y460.3750 Z5.0000
G00 X155.5750
G00 Z0.5000
G01 Z-6.0000
G00 Z0.5000
G00 Z-5.5000
G01 Z-12.0000
G00 Z5.0000


;No. 84: Drill 106
G00 X155.5750 Y460.3750 Z5.0000
G00 X206.3750
G00 Z0.5000
G01 Z-6.0000
G00 Z0.5000
G00 Z-5.5000
G01 Z-12.0000
G00 Z5.0000


;No. 85: Drill 93
G00 X206.3750 Y460.3750 Z5.0000
G00 Y409.5750
G00 Z0.5000
G01 Z-6.0000
G00 Z0.5000
G00 Z-5.5000
G01 Z-12.0000
G00 Z5.0000


;No. 86: Drill 94
G00 X206.3750 Y409.5750 Z5.0000
G00 X257.1750
G00 Z0.5000
G01 Z-6.0000
G00 Z0.5000
G00 Z-5.5000
G01 Z-12.0000
G00 Z5.0000


;No. 87: Drill 95
G00 X257.1750 Y409.5750 Z5.0000
G00 X307.9750
G00 Z0.5000
G01 Z-6.0000
G00 Z0.5000
G00 Z-5.5000
G01 Z-12.0000
G00 Z5.0000


;No. 88: Drill 96
G00 X307.9750 Y409.5750 Z5.0000
G00 X358.7750
G00 Z0.5000
G01 Z-6.0000
G00 Z0.5000
G00 Z-5.5000
G01 Z-12.0000
G00 Z5.0000


;No. 89: Drill 81
G00 X358.7750 Y409.5750 Z5.0000
G00 Y358.7750
G00 Z0.5000
G01 Z-6.0000
G00 Z0.5000
G00 Z-5.5000
G01 Z-12.0000
G00 Z5.0000


;No. 90: Drill 80
G00 X358.7750 Y358.7750 Z5.0000
G00 X409.5750
G00 Z0.5000
G01 Z-6.0000
G00 Z0.5000
G00 Z-5.5000
G01 Z-12.0000
G00 Z5.0000


;No. 91: Drill 79
G00 X409.5750 Y358.7750 Z5.0000
G00 X460.3750
G00 Z0.5000
G01 Z-6.0000
G00 Z0.5000
G00 Z-5.5000
G01 Z-12.0000
G00 Z5.0000


;No. 92: Drill 76
G00 X460.3750 Y358.7750 Z5.0000
G00 Y307.9750
G00 Z0.5000
G01 Z-6.0000
G00 Z0.5000
G00 Z-5.5000
G01 Z-12.0000
G00 Z5.0000


;No. 93: Drill 57
G00 X460.3750 Y307.9750 Z5.0000
G00 Y257.1750
G00 Z0.5000
G01 Z-6.0000
G00 Z0.5000
G00 Z-5.5000
G01 Z-12.0000
G00 Z5.0000


;No. 94: Drill 98
G00 X460.3750 Y257.1750 Z5.0000
G00 Y409.5750
G00 Z0.5000
G01 Z-6.0000
G00 Z0.5000
G00 Z-5.5000
G01 Z-12.0000
G00 Z5.0000


;No. 95: Drill 97
G00 X460.3750 Y409.5750 Z5.0000
G00 X409.5750
G00 Z0.5000
G01 Z-6.0000
G00 Z0.5000
G00 Z-5.5000
G01 Z-12.0000
G00 Z5.0000


;No. 96: Drill 102
G00 X409.5750 Y409.5750 Z5.0000
G00 Y460.3750
G00 Z0.5000
G01 Z-6.0000
G00 Z0.5000
G00 Z-5.5000
G01 Z-12.0000
G00 Z5.0000


;No. 97: Drill 101
G00 X409.5750 Y460.3750 Z5.0000
G00 X460.3750
G00 Z0.5000
G01 Z-6.0000
G00 Z0.5000
G00 Z-5.5000
G01 Z-12.0000
G00 Z5.0000


;No. 98: Drill 103
G00 X460.3750 Y460.3750 Z5.0000
G00 X358.7750
G00 Z0.5000
G01 Z-6.0000
G00 Z0.5000
G00 Z-5.5000
G01 Z-12.0000
G00 Z5.0000


;No. 99: Drill 104
G00 X358.7750 Y460.3750 Z5.0000
G00 X307.9750
G00 Z0.5000
G01 Z-6.0000
G00 Z0.5000
G00 Z-5.5000
G01 Z-12.0000
G00 Z5.0000


;No. 100: Drill 105
G00 X307.9750 Y460.3750 Z5.0000
G00 X257.1750
G00 Z0.5000
G01 Z-6.0000
G00 Z0.5000
G00 Z-5.5000
G01 Z-12.0000
G00 Z5.0000
G00 X0.0000 Y0.0000

M05
