;Project loidolt@gmail
;Created by Estlcam version 8 build 8.065
;Machining time about 12:05:58 AM hours

G90
M03 S24000
G00 Z5.0000


;No. 1: Drill 66
G00 X3.1750 Y257.1750
G00 Z0.5000
G01 Z-6.0000 F1020 S24000
G00 Z0.5000
G00 Z-5.5000
G01 Z-12.0000
G00 Z5.0000


;No. 2: Drill 67
G00 X3.1750 Y257.1750 Z5.0000
G00 Y307.9750
G00 Z0.5000
G01 Z-6.0000
G00 Z0.5000
G00 Z-5.5000
G01 Z-12.0000
G00 Z5.0000


;No. 3: Drill 68
G00 X3.1750 Y307.9750 Z5.0000
G00 X53.9750
G00 Z0.5000
G01 Z-6.0000
G00 Z0.5000
G00 Z-5.5000
G01 Z-12.0000
G00 Z5.0000


;No. 4: Drill 65
G00 X53.9750 Y307.9750 Z5.0000
G00 Y257.1750
G00 Z0.5000
G01 Z-6.0000
G00 Z0.5000
G00 Z-5.5000
G01 Z-12.0000
G00 Z5.0000


;No. 5: Drill 64
G00 X53.9750 Y257.1750 Z5.0000
G00 X104.7750
G00 Z0.5000
G01 Z-6.0000
G00 Z0.5000
G00 Z-5.5000
G01 Z-12.0000
G00 Z5.0000


;No. 6: Drill 69
G00 X104.7750 Y257.1750 Z5.0000
G00 Y307.9750
G00 Z0.5000
G01 Z-6.0000
G00 Z0.5000
G00 Z-5.5000
G01 Z-12.0000
G00 Z5.0000


;No. 7: Drill 70
G00 X104.7750 Y307.9750 Z5.0000
G00 X155.5750
G00 Z0.5000
G01 Z-6.0000
G00 Z0.5000
G00 Z-5.5000
G01 Z-12.0000
G00 Z5.0000


;No. 8: Drill 63
G00 X155.5750 Y307.9750 Z5.0000
G00 Y257.1750
G00 Z0.5000
G01 Z-6.0000
G00 Z0.5000
G00 Z-5.5000
G01 Z-12.0000
G00 Z5.0000


;No. 9: Drill 62
G00 X155.5750 Y257.1750 Z5.0000
G00 X206.3750
G00 Z0.5000
G01 Z-6.0000
G00 Z0.5000
G00 Z-5.5000
G01 Z-12.0000
G00 Z5.0000


;No. 10: Drill 71
G00 X206.3750 Y257.1750 Z5.0000
G00 Y307.9750
G00 Z0.5000
G01 Z-6.0000
G00 Z0.5000
G00 Z-5.5000
G01 Z-12.0000
G00 Z5.0000


;No. 11: Drill 72
G00 X206.3750 Y307.9750 Z5.0000
G00 X257.1750
G00 Z0.5000
G01 Z-6.0000
G00 Z0.5000
G00 Z-5.5000
G01 Z-12.0000
G00 Z5.0000


;No. 12: Drill 61
G00 X257.1750 Y307.9750 Z5.0000
G00 Y257.1750
G00 Z0.5000
G01 Z-6.0000
G00 Z0.5000
G00 Z-5.5000
G01 Z-12.0000
G00 Z5.0000


;No. 13: Drill 60
G00 X257.1750 Y257.1750 Z5.0000
G00 X307.9750
G00 Z0.5000
G01 Z-6.0000
G00 Z0.5000
G00 Z-5.5000
G01 Z-12.0000
G00 Z5.0000


;No. 14: Drill 73
G00 X307.9750 Y257.1750 Z5.0000
G00 Y307.9750
G00 Z0.5000
G01 Z-6.0000
G00 Z0.5000
G00 Z-5.5000
G01 Z-12.0000
G00 Z5.0000


;No. 15: Drill 74
G00 X307.9750 Y307.9750 Z5.0000
G00 X358.7750
G00 Z0.5000
G01 Z-6.0000
G00 Z0.5000
G00 Z-5.5000
G01 Z-12.0000
G00 Z5.0000


;No. 16: Drill 59
G00 X358.7750 Y307.9750 Z5.0000
G00 Y257.1750
G00 Z0.5000
G01 Z-6.0000
G00 Z0.5000
G00 Z-5.5000
G01 Z-12.0000
G00 Z5.0000


;No. 17: Drill 58
G00 X358.7750 Y257.1750 Z5.0000
G00 X409.5750
G00 Z0.5000
G01 Z-6.0000
G00 Z0.5000
G00 Z-5.5000
G01 Z-12.0000
G00 Z5.0000


;No. 18: Drill 75
G00 X409.5750 Y257.1750 Z5.0000
G00 Y307.9750
G00 Z0.5000
G01 Z-6.0000
G00 Z0.5000
G00 Z-5.5000
G01 Z-12.0000
G00 Z5.0000


;No. 19: Drill 76
G00 X409.5750 Y307.9750 Z5.0000
G00 X460.3750
G00 Z0.5000
G01 Z-6.0000
G00 Z0.5000
G00 Z-5.5000
G01 Z-12.0000
G00 Z5.0000


;No. 20: Drill 57
G00 X460.3750 Y307.9750 Z5.0000
G00 Y257.1750
G00 Z0.5000
G01 Z-6.0000
G00 Z0.5000
G00 Z-5.5000
G01 Z-12.0000
G00 Z5.0000


;No. 21: Drill 122
G00 X460.3750 Y257.1750 Z5.0000
G00 Y206.3750
G00 Z0.5000
G01 Z-6.0000
G00 Z0.5000
G00 Z-5.5000
G01 Z-12.0000
G00 Z5.0000


;No. 22: Drill 123
G00 X460.3750 Y206.3750 Z5.0000
G00 X409.5750
G00 Z0.5000
G01 Z-6.0000
G00 Z0.5000
G00 Z-5.5000
G01 Z-12.0000
G00 Z5.0000


;No. 23: Drill 80
G00 X409.5750 Y206.3750 Z5.0000
G00 Y358.7750
G00 Z0.5000
G01 Z-6.0000
G00 Z0.5000
G00 Z-5.5000
G01 Z-12.0000
G00 Z5.0000


;No. 24: Drill 79
G00 X409.5750 Y358.7750 Z5.0000
G00 X460.3750
G00 Z0.5000
G01 Z-6.0000
G00 Z0.5000
G00 Z-5.5000
G01 Z-12.0000
G00 Z5.0000


;No. 25: Drill 98
G00 X460.3750 Y358.7750 Z5.0000
G00 Y409.5750
G00 Z0.5000
G01 Z-6.0000
G00 Z0.5000
G00 Z-5.5000
G01 Z-12.0000
G00 Z5.0000


;No. 26: Drill 97
G00 X460.3750 Y409.5750 Z5.0000
G00 X409.5750
G00 Z0.5000
G01 Z-6.0000
G00 Z0.5000
G00 Z-5.5000
G01 Z-12.0000
G00 Z5.0000


;No. 27: Drill 96
G00 X409.5750 Y409.5750 Z5.0000
G00 X358.7750
G00 Z0.5000
G01 Z-6.0000
G00 Z0.5000
G00 Z-5.5000
G01 Z-12.0000
G00 Z5.0000


;No. 28: Drill 81
G00 X358.7750 Y409.5750 Z5.0000
G00 Y358.7750
G00 Z0.5000
G01 Z-6.0000
G00 Z0.5000
G00 Z-5.5000
G01 Z-12.0000
G00 Z5.0000


;No. 29: Drill 82
G00 X358.7750 Y358.7750 Z5.0000
G00 X307.9750
G00 Z0.5000
G01 Z-6.0000
G00 Z0.5000
G00 Z-5.5000
G01 Z-12.0000
G00 Z5.0000


;No. 30: Drill 83
G00 X307.9750 Y358.7750 Z5.0000
G00 X257.1750
G00 Z0.5000
G01 Z-6.0000
G00 Z0.5000
G00 Z-5.5000
G01 Z-12.0000
G00 Z5.0000


;No. 31: Drill 84
G00 X257.1750 Y358.7750 Z5.0000
G00 X206.3750
G00 Z0.5000
G01 Z-6.0000
G00 Z0.5000
G00 Z-5.5000
G01 Z-12.0000
G00 Z5.0000


;No. 32: Drill 85
G00 X206.3750 Y358.7750 Z5.0000
G00 X155.5750
G00 Z0.5000
G01 Z-6.0000
G00 Z0.5000
G00 Z-5.5000
G01 Z-12.0000
G00 Z5.0000


;No. 33: Drill 86
G00 X155.5750 Y358.7750 Z5.0000
G00 X104.7750
G00 Z0.5000
G01 Z-6.0000
G00 Z0.5000
G00 Z-5.5000
G01 Z-12.0000
G00 Z5.0000


;No. 34: Drill 87
G00 X104.7750 Y358.7750 Z5.0000
G00 X53.9750
G00 Z0.5000
G01 Z-6.0000
G00 Z0.5000
G00 Z-5.5000
G01 Z-12.0000
G00 Z5.0000


;No. 35: Drill 88
G00 X53.9750 Y358.7750 Z5.0000
G00 X3.1750
G00 Z0.5000
G01 Z-6.0000
G00 Z0.5000
G00 Z-5.5000
G01 Z-12.0000
G00 Z5.0000


;No. 36: Drill 89
G00 X3.1750 Y358.7750 Z5.0000
G00 Y409.5750
G00 Z0.5000
G01 Z-6.0000
G00 Z0.5000
G00 Z-5.5000
G01 Z-12.0000
G00 Z5.0000


;No. 37: Drill 90
G00 X3.1750 Y409.5750 Z5.0000
G00 X53.9750
G00 Z0.5000
G01 Z-6.0000
G00 Z0.5000
G00 Z-5.5000
G01 Z-12.0000
G00 Z5.0000


;No. 38: Drill 91
G00 X53.9750 Y409.5750 Z5.0000
G00 X104.7750
G00 Z0.5000
G01 Z-6.0000
G00 Z0.5000
G00 Z-5.5000
G01 Z-12.0000
G00 Z5.0000


;No. 39: Drill 92
G00 X104.7750 Y409.5750 Z5.0000
G00 X155.5750
G00 Z0.5000
G01 Z-6.0000
G00 Z0.5000
G00 Z-5.5000
G01 Z-12.0000
G00 Z5.0000


;No. 40: Drill 93
G00 X155.5750 Y409.5750 Z5.0000
G00 X206.3750
G00 Z0.5000
G01 Z-6.0000
G00 Z0.5000
G00 Z-5.5000
G01 Z-12.0000
G00 Z5.0000


;No. 41: Drill 94
G00 X206.3750 Y409.5750 Z5.0000
G00 X257.1750
G00 Z0.5000
G01 Z-6.0000
G00 Z0.5000
G00 Z-5.5000
G01 Z-12.0000
G00 Z5.0000


;No. 42: Drill 95
G00 X257.1750 Y409.5750 Z5.0000
G00 X307.9750
G00 Z0.5000
G01 Z-6.0000
G00 Z0.5000
G00 Z-5.5000
G01 Z-12.0000
G00 Z5.0000


;No. 43: Drill 104
G00 X307.9750 Y409.5750 Z5.0000
G00 Y460.3750
G00 Z0.5000
G01 Z-6.0000
G00 Z0.5000
G00 Z-5.5000
G01 Z-12.0000
G00 Z5.0000


;No. 44: Drill 105
G00 X307.9750 Y460.3750 Z5.0000
G00 X257.1750
G00 Z0.5000
G01 Z-6.0000
G00 Z0.5000
G00 Z-5.5000
G01 Z-12.0000
G00 Z5.0000


;No. 45: Drill 106
G00 X257.1750 Y460.3750 Z5.0000
G00 X206.3750
G00 Z0.5000
G01 Z-6.0000
G00 Z0.5000
G00 Z-5.5000
G01 Z-12.0000
G00 Z5.0000


;No. 46: Drill 107
G00 X206.3750 Y460.3750 Z5.0000
G00 X155.5750
G00 Z0.5000
G01 Z-6.0000
G00 Z0.5000
G00 Z-5.5000
G01 Z-12.0000
G00 Z5.0000


;No. 47: Drill 108
G00 X155.5750 Y460.3750 Z5.0000
G00 X104.7750
G00 Z0.5000
G01 Z-6.0000
G00 Z0.5000
G00 Z-5.5000
G01 Z-12.0000
G00 Z5.0000


;No. 48: Drill 109
G00 X104.7750 Y460.3750 Z5.0000
G00 X53.9750
G00 Z0.5000
G01 Z-6.0000
G00 Z0.5000
G00 Z-5.5000
G01 Z-12.0000
G00 Z5.0000


;No. 49: Drill 110
G00 X53.9750 Y460.3750 Z5.0000
G00 X3.1750
G00 Z0.5000
G01 Z-6.0000
G00 Z0.5000
G00 Z-5.5000
G01 Z-12.0000
G00 Z5.0000


;No. 50: Drill 103
G00 X3.1750 Y460.3750 Z5.0000
G00 X358.7750
G00 Z0.5000
G01 Z-6.0000
G00 Z0.5000
G00 Z-5.5000
G01 Z-12.0000
G00 Z5.0000


;No. 51: Drill 102
G00 X358.7750 Y460.3750 Z5.0000
G00 X409.5750
G00 Z0.5000
G01 Z-6.0000
G00 Z0.5000
G00 Z-5.5000
G01 Z-12.0000
G00 Z5.0000


;No. 52: Drill 101
G00 X409.5750 Y460.3750 Z5.0000
G00 X460.3750
G00 Z0.5000
G01 Z-6.0000
G00 Z0.5000
G00 Z-5.5000
G01 Z-12.0000
G00 Z5.0000
G00 X0.0000 Y0.0000

M05
