;Project Design34
;Created by Estlcam version 8 build 8.065
;Machining time about 12:02:05 AM hours

G90
M03 S24000
G00 Z5.0000


;No. 1: Engraving 2
G00 X10.2891 Y63.4089
G00 Z0.5000
G01 Z-1.0000 F60 S24000
G01 X12.0706 Y55.2176 F1800
G01 X14.4400 Y49.0200
G01 X16.1600 Y44.9800
G01 X21.2492 Y36.4410
G01 X24.9508 Y31.9590
G01 X26.8000 Y29.6000
G01 X34.8434 Y22.2496
G01 X37.6308 Y20.4462
G01 X42.6308 Y17.2462
G01 X50.0200 Y14.0400
G01 X52.9824 Y12.9294
G01 X60.8135 Y10.6811
G01 X69.8000 Y9.6000
G01 X69.4400 Y10.6200
G01 X62.2400 Y23.4200
G01 X60.6706 Y27.6176
G01 X59.6000 Y31.4000
G01 X59.8000 Y36.8000
G01 X59.4000 Y37.2000
G01 X57.0200 Y38.0600
G01 X53.8308 Y39.4462
G01 X52.1800 Y40.3600
G01 X49.2434 Y42.4496
G01 X47.6000 Y43.8000
G01 X44.7512 Y46.9610
G01 X44.0488 Y47.8390
G01 X42.9600 Y49.9800
G01 X41.8878 Y52.8098
G01 X41.7122 Y54.3902
G01 X41.6000 Y58.2000
G01 X43.0000 Y65.0000
G01 X42.2600 Y66.8200
G01 X41.4400 Y69.4200
G01 X40.4000 Y71.6000
G01 X40.0000 Y72.0000
G01 X38.5918 Y72.5098
G01 X36.6082 Y72.6902
G01 X34.2200 Y73.6400
G01 X32.3800 Y74.5600
G01 X30.6360 Y75.6480
G01 X29.1640 Y76.7520
G01 X27.3504 Y78.5566
G01 X25.3520 Y80.9640
G01 X22.8400 Y84.6200
G01 X20.2400 Y89.8200
G01 X15.8000 Y98.6000
G01 X15.4000 Y99.0000
G01 X13.0400 Y92.9800
G01 X11.9294 Y89.6176
G01 X11.3231 Y86.8154
G01 X10.2891 Y82.1911
G01 X10.1109 Y80.4089
G01 X9.6000 Y71.4000
G01 X10.2891 Y63.4089
G00 Z5.0000


;No. 2: Engraving 17
G00 X10.2891 Y63.4089 Z5.0000
G00 X33.2000 Y86.2000
G00 Z0.5000
G01 Z-1.0000 F60
G01 X35.5610 Y83.9512 F1800
G01 X36.4390 Y83.2488
G01 X38.4200 Y82.2400
G01 X39.2000 Y81.8000
G01 X40.7400 Y88.2200
G01 X42.2000 Y92.4000
G01 X38.5800 Y94.5400
G01 X38.2200 Y94.6600
G01 X38.0000 Y94.8000
G01 X36.4000
G01 X34.8108 Y94.5138
G01 X34.0200 Y94.1600
G01 X33.6000 Y94.0000
G01 X32.9600 Y93.2200
G01 X32.2000 Y91.2000
G01 Y88.6000
G01 X33.0400 Y86.6200
G01 X33.2000 Y86.2000
G00 Z5.0000


;No. 3: Engraving 5
G00 X33.2000 Y86.2000 Z5.0000
G00 X41.4000 Y81.2000
G00 Z0.5000
G01 Z-1.0000 F60
G01 Y77.2000 F1800
G01 X41.6902 Y75.0082
G01 X42.2706 Y72.2176
G01 X43.2600 Y69.4200
G01 X44.6000 Y66.8000
G01 X48.8000 Y70.8000
G01 X47.6910 Y75.4076
G01 X47.5090 Y77.5924
G01 X47.4000 Y81.4000
G02 X48.2000 Y86.8000 I54.8613 J-5.3683
G01 X43.8000 Y91.2000
G01 X43.4706 Y90.3824
G01 X42.7400 Y88.2200
G01 X41.9231 Y85.4154
G01 X41.4000 Y81.2000
G00 Z5.0000


;No. 4: Engraving 7
G00 X41.4000 Y81.2000 Z5.0000
G00 X61.0498 Y84.5548
G00 Z0.5000
G01 Z-1.0000 F60
G01 X65.0000 Y88.8000 F1800
G02 X72.0000 Y92.4000 I43.0795 J-75.1602
G01 X72.4000 Y92.8000
G01 X71.3400 Y95.9800
G01 X71.2400 Y96.2200
G01 X70.0000 Y97.8000
G01 X69.6000 Y97.9000
G01 X62.8308 Y94.3538
G01 X62.3692 Y94.0462
G01 X60.4000 Y92.8000
G01 X58.8000 Y91.2000
G01 X54.9538 Y86.0308
G01 X54.6462 Y85.5692
G01 X53.4000 Y83.8000
G01 X51.0360 Y81.5520
G01 X49.6000 Y80.4000
G01 X49.4000 Y80.0000
G01 X49.5138 Y77.5892
G01 X50.0600 Y74.2200
G01 X50.2000 Y74.0000
G01 X50.4200 Y74.1600
G01 X53.7566 Y76.2496
G01 X55.2434 Y77.5504
G01 X56.8480 Y79.1640
G01 X57.9520 Y80.6360
G01 X61.0498 Y84.5548
G00 Z5.0000


;No. 5: Engraving 6
G00 X61.0498 Y84.5548 Z5.0000
G00 X63.7892 Y101.0862
G00 Z0.5000
G01 Z-1.0000 F60
G01 X64.0000 Y101.2000 F1800
G01 X67.8000
G01 X69.7800 Y100.3600
G01 X71.0390 Y99.4488
G01 X72.4488 Y98.0390
G01 X73.2400 Y97.0200
G01 X74.1294 Y94.9824
G01 X74.2706 Y94.4176
G01 X74.4000 Y94.2000
G01 Y91.6000
G01 X73.9231 Y89.6154
G01 X72.6000 Y86.8000
G01 X70.1800 Y85.0400
G01 X69.4200 Y84.7400
G01 X67.5902 Y84.0878
G01 X64.4000 Y83.8000
G01 X63.6000 Y84.2000
G01 X63.2000 Y84.0000
G01 X59.8000 Y79.4000
G01 X60.1800 Y79.1600
G01 X60.8200 Y78.8400
G01 X63.4120 Y78.0840
G01 X66.8000 Y77.8000
G01 X70.0176 Y78.5294
G01 X73.5800 Y80.0400
G01 X73.8200 Y80.1600
G01 X77.2000 Y83.0000
G01 X77.7538 Y84.0308
G01 X78.7600 Y85.8200
G01 X80.0600 Y89.7800
G01 X80.4000 Y91.8000
G01 X80.2862 Y94.0108
G01 X79.9231 Y96.3846
G01 X78.3538 Y99.9692
G01 X76.0000 Y103.2000
G01 X72.5800 Y105.5600
G01 X70.9800 Y106.3600
G01 X66.2000 Y107.2000
G01 X64.6000
G01 X60.8135 Y106.5189
G01 X57.0200 Y105.3600
G01 X55.1692 Y104.2462
G01 X50.6000 Y100.8000
G01 X49.8000 Y100.0000
G01 X52.8000 Y96.6000
G01 X53.6000 Y95.8000
G01 X55.8360 Y97.5520
G01 X58.2200 Y99.1600
G01 X60.5800 Y100.2400
G01 X62.4108 Y100.9138
G01 X63.7892 Y101.0862
G00 Z5.0000


;No. 6: Engraving 8
G00 X63.7892 Y101.0862 Z5.0000
G00 X81.4706 Y98.0176
G00 Z0.5000
G01 Z-1.0000 F60
G01 X82.6000 Y92.8000 F1800
G01 X84.5824 Y92.3294
G01 X88.4200 Y90.8400
G01 X89.6200 Y90.2400
G01 X92.6360 Y88.2480
G01 X95.9462 Y85.6274
G01 X96.8000 Y85.4000
G01 X101.2176 Y86.5294
G01 X101.8000 Y86.6000
G01 X102.2000 Y87.0000
G01 X101.8400 Y87.8200
G01 X97.4000 Y92.4000
G01 X92.5800 Y95.5600
G01 X87.5824 Y97.7294
G01 X81.4000 Y99.2000
G01 X81.2500 Y99.1500
G01 X81.4706 Y98.0176
G00 Z5.0000


;No. 7: Engraving 16
G00 X81.4706 Y98.0176 Z5.0000
G00 X82.4000 Y89.8000
G00 Z0.5000
G01 Z-1.0000 F60
G01 X80.8400 Y85.7800 F1800
G01 X78.0000 Y81.2000
G01 X75.7576 Y79.2494
G01 X73.8200 Y77.9600
G01 X73.4200 Y77.7600
G01 X71.4176 Y76.9294
G01 X67.8000 Y76.0000
G01 X63.4000
G01 X59.6200 Y76.8600
G01 X58.2000 Y77.4000
G01 X56.7610 Y76.2488
G01 X52.6308 Y73.3538
G01 X51.8000 Y72.8000
G01 X52.0000 Y72.6000
G01 X52.7846 Y72.6769
G01 X55.4000 Y73.2000
G01 X59.2000
G01 X60.6154 Y72.8769
G01 X63.5800 Y72.1400
G01 X65.5800 Y71.3600
G01 X66.9640 Y70.5520
G01 X69.0000 Y69.0000
G01 X71.8000 Y66.2000
G01 X72.2462 Y65.2308
G01 X72.5538 Y64.7692
G01 X73.4600 Y62.8200
G01 X73.5400 Y62.5800
G01 X74.7294 Y58.3824
G01 X74.8000 Y57.8000
G01 X78.0200 Y56.2600
G01 X81.2000 Y55.0000
G01 X81.4000 Y55.2000
G01 X79.8492 Y57.0410
G01 X78.6462 Y58.8308
G01 X77.4706 Y61.0176
G01 X77.0600 Y62.4200
G01 X76.4000 Y66.0000
G01 Y69.6000
G01 X76.6891 Y71.5911
G01 X77.6400 Y74.1800
G01 X79.1600 Y77.0200
G01 X80.8000 Y79.2000
G01 X83.4000 Y81.6000
G01 X82.6891 Y87.8089
G01 X82.4000 Y89.8000
G01 Y90.6000
G00 Z5.0000


;No. 8: Engraving 18
G00 X82.4000 Y90.6000 Z5.0000
G00 X100.0434 Y92.4496
G00 Z0.5000
G01 Z-1.0000 F60
G01 X102.8000 Y89.8000 F1800
G03 X104.4000 Y87.6000 I17.8312 J11.2863
G01 X104.6000
G01 X106.1590 Y88.6492
G01 X108.2000 Y90.4000
G01 X110.0000 Y93.0000
G01 Y94.4000
G01 X109.3600 Y95.5800
G01 X108.8000 Y96.4000
G01 X106.6200 Y97.8400
G01 X104.8000 Y98.4000
G01 X103.2000
G01 X101.6108 Y98.1138
G01 X99.9800 Y97.6400
G01 X99.1800 Y97.2400
G01 X97.0000 Y96.0000
G01 X96.6000 Y95.6000
G01 X100.0434 Y92.4496
G00 Z5.0000


;No. 9: Engraving 9
G00 X100.0434 Y92.4496 Z5.0000
G00 X100.4082 Y99.9098
G00 Z0.5000
G01 Z-1.0000 F60
G01 X102.6000 Y100.2000 F1800
G01 X105.2000
G01 X106.5880 Y99.9160
G01 X108.1692 Y99.3538
G01 X109.4000 Y98.6000
G01 X109.8480 Y98.0360
G01 X110.4462 Y97.2308
G01 X111.5189 Y95.1865
G01 X111.6811 Y94.2135
G01 X111.8000 Y92.8000
G01 X111.4400 Y91.7800
G01 X110.2000 Y89.6000
G01 X109.4000 Y88.8000
G01 X106.9692 Y87.0462
G01 X104.5800 Y85.6600
G01 X104.2200 Y85.5400
G01 X94.0000 Y82.8000
G01 X93.6000 Y82.4000
G01 X96.2000 Y77.0000
G01 X96.6000
G01 X107.4176 Y79.5294
G01 X109.4200 Y80.3600
G01 X110.6200 Y80.9600
G01 X114.0000 Y83.2000
G01 X115.0000 Y84.2000
G01 X117.9538 Y87.8308
G01 X126.0480 Y101.1640
G01 X127.1520 Y102.6360
G01 X129.8000 Y105.8000
G01 X129.6000 Y106.0000
G01 X128.0000
G01 X127.8000 Y105.8000
G01 X118.5948 Y105.9058
G01 X115.2052 Y106.0942
G01 X111.6000 Y106.4000
G01 X103.8000
G01 X102.2108 Y106.1138
G01 X99.5846 Y105.6769
G01 X97.8200 Y105.1600
G01 X96.3800 Y104.6400
G01 X93.0360 Y102.9520
G01 X92.3640 Y102.4480
G01 X89.2000 Y99.6000
G01 X89.4000 Y99.2000
G01 X94.6000 Y96.8000
G01 X96.1800 Y97.8400
G01 X100.4082 Y99.9098
G00 Z5.0000


;No. 10: Engraving 10
G00 X100.4082 Y99.9098 Z5.0000
G00 X95.8950 Y65.7955
G00 Z0.5000
G01 Z-1.0000 F60
G01 X96.0000 Y70.2000 F1800
G01 X95.7189 Y71.3865
G01 X95.0400 Y74.0200
G01 X91.3600 Y83.1800
G01 X89.6000 Y88.2000
G01 X89.4200 Y88.2400
G01 X84.6000 Y90.2000
G01 X84.4000 Y90.0000
G01 Y87.8000
G01 X84.8706 Y84.4176
G01 X86.0400 Y80.2200
G01 X86.8400 Y78.4200
G01 X88.7294 Y73.9824
G01 X89.0600 Y72.8200
G01 X89.7189 Y70.1865
G01 X90.0811 Y68.0135
G01 X90.2000 Y67.8000
G01 X90.0000 Y61.4000
G01 X90.2000 Y61.2000
G01 X92.4154 Y60.6769
G01 X94.2000 Y60.4000
G01 X94.4200 Y60.5400
G01 X94.8000 Y60.6000
G01 X95.6000 Y61.4000
G01 X95.7050 Y61.8045
G01 X95.8950 Y65.7955
G00 Z5.0000


;No. 11: Engraving 11
G00 X95.8950 Y65.7955 Z5.0000
G00 X99.0000 Y61.0000
G00 Z0.5000
G01 Z-1.0000 F60
G01 X96.7800 Y59.6400 F1800
G01 X96.6200 Y59.5600
G01 X94.2000 Y58.6000
G01 X91.4000
G01 X88.9800 Y59.3600
G01 X88.5800 Y59.5600
G01 X88.0000 Y59.8000
G01 X86.2000 Y61.6000
G01 X84.9400 Y63.9800
G01 X84.7400 Y64.5800
G01 X84.2000 Y67.0000
G01 Y68.6000
G01 X85.2400 Y71.3800
G01 X85.3600 Y71.6200
G01 X86.6000 Y73.8000
G01 X85.9600 Y75.1800
G01 X84.2000 Y79.2000
G01 X84.0000
G01 X81.2000 Y76.6000
G01 X80.2492 Y75.3590
G01 X79.2600 Y73.1800
G01 X79.0400 Y72.5800
G01 X78.2000 Y69.4000
G01 Y65.6000
G01 X79.0706 Y62.4176
G01 X80.1600 Y59.9800
G01 X82.0000 Y57.4000
G01 X85.2360 Y54.8480
G01 X88.6176 Y53.2706
G01 X91.0047 Y52.6948
G01 X94.8000 Y52.6000
G01 X96.4154 Y52.9231
G01 X98.1800 Y53.4400
G01 X99.3800 Y53.8600
G01 X101.3692 Y55.0462
G01 X101.8308 Y55.3538
G01 X103.2000 Y56.6000
G01 X105.3520 Y59.4360
G01 X105.7538 Y60.0308
G03 X107.5231 Y64.4154 I-26.8686 J13.3910
G01 X107.6769 Y65.1846
G01 X108.4000 Y69.8000
G01 Y72.2000
G01 X107.4000 Y77.2000
G01 X107.3500 Y77.3500
G01 X105.0154 Y76.9231
G01 X103.9846 Y76.6769
G01 X101.8000 Y76.2000
G01 X101.6000 Y76.0000
G03 X102.4000 Y71.6000 I55.4463 J7.8084
G01 Y69.6000
G01 X102.1098 Y67.4082
G01 X101.2400 Y64.3800
G01 X99.8000 Y61.8000
G01 X99.0000 Y61.0000
G00 Z5.0000


;No. 12: Engraving 12
G00 X99.0000 Y61.0000 Z5.0000
G00 X82.9800 Y42.6400
G00 Z0.5000
G01 Z-1.0000 F60
G01 X86.6360 Y45.3520 F1800
G01 X88.0497 Y46.7559
G01 X90.7506 Y49.8424
G01 X91.2000 Y50.6000
G01 X90.3824 Y50.9294
G01 X89.8176 Y51.0706
G01 X85.4000 Y52.4000
G01 X81.4360 Y48.7520
G01 X77.8200 Y46.5600
G01 X76.8200 Y46.1400
G01 X72.4000 Y44.6000
G01 X71.7600 Y43.2200
G01 X70.8706 Y40.5824
G01 X70.6769 Y39.7846
G01 X70.4000 Y38.4000
G01 X70.6000 Y38.2000
G01 X71.0000
G01 X78.8200 Y40.3400
G01 X79.1800 Y40.4600
G01 X82.9800 Y42.6400
G00 Z5.0000


;No. 13: Engraving 13
G00 X82.9800 Y42.6400 Z5.0000
G00 X88.4600 Y32.1800
G00 Z0.5000
G01 Z-1.0000 F60
G01 X89.0000 Y35.2000 F1800
G01 Y37.6000
G01 X88.4811 Y40.6135
G01 X88.0000 Y43.2000
G01 X87.8000 Y43.4000
G01 X86.7692 Y42.8462
G01 X85.2308 Y41.7538
G01 X83.2000 Y40.4000
G01 X82.7098 Y34.8082
G01 X82.1294 Y32.8176
G01 X80.4000 Y29.0000
G01 X78.2200 Y26.9600
G01 X76.7880 Y26.2840
G01 X75.6120 Y26.1160
G01 X74.0000 Y26.0000
G01 X71.4000 Y26.8000
G01 X70.7520 Y27.5640
G01 X70.1538 Y28.3692
G01 X68.4706 Y31.2176
G01 X68.3294 Y31.7824
G01 X68.2000 Y32.0000
G01 Y37.6000
G01 X69.3294 Y42.0176
G01 X70.6000 Y48.2000
G01 X70.4000 Y48.4000
G01 X65.2000 Y48.8000
G01 X64.8000 Y48.4000
G01 X64.2600 Y46.5800
G01 X61.6811 Y38.3865
G01 X61.2000 Y36.0000
G01 X61.3109 Y33.7911
G01 X61.6811 Y30.8135
G01 X63.0600 Y25.6200
G01 X63.9600 Y23.7800
G01 X72.6600 Y7.8200
G01 X73.8000 Y5.4000
G01 X75.5600 Y8.8200
G01 X83.2462 Y21.3692
G01 X83.9538 Y22.4308
G01 X85.5600 Y25.2200
G01 X85.7600 Y25.6200
G01 X88.3400 Y31.8200
G01 X88.4600 Y32.1800
G00 Z5.0000


;No. 14: Engraving 19
G00 X88.4600 Y32.1800 Z5.0000
G00 X78.4480 Y29.9640
G00 Z0.5000
G01 Z-1.0000 F60
G01 X79.2400 Y31.1800 F1800
G01 X80.3189 Y33.6135
G01 X80.5138 Y34.8108
G01 X81.0000 Y39.0000
G01 X80.8000 Y39.2000
G01 X80.2200 Y38.9400
G01 X74.1865 Y37.0811
G01 X72.9865 Y36.8811
G01 X70.4000 Y36.4000
G01 X70.2000 Y36.2000
G01 Y32.2000
G01 X71.6000 Y29.2000
G01 X72.0000 Y28.8000
G01 X73.4076 Y28.0910
G01 X75.6000 Y28.0000
G01 X77.0000 Y28.4000
G01 X78.4480 Y29.9640
G00 Z5.0000


;No. 15: Engraving 14
G00 X78.4480 Y29.9640 Z5.0000
G00 X67.2108 Y50.6862
G00 Z0.5000
G01 Z-1.0000 F60
G01 X70.1892 Y50.3138 F1800
G01 X72.8200 Y49.8600
G01 X77.0000 Y48.4000
G01 X77.3800 Y48.6400
G01 X81.6000 Y51.6000
G01 X82.0000 Y52.0000
G01 X80.5692 Y52.9538
G01 X77.7800 Y54.3400
G01 X77.4200 Y54.4600
G01 X72.3865 Y55.9189
G01 X64.3846 Y57.3231
G01 X62.6200 Y57.8400
G01 X58.5800 Y59.3600
G01 X57.0390 Y60.2488
G01 X54.4000 Y62.6000
G01 X52.0000 Y60.2000
G01 X51.2000 Y58.6000
G01 X51.4000 Y57.8000
G01 X52.4000 Y56.8000
G01 X53.8308 Y55.8462
G01 X57.9800 Y53.1600
G01 X60.8176 Y51.8706
G01 X62.1824 Y51.5294
G01 X67.2108 Y50.6862
G00 Z5.0000


;No. 16: Engraving 15
G00 X67.2108 Y50.6862 Z5.0000
G00 X63.4000 Y63.8000
G00 Z0.5000
G01 Z-1.0000 F60
G01 X64.2000 Y63.0000 F1800
G01 X65.3600 Y61.3800
G01 X67.0000 Y58.4000
G01 X72.4000 Y58.0000
G01 X72.6000 Y58.2000
G01 X71.4600 Y62.2200
G01 X71.3400 Y62.5800
G01 X70.5538 Y63.9692
G01 X69.8462 Y65.0308
G01 X69.4000 Y65.8000
G01 X66.3566 Y68.5504
G01 X63.2200 Y70.4400
G01 X59.0000 Y71.4000
G01 X55.4000
G01 X52.8176 Y70.7294
G01 X52.4200 Y70.5600
G01 X49.7692 Y69.2462
G01 X48.5590 Y68.2492
G01 X46.8000 Y66.6000
G01 X45.6494 Y65.1576
G01 X44.6400 Y63.1800
G01 X44.4600 Y62.7800
G01 X43.4862 Y58.9892
G01 X43.3138 Y57.6108
G01 X43.2000 Y56.0000
G01 X43.8600 Y52.8200
G01 X44.0600 Y52.2200
G01 X45.0462 Y49.8308
G01 X45.3538 Y49.3692
G01 X46.6000 Y47.2000
G01 X48.4000 Y45.4000
G01 X51.0308 Y43.2462
G01 X53.6308 Y41.4462
G01 X57.2200 Y39.8400
G01 X59.6000 Y39.0000
G01 X61.2000 Y43.2000
G01 Y43.8000
G01 X60.8000 Y44.8000
G01 X56.8200 Y46.2600
G01 X55.4308 Y47.0462
G01 X54.9692 Y47.3538
G01 X53.8000 Y48.0000
G01 X51.0000 Y50.8000
G01 X49.2000 Y54.6000
G01 Y57.2000
G01 X49.6769 Y59.5846
G01 X49.7600 Y59.8200
G01 X50.6000 Y61.6000
G01 X52.8000 Y63.8000
G01 X55.6135 Y65.1189
G01 X56.5865 Y65.2811
G01 X58.6000 Y65.4000
G01 X60.7824 Y64.9294
G01 X62.6200 Y64.2400
G01 X63.4000 Y63.8000
G00 Z5.0000


;No. 17: Engraving 4
G00 X63.4000 Y63.8000 Z5.0000
G00 X19.5600 Y94.9800
G00 Z0.5000
G01 Z-1.0000 F60
G01 X24.6462 Y85.2308 F1800
G01 X25.9538 Y83.3692
G01 X28.8000 Y79.4000
G01 X30.2000 Y78.0000
G01 X32.0360 Y76.6480
G01 X34.5800 Y75.3600
G01 X37.8135 Y74.0811
G01 X39.8000 Y73.8000
G01 X39.2000 Y79.6000
G01 X36.4390 Y81.0488
G01 X32.0000 Y84.8000
G01 X30.8400 Y87.2200
G01 X30.5400 Y87.9800
G01 X30.2000 Y89.0000
G01 Y91.4000
G01 X30.4706 Y92.1824
G01 X31.6000 Y94.8000
G01 X32.2000 Y95.4000
G01 X34.0000 Y96.4000
G01 X38.2000
G01 X40.5800 Y95.5400
G01 X43.2200 Y94.2400
G01 X44.3513 Y93.5500
G01 X52.2000 Y85.8000
G01 X54.2462 Y88.9692
G01 X55.2800 Y90.7600
G01 X54.4000 Y92.2000
G01 X46.8360 Y99.6480
G01 X45.5692 Y100.5538
G01 X42.6200 Y102.2400
G01 X39.4200 Y103.2600
G01 X35.5964 Y104.1038
G01 X21.6022 Y104.4977
G01 X15.2108 Y104.8862
G01 X15.0000 Y105.0000
G01 X14.0000
G01 X13.8000 Y104.8000
G01 X18.5600 Y96.9800
G01 X19.5600 Y94.9800
G00 Z5.0000


;No. 18: Engraving 1
G00 X19.5600 Y94.9800 Z5.0000
G00 X31.0000 Y120.4000
G00 Z0.5000
G01 Z-1.0000 F60
G01 X24.2497 Y113.1552 F1800
G01 X20.4480 Y107.9640
G01 X19.4000 Y106.4000
G01 X19.6000 Y106.2000
G01 X33.3986 Y106.1014
G01 X37.1865 Y105.5189
G01 X41.7800 Y104.3600
G01 X43.3800 Y103.7400
G01 X45.5692 Y102.5538
G01 X47.4200 Y101.4400
G01 X48.0200 Y101.3600
G01 X48.1800 Y101.4400
G01 X50.5610 Y103.2488
G01 X51.4390 Y103.9512
G01 X54.6308 Y105.9538
G01 X57.8200 Y107.3400
G01 X58.4200 Y107.5600
G01 X62.2089 Y108.5109
G01 X63.9911 Y108.6891
G01 X66.6000 Y108.8000
G01 X70.5800 Y107.9400
G01 X71.6200 Y107.6600
G01 X75.2000 Y106.0000
G01 X80.2000 Y100.8000
G01 X85.6176 Y100.0706
G01 X86.8000 Y99.8000
G01 X87.0000 Y100.2000
G01 X88.9559 Y102.0497
G01 X90.6441 Y103.5503
G01 X93.4308 Y105.3538
G01 X96.6200 Y106.5400
G01 X96.9800 Y106.6600
G01 X102.4120 Y107.9160
G01 X103.5880 Y108.0840
G01 X103.8000 Y108.2000
G01 X112.2000
G01 X120.8000 Y107.6000
G01 X125.2000
G01 X125.4000 Y107.8000
G01 X125.1520 Y108.1640
G01 X122.6488 Y111.4390
G01 X120.8000 Y114.0000
G01 X113.6000 Y121.2000
G01 X107.0308 Y126.0462
G01 X98.3800 Y130.5400
G01 X97.0200 Y131.0600
G01 X89.5846 Y133.7231
G01 X86.8154 Y134.2769
G01 X81.7911 Y135.3109
G01 X74.2000 Y136.0000
G01 X71.1938 Y135.8929
G01 X63.6089 Y135.3109
G03 X53.9800 Y133.0400 I28.9277 J-144.2073
G01 X53.5800 Y132.8600
G01 X45.8200 Y129.9600
G01 X42.3800 Y128.0400
G01 X37.5640 Y125.2480
G01 X31.9640 Y121.0480
G01 X31.0000 Y120.4000
G00 Z5.0000


;No. 19: Engraving 3
G00 X31.0000 Y120.4000 Z5.0000
G00 X131.0600 Y48.5800
G00 Z0.5000
G01 Z-1.0000 F60
G01 X133.5294 Y55.6176 F1800
G01 X135.2706 Y63.3824
G01 X135.6929 Y68.3938
G01 X135.8924 Y71.1934
G01 X136.0000 Y74.6000
G01 X135.7055 Y78.3950
G01 X135.0769 Y83.2154
G01 X134.3231 Y87.1846
G01 X132.3400 Y93.9800
G01 X132.1294 Y94.7824
G01 X129.0000 Y101.6000
G01 X128.8000 Y101.8000
G01 X127.9538 Y100.8308
G01 X118.6480 Y85.9640
G01 X118.0000 Y85.0000
G01 X115.2000 Y82.2000
G01 X110.9692 Y79.2462
G01 X109.2000 Y78.2000
G01 X110.0000 Y71.0000
G01 Y68.4000
G01 X109.3231 Y64.4154
G01 X109.2600 Y64.1800
G01 X107.9600 Y60.6200
G01 X106.9600 Y58.8200
G01 X104.8000 Y55.8000
G01 X103.8000 Y54.8000
G01 X101.1640 Y52.8480
G01 X101.0200 Y52.7600
G01 X99.1824 Y52.0706
G01 X94.5824 Y50.8706
G01 X93.6000 Y50.6000
G01 X89.2000 Y45.0000
G01 X89.3400 Y44.5800
G01 X90.6706 Y39.6176
G01 X90.8000 Y39.4000
G01 Y37.0000
G01 X90.5076 Y34.2066
G01 X89.5294 Y30.2176
G01 X87.4400 Y24.9800
G01 X86.3600 Y22.8200
G01 X79.2462 Y11.9692
G01 X78.0000 Y10.0000
G01 X78.4000 Y9.8000
G01 X86.0154 Y10.9231
G01 X92.6200 Y12.9400
G01 X95.8200 Y13.9600
G01 X104.8308 Y18.3538
G01 X111.7548 Y23.0498
G01 X119.6000 Y30.4000
G01 X123.1508 Y34.8410
G01 X124.9508 Y37.0410
G01 X129.4400 Y44.7800
G01 X130.9400 Y48.2200
G01 X131.0600 Y48.5800
G00 Z5.0000
G00 X0.0000 Y0.0000

M05
