;Project loidolt@gmail
;Created by Estlcam version 8 build 8.065
;Machining time about 12:03:25 AM hours

G90
M03 S24000
G00 Z5.0000


;No. 1: Engraving 18
G00 X45.9756 Y52.8444
G00 Z0.5000
G01 Z-1.0000 F60 S24000
G03 X44.1822 Y35.3371 I-1.7934 J-8.6618 F1800
G03 X45.9756 Y52.8444 I0.0001 J8.8455
G01 Z-2.0000 F60
G03 X44.1822 Y35.3371 I-1.7934 J-8.6618 F1800
G03 X45.9756 Y52.8444 I0.0001 J8.8455
G01 Z-3.0000 F60
G03 X44.1822 Y35.3371 I-1.7934 J-8.6618 F1800
G03 X45.9756 Y52.8444 I0.0001 J8.8455
G01 Z-4.0000 F60
G03 X44.1822 Y35.3371 I-1.7934 J-8.6618 F1800
G03 X45.9756 Y52.8444 I0.0001 J8.8455
G01 Z-5.0000 F60
G03 X44.1822 Y35.3371 I-1.7934 J-8.6618 F1800
G03 X45.9756 Y52.8444 I0.0001 J8.8455
G01 Z-6.0000 F60
G03 X44.1822 Y35.3371 I-1.7934 J-8.6618 F1800
G03 X45.9756 Y52.8444 I0.0001 J8.8455
G00 Z5.0000


;No. 2: Engraving 17
G00 X45.9756 Y52.8444 Z5.0000
G00 X43.6270 Y61.8423
G00 Z0.5000
G01 Z-1.0000 F60
G02 X61.8487 Y44.4599 I0.5728 J-17.6415 F1800
G02 X44.1822 Y26.5136 I-17.6480 J-0.2958
G02 X26.5157 Y43.9046 I-0.0188 J17.6495
G02 X43.6270 Y61.8423 I17.6474 J0.2959
G01 Z-2.0000 F60
G02 X61.8487 Y44.4599 I0.5728 J-17.6415 F1800
G02 X44.1822 Y26.5136 I-17.6480 J-0.2958
G02 X26.5157 Y43.9046 I-0.0188 J17.6495
G02 X43.6270 Y61.8423 I17.6474 J0.2959
G01 Z-3.0000 F60
G02 X61.8487 Y44.4599 I0.5728 J-17.6415 F1800
G02 X44.1822 Y26.5136 I-17.6480 J-0.2958
G02 X26.5157 Y43.9046 I-0.0188 J17.6495
G02 X43.6270 Y61.8423 I17.6474 J0.2959
G01 Z-4.0000 F60
G02 X61.8487 Y44.4599 I0.5728 J-17.6415 F1800
G02 X44.1822 Y26.5136 I-17.6480 J-0.2958
G02 X26.5157 Y43.9046 I-0.0188 J17.6495
G02 X43.6270 Y61.8423 I17.6474 J0.2959
G01 Z-5.0000 F60
G02 X61.8487 Y44.4599 I0.5728 J-17.6415 F1800
G02 X44.1822 Y26.5136 I-17.6480 J-0.2958
G02 X26.5157 Y43.9046 I-0.0188 J17.6495
G02 X43.6270 Y61.8423 I17.6474 J0.2959
G01 Z-6.0000 F60
G02 X61.8487 Y44.4599 I0.5728 J-17.6415 F1800
G02 X44.1822 Y26.5136 I-17.6480 J-0.2958
G02 X26.5157 Y43.9046 I-0.0188 J17.6495
G02 X43.6270 Y61.8423 I17.6474 J0.2959
G00 Z5.0000


;No. 3: Engraving 16
G00 X43.6270 Y61.8423 Z5.0000
G00 X41.2720 Y70.5381
G00 Z0.5000
G01 Z-1.0000 F60
G03 X17.7199 Y42.5171 I2.9062 J-26.3511 F1800
G03 X44.1822 Y17.6687 I26.4557 J1.6593
G03 X70.6444 Y45.8474 I0.0060 J26.5089
G03 X41.2720 Y70.5381 I-26.4595 J-1.6603
G01 Z-2.0000 F60
G03 X17.7199 Y42.5171 I2.9062 J-26.3511 F1800
G03 X44.1822 Y17.6687 I26.4557 J1.6593
G03 X70.6444 Y45.8474 I0.0060 J26.5089
G03 X41.2720 Y70.5381 I-26.4595 J-1.6603
G01 Z-3.0000 F60
G03 X17.7199 Y42.5171 I2.9062 J-26.3511 F1800
G03 X44.1822 Y17.6687 I26.4557 J1.6593
G03 X70.6444 Y45.8474 I0.0060 J26.5089
G03 X41.2720 Y70.5381 I-26.4595 J-1.6603
G01 Z-4.0000 F60
G03 X17.7199 Y42.5171 I2.9062 J-26.3511 F1800
G03 X44.1822 Y17.6687 I26.4557 J1.6593
G03 X70.6444 Y45.8474 I0.0060 J26.5089
G03 X41.2720 Y70.5381 I-26.4595 J-1.6603
G01 Z-5.0000 F60
G03 X17.7199 Y42.5171 I2.9062 J-26.3511 F1800
G03 X44.1822 Y17.6687 I26.4557 J1.6593
G03 X70.6444 Y45.8474 I0.0060 J26.5089
G03 X41.2720 Y70.5381 I-26.4595 J-1.6603
G01 Z-6.0000 F60
G03 X17.7199 Y42.5171 I2.9062 J-26.3511 F1800
G03 X44.1822 Y17.6687 I26.4557 J1.6593
G03 X70.6444 Y45.8474 I0.0060 J26.5089
G03 X41.2720 Y70.5381 I-26.4595 J-1.6603
G00 Z5.0000


;No. 4: Engraving 15
G00 X41.2720 Y70.5381 Z5.0000
G00 X38.1036 Y79.0007
G00 Z0.5000
G01 Z-1.0000 F60
G02 X52.4360 Y78.5540 I6.0741 J-35.2659 F1800
G02 X65.4095 Y72.4538 I-8.1646 J-34.2092
G02 X79.3654 Y47.5092 I-21.1496 J-28.2090
G02 X44.1822 Y8.8451 I-35.1500 J-3.3544
G02 X8.9989 Y40.8553 I-0.0378 J35.2989
G02 X38.1036 Y79.0007 I35.1532 J3.3543
G01 Z-2.0000 F60
G02 X52.4360 Y78.5540 I6.0741 J-35.2659 F1800
G02 X65.4095 Y72.4538 I-8.1646 J-34.2092
G02 X79.3654 Y47.5092 I-21.1496 J-28.2090
G02 X44.1822 Y8.8451 I-35.1500 J-3.3544
G02 X8.9989 Y40.8553 I-0.0378 J35.2989
G02 X38.1036 Y79.0007 I35.1532 J3.3543
G01 Z-3.0000 F60
G02 X52.4360 Y78.5540 I6.0741 J-35.2659 F1800
G02 X65.4095 Y72.4538 I-8.1646 J-34.2092
G02 X79.3654 Y47.5092 I-21.1496 J-28.2090
G02 X44.1822 Y8.8451 I-35.1500 J-3.3544
G02 X8.9989 Y40.8553 I-0.0378 J35.2989
G02 X38.1036 Y79.0007 I35.1532 J3.3543
G01 Z-4.0000 F60
G02 X52.4360 Y78.5540 I6.0741 J-35.2659 F1800
G02 X65.4095 Y72.4538 I-8.1646 J-34.2092
G02 X79.3654 Y47.5092 I-21.1496 J-28.2090
G02 X44.1822 Y8.8451 I-35.1500 J-3.3544
G02 X8.9989 Y40.8553 I-0.0378 J35.2989
G02 X38.1036 Y79.0007 I35.1532 J3.3543
G01 Z-5.0000 F60
G02 X52.4360 Y78.5540 I6.0741 J-35.2659 F1800
G02 X65.4095 Y72.4538 I-8.1646 J-34.2092
G02 X79.3654 Y47.5092 I-21.1496 J-28.2090
G02 X44.1822 Y8.8451 I-35.1500 J-3.3544
G02 X8.9989 Y40.8553 I-0.0378 J35.2989
G02 X38.1036 Y79.0007 I35.1532 J3.3543
G01 Z-6.0000 F60
G02 X52.4360 Y78.5540 I6.0741 J-35.2659 F1800
G02 X65.4095 Y72.4538 I-8.1646 J-34.2092
G02 X79.3654 Y47.5092 I-21.1496 J-28.2090
G02 X44.1822 Y8.8451 I-35.1500 J-3.3544
G02 X8.9989 Y40.8553 I-0.0378 J35.2989
G02 X38.1036 Y79.0007 I35.1532 J3.3543
G00 Z5.0000


;No. 5: Engraving 14
G00 X38.1036 Y79.0007 Z5.0000
G00 X35.9000 Y87.5911
G00 Z0.5000
G01 Z-1.0000 F60
G03 X0.1927 Y40.0230 I8.2659 J-43.3908 F1800
G03 X14.4398 Y11.4957 I43.8688 J4.0876
G03 X44.1822 Y0.0000 I29.6659 J32.5298
G03 X76.8687 Y14.4398 I0.0675 J44.0624
G03 X85.9975 Y29.8644 I-32.6019 J29.7085
G03 X88.1717 Y48.3415 I-42.0528 J14.3148
G03 X70.7174 Y79.5240 I-43.9166 J-4.1058
G03 X54.5007 Y87.1556 I-26.4398 J-35.1377
G03 X35.9000 Y87.5911 I-10.3233 J-43.4717
G01 Z-2.0000 F60
G03 X0.1927 Y40.0230 I8.2659 J-43.3908 F1800
G03 X14.4398 Y11.4957 I43.8688 J4.0876
G03 X44.1822 Y0.0000 I29.6659 J32.5298
G03 X76.8687 Y14.4398 I0.0675 J44.0624
G03 X85.9975 Y29.8644 I-32.6019 J29.7085
G03 X88.1717 Y48.3415 I-42.0528 J14.3148
G03 X70.7174 Y79.5240 I-43.9166 J-4.1058
G03 X54.5007 Y87.1556 I-26.4398 J-35.1377
G03 X35.9000 Y87.5911 I-10.3233 J-43.4717
G01 Z-3.0000 F60
G03 X0.1927 Y40.0230 I8.2659 J-43.3908 F1800
G03 X14.4398 Y11.4957 I43.8688 J4.0876
G03 X44.1822 Y0.0000 I29.6659 J32.5298
G03 X76.8687 Y14.4398 I0.0675 J44.0624
G03 X85.9975 Y29.8644 I-32.6019 J29.7085
G03 X88.1717 Y48.3415 I-42.0528 J14.3148
G03 X70.7174 Y79.5240 I-43.9166 J-4.1058
G03 X54.5007 Y87.1556 I-26.4398 J-35.1377
G03 X35.9000 Y87.5911 I-10.3233 J-43.4717
G01 Z-4.0000 F60
G03 X0.1927 Y40.0230 I8.2659 J-43.3908 F1800
G03 X14.4398 Y11.4957 I43.8688 J4.0876
G03 X44.1822 Y0.0000 I29.6659 J32.5298
G03 X76.8687 Y14.4398 I0.0675 J44.0624
G03 X85.9975 Y29.8644 I-32.6019 J29.7085
G03 X88.1717 Y48.3415 I-42.0528 J14.3148
G03 X70.7174 Y79.5240 I-43.9166 J-4.1058
G03 X54.5007 Y87.1556 I-26.4398 J-35.1377
G03 X35.9000 Y87.5911 I-10.3233 J-43.4717
G01 Z-5.0000 F60
G03 X0.1927 Y40.0230 I8.2659 J-43.3908 F1800
G03 X14.4398 Y11.4957 I43.8688 J4.0876
G03 X44.1822 Y0.0000 I29.6659 J32.5298
G03 X76.8687 Y14.4398 I0.0675 J44.0624
G03 X85.9975 Y29.8644 I-32.6019 J29.7085
G03 X88.1717 Y48.3415 I-42.0528 J14.3148
G03 X70.7174 Y79.5240 I-43.9166 J-4.1058
G03 X54.5007 Y87.1556 I-26.4398 J-35.1377
G03 X35.9000 Y87.5911 I-10.3233 J-43.4717
G01 Z-6.0000 F60
G03 X0.1927 Y40.0230 I8.2659 J-43.3908 F1800
G03 X14.4398 Y11.4957 I43.8688 J4.0876
G03 X44.1822 Y0.0000 I29.6659 J32.5298
G03 X76.8687 Y14.4398 I0.0675 J44.0624
G03 X85.9975 Y29.8644 I-32.6019 J29.7085
G03 X88.1717 Y48.3415 I-42.0528 J14.3148
G03 X70.7174 Y79.5240 I-43.9166 J-4.1058
G03 X54.5007 Y87.1556 I-26.4398 J-35.1377
G03 X35.9000 Y87.5911 I-10.3233 J-43.4717
G00 Z5.0000
G00 X0.0000 Y0.0000

M05
