; G-Code generated by Simplify3D(R) Version 3.0.2
; Sep 25, 2015 at 9:22:41 AM
; Settings Summary
;   processName,Process1
;   applyToModels,MPCNC_Square_Check_Short_Side,MPCNC_Square_Check_Short_Side(2)
;   profileName,PrinterBot Simple Metal Custom (modified)
;   profileVersion,2015-05-01 08:00:00
;   baseProfile,Default (modified)
;   printMaterial,PLA
;   printQuality,Medium
;   printExtruders,
;   extruderName,Primary Extruder
;   extruderToolheadNumber,0
;   extruderDiameter,0.4
;   extruderAutoWidth,0
;   extruderWidth,0.4
;   extrusionMultiplier,1
;   extruderUseRetract,1
;   extruderRetractionDistance,1.5
;   extruderExtraRestartDistance,0
;   extruderRetractionZLift,0
;   extruderRetractionSpeed,1800
;   extruderUseCoasting,0
;   extruderCoastingDistance,0.2
;   extruderUseWipe,0
;   extruderWipeDistance,5
;   primaryExtruder,0
;   layerHeight,0.3
;   topSolidLayers,3
;   bottomSolidLayers,3
;   perimeterOutlines,2
;   printPerimetersInsideOut,1
;   startPointOption,2
;   startPointOriginX,0
;   startPointOriginY,0
;   startPointOriginZ,300
;   sequentialIslands,0
;   spiralVaseMode,0
;   firstLayerHeightPercentage,90
;   firstLayerWidthPercentage,100
;   firstLayerUnderspeed,0.5
;   useRaft,0
;   raftExtruder,0
;   raftLayers,3
;   raftOffset,3
;   raftSeparationDistance,0.14
;   raftInfill,85
;   disableRaftBaseLayers,0
;   useSkirt,1
;   skirtExtruder,0
;   skirtLayers,1
;   skirtOutlines,5
;   skirtOffset,2
;   usePrimePillar,0
;   primePillarExtruder,999
;   primePillarWidth,12
;   primePillarLocation,7
;   primePillarSpeedMultiplier,1
;   useOozeShield,0
;   oozeShieldExtruder,999
;   oozeShieldOffset,2
;   oozeShieldOutlines,1
;   oozeShieldSidewallShape,1
;   oozeShieldSidewallAngle,30
;   oozeShieldSpeedMultiplier,1
;   infillExtruder,0
;   internalInfillPattern,Rectilinear
;   externalInfillPattern,Rectilinear
;   infillPercentage,5
;   outlineOverlapPercentage,15
;   infillExtrusionWidthPercentage,100
;   minInfillLength,5
;   infillLayerInterval,1
;   infillAngles,45,-45
;   overlapInfillAngles,0
;   generateSupport,0
;   supportExtruder,0
;   supportInfillPercentage,30
;   supportExtraInflation,0.4
;   denseSupportLayers,0
;   denseSupportInfillPercentage,70
;   supportLayerInterval,1
;   supportHorizontalPartOffset,0.3
;   supportUpperSeparationLayers,1
;   supportLowerSeparationLayers,1
;   supportType,0
;   supportGridSpacing,4
;   maxOverhangAngle,45
;   supportAngles,0
;   temperatureName,Primary Extruder,Heated Bed
;   temperatureNumber,0,1
;   temperatureSetpointCount,2,3
;   temperatureSetpointLayers,1,2,1,2,3
;   temperatureSetpointTemperatures,210,200,70,65,63
;   temperatureStabilizeAtStartup,1,1
;   temperatureHeatedBed,0,1
;   temperatureRelayBetweenLayers,0,0
;   temperatureRelayBetweenLoops,0,0
;   fanLayers,1,2
;   fanSpeeds,0,100
;   blipFanToFullPower,1
;   adjustSpeedForCooling,1
;   minSpeedLayerTime,15
;   minCoolingSpeedSlowdown,20
;   increaseFanForCooling,0
;   minFanLayerTime,45
;   maxCoolingFanSpeed,100
;   increaseFanForBridging,0
;   bridgingFanSpeed,100
;   use5D,1
;   relativeEdistances,0
;   allowEaxisZeroing,1
;   independentExtruderAxes,0
;   includeM10123,0
;   stickySupport,1
;   applyToolheadOffsets,0
;   gcodeXoffset,0
;   gcodeYoffset,0
;   gcodeZoffset,0
;   overrideMachineDefinition,1
;   machineTypeOverride,0
;   strokeXoverride,150
;   strokeYoverride,150
;   strokeZoverride,150
;   originOffsetXoverride,0
;   originOffsetYoverride,0
;   originOffsetZoverride,0
;   homeXdirOverride,-1
;   homeYdirOverride,-1
;   homeZdirOverride,-1
;   flipXoverride,1
;   flipYoverride,-1
;   flipZoverride,1
;   toolheadOffsets,0,0|0,0|0,0|0,0|0,0|0,0
;   overrideFirmwareConfiguration,1
;   firmwareTypeOverride,RepRap (Marlin/Repetier/Sprinter)
;   GPXconfigOverride,r2
;   baudRateOverride,250000
;   overridePrinterModels,1
;   printerModelsOverride
;   startingGcode,G28 X0 Y0 ; home X and Y axes,G29 ; probe z
;   layerChangeGcode,
;   retractionGcode,
;   toolChangeGcode,
;   endingGcode,M104 S0 T0 ; turn off extruder,M140 S0 T1 ; turn off bed,G28 X0 Y0 ; home,M84 ; disable motors
;   createX3G,0
;   celebration,0
;   celebrationSong,Random Song
;   createMB5G,0
;   postProcessing,
;   defaultSpeed,2700
;   outlineUnderspeed,0.8
;   solidInfillUnderspeed,0.8
;   supportUnderspeed,0.8
;   rapidXYspeed,4200
;   rapidZspeed,1002
;   minBridgingArea,50
;   bridgingExtraInflation,0
;   bridgingExtrusionMultiplier,1
;   bridgingSpeedMultiplier,1
;   filamentDiameter,1.75
;   filamentPricePerKg,55
;   filamentDensity,1.25
;   useMinPrintHeight,0
;   minPrintHeight,0
;   useMaxPrintHeight,0
;   maxPrintHeight,0
;   useDiaphragm,0
;   diaphragmLayerInterval,20
;   robustSlicing,1
;   mergeAllIntoSolid,0
;   onlyRetractWhenCrossingOutline,1
;   retractBetweenLayers,1
;   useRetractionMinTravel,0
;   retractionMinTravel,3
;   retractWhileWiping,0
;   onlyWipeOutlines,1
;   avoidCrossingOutline,0
;   maxMovementDetourFactor,3
;   toolChangeRetractionDistance,12
;   toolChangeExtraRestartDistance,-0.5
;   toolChangeRetractionSpeed,600
;   allowThinWallGapFill,1
;   thinWallAllowedOverlapPercentage,10
;   horizontalSizeCompensation,0
G90
M82
M106 S0
M140 S70
M190 S70
M104 S210 T0
M109 S210 T0
G28 X0 Y0 ; home X and Y axes
G29 ; probe z
G92 E0
G1 E-1.5000 F1800
G1 Z0.270 F1002
; layer 1, Z = 0.27
T0
; tool H0.300 W0.400
; skirt
G1 X43.973 Y24.401 F4200
G1 E0.0000 F540
G92 E0
G1 X45.652 Y22.723 E0.1184 F1350
G1 X46.314 Y22.449 E0.1542
G1 X49.227 Y22.451 E0.2995
G1 X49.701 Y22.583 E0.3240
G1 X51.075 Y23.413 E0.4041
G1 X51.412 Y23.771 E0.4287
G1 X52.786 Y26.385 E0.5760
G1 X53.858 Y27.691 E0.6603
G1 X55.174 Y28.772 E0.7452
G1 X56.675 Y29.574 E0.8302
G1 X58.305 Y30.068 E0.9151
G1 X59.999 Y30.235 E1.0000
G1 X61.693 Y30.068 E1.0850
G1 X63.323 Y29.574 E1.1699
G1 X64.824 Y28.772 E1.2549
G1 X66.140 Y27.691 E1.3398
G1 X67.212 Y26.385 E1.4241
G1 X68.586 Y23.771 E1.5714
G1 X68.923 Y23.413 E1.5960
G1 X70.297 Y22.583 E1.6761
G1 X70.771 Y22.451 E1.7006
G1 X73.684 Y22.449 E1.8459
G1 X74.346 Y22.723 E1.8817
G1 X75.000 Y23.377 E1.9278
G1 X75.654 Y22.723 E1.9740
G1 X76.316 Y22.449 E2.0097
G1 X79.229 Y22.451 E2.1550
G1 X79.703 Y22.583 E2.1796
G1 X81.077 Y23.413 E2.2597
G1 X81.414 Y23.771 E2.2842
G1 X82.788 Y26.385 E2.4315
G1 X83.860 Y27.691 E2.5158
G1 X85.176 Y28.772 E2.6008
G1 X86.677 Y29.574 E2.6857
G1 X88.307 Y30.068 E2.7707
G1 X90.001 Y30.235 E2.8556
G1 X91.695 Y30.068 E2.9405
G1 X93.325 Y29.574 E3.0255
G1 X94.826 Y28.772 E3.1104
G1 X96.142 Y27.691 E3.1953
G1 X97.214 Y26.385 E3.2796
G1 X98.588 Y23.771 E3.4270
G1 X98.925 Y23.413 E3.4515
G1 X100.299 Y22.583 E3.5316
G1 X100.773 Y22.451 E3.5561
G1 X103.686 Y22.449 E3.7015
G1 X104.348 Y22.723 E3.7372
G1 X106.027 Y24.401 E3.8556
G1 X106.301 Y25.063 E3.8914
G1 X106.301 Y124.937 E8.8741
G1 X106.027 Y125.599 E8.9099
G1 X104.349 Y127.276 E9.0282
G1 X103.687 Y127.550 E9.0640
G1 X100.775 Y127.550 E9.2093
G1 X100.301 Y127.418 E9.2338
G1 X98.926 Y126.588 E9.3140
G1 X98.588 Y126.230 E9.3385
G1 X97.214 Y123.616 E9.4859
G1 X96.142 Y122.310 E9.5702
G1 X94.826 Y121.229 E9.6551
G1 X93.325 Y120.427 E9.7400
G1 X91.695 Y119.933 E9.8250
G1 X90.001 Y119.766 E9.9099
G1 X88.307 Y119.933 E9.9948
G1 X86.677 Y120.427 E10.0798
G1 X85.176 Y121.229 E10.1647
G1 X83.860 Y122.310 E10.2497
G1 X82.788 Y123.616 E10.3340
G1 X81.414 Y126.229 E10.4813
G1 X81.077 Y126.587 E10.5058
G1 X79.703 Y127.417 E10.5859
G1 X79.229 Y127.549 E10.6104
G1 X76.316 Y127.551 E10.7558
G1 X75.654 Y127.277 E10.7915
G1 X75.000 Y126.623 E10.8376
G1 X74.347 Y127.276 E10.8837
G1 X73.685 Y127.550 E10.9194
G1 X70.773 Y127.550 E11.0648
G1 X70.299 Y127.418 E11.0893
G1 X68.924 Y126.588 E11.1695
G1 X68.586 Y126.230 E11.1940
G1 X67.212 Y123.616 E11.3414
G1 X66.140 Y122.310 E11.4256
G1 X64.824 Y121.229 E11.5106
G1 X63.323 Y120.427 E11.5955
G1 X61.693 Y119.933 E11.6805
G1 X59.999 Y119.766 E11.7654
G1 X58.305 Y119.933 E11.8503
G1 X56.675 Y120.427 E11.9353
G1 X55.174 Y121.229 E12.0202
G1 X53.858 Y122.310 E12.1051
G1 X52.786 Y123.616 E12.1894
G1 X51.412 Y126.229 E12.3367
G1 X51.075 Y126.587 E12.3613
G1 X49.701 Y127.417 E12.4414
G1 X49.227 Y127.549 E12.4659
G1 X46.314 Y127.551 E12.6112
G1 X45.652 Y127.277 E12.6470
G1 X43.973 Y125.599 E12.7654
G1 X43.699 Y124.937 E12.8011
G1 X43.699 Y25.063 E17.7839
G1 X43.973 Y24.401 E17.8197
G1 X44.312 Y24.627 F4200
G92 E0
G1 X45.879 Y23.062 E0.1105 F1350
G1 X46.394 Y22.849 E0.1383
G1 X49.172 Y22.851 E0.2769
G1 X49.541 Y22.953 E0.2960
G1 X50.821 Y23.727 E0.3706
G1 X51.083 Y24.006 E0.3897
G1 X52.451 Y26.608 E0.5364
G1 X53.574 Y27.976 E0.6247
G1 X54.951 Y29.106 E0.7135
G1 X56.522 Y29.945 E0.8024
G1 X58.227 Y30.463 E0.8913
G1 X59.999 Y30.637 E0.9801
G1 X61.771 Y30.463 E1.0690
G1 X63.476 Y29.945 E1.1579
G1 X65.047 Y29.106 E1.2467
G1 X66.424 Y27.976 E1.3356
G1 X67.547 Y26.608 E1.4239
G1 X68.915 Y24.006 E1.5706
G1 X69.177 Y23.727 E1.5896
G1 X70.457 Y22.953 E1.6643
G1 X70.826 Y22.851 E1.6834
G1 X73.604 Y22.849 E1.8220
G1 X74.119 Y23.062 E1.8498
G1 X75.000 Y23.942 E1.9119
G1 X75.881 Y23.062 E1.9740
G1 X76.396 Y22.849 E2.0018
G1 X79.174 Y22.851 E2.1405
G1 X79.543 Y22.953 E2.1596
G1 X80.823 Y23.727 E2.2342
G1 X81.085 Y24.006 E2.2533
G1 X82.453 Y26.608 E2.3999
G1 X83.576 Y27.976 E2.4882
G1 X84.953 Y29.106 E2.5771
G1 X86.524 Y29.945 E2.6659
G1 X88.229 Y30.463 E2.7548
G1 X90.001 Y30.637 E2.8437
G1 X91.773 Y30.463 E2.9325
G1 X93.478 Y29.945 E3.0214
G1 X95.049 Y29.106 E3.1103
G1 X96.426 Y27.976 E3.1992
G1 X97.549 Y26.608 E3.2875
G1 X98.917 Y24.006 E3.4341
G1 X99.179 Y23.727 E3.4532
G1 X100.459 Y22.953 E3.5278
G1 X100.828 Y22.851 E3.5469
G1 X103.606 Y22.849 E3.6855
G1 X104.121 Y23.062 E3.7133
G1 X105.688 Y24.627 E3.8238
G1 X105.901 Y25.142 E3.8516
G1 X105.901 Y124.857 E8.8264
G1 X105.688 Y125.372 E8.8542
G1 X104.122 Y126.937 E8.9647
G1 X103.608 Y127.150 E8.9925
G1 X100.829 Y127.150 E9.1311
G1 X100.461 Y127.048 E9.1502
G1 X99.179 Y126.274 E9.2249
G1 X98.917 Y125.995 E9.2440
G1 X97.549 Y123.393 E9.3906
G1 X96.426 Y122.025 E9.4789
G1 X95.049 Y120.895 E9.5678
G1 X93.478 Y120.056 E9.6566
G1 X91.773 Y119.538 E9.7455
G1 X90.001 Y119.364 E9.8344
G1 X88.229 Y119.538 E9.9232
G1 X86.524 Y120.056 E10.0121
G1 X84.953 Y120.895 E10.1010
G1 X83.576 Y122.025 E10.1899
G1 X82.453 Y123.393 E10.2782
G1 X81.086 Y125.994 E10.4248
G1 X80.823 Y126.273 E10.4438
G1 X79.543 Y127.047 E10.5185
G1 X79.175 Y127.149 E10.5376
G1 X76.396 Y127.151 E10.6762
G1 X75.881 Y126.938 E10.7040
G1 X75.000 Y126.058 E10.7661
G1 X74.120 Y126.937 E10.8282
G1 X73.606 Y127.150 E10.8560
G1 X70.827 Y127.150 E10.9946
G1 X70.459 Y127.048 E11.0137
G1 X69.177 Y126.274 E11.0884
G1 X68.915 Y125.995 E11.1075
G1 X67.547 Y123.393 E11.2541
G1 X66.424 Y122.025 E11.3424
G1 X65.047 Y120.895 E11.4313
G1 X63.476 Y120.056 E11.5201
G1 X61.771 Y119.538 E11.6090
G1 X59.999 Y119.364 E11.6979
G1 X58.227 Y119.538 E11.7867
G1 X56.522 Y120.056 E11.8756
G1 X54.951 Y120.895 E11.9645
G1 X53.574 Y122.025 E12.0534
G1 X52.451 Y123.393 E12.1417
G1 X51.084 Y125.994 E12.2883
G1 X50.821 Y126.273 E12.3073
G1 X49.541 Y127.047 E12.3820
G1 X49.173 Y127.149 E12.4011
G1 X46.394 Y127.151 E12.5397
G1 X45.879 Y126.938 E12.5675
G1 X44.312 Y125.373 E12.6780
G1 X44.099 Y124.858 E12.7058
G1 X44.099 Y25.142 E17.6806
G1 X44.312 Y24.627 E17.7084
G1 X44.651 Y24.854 F4200
G92 E0
G1 X46.105 Y23.401 E0.1026 F1350
G1 X46.473 Y23.249 E0.1224
G1 X49.117 Y23.251 E0.2543
G1 X49.381 Y23.324 E0.2680
G1 X50.567 Y24.041 E0.3372
G1 X50.755 Y24.240 E0.3508
G1 X52.116 Y26.830 E0.4967
G1 X53.290 Y28.260 E0.5890
G1 X54.728 Y29.440 E0.6818
G1 X56.368 Y30.317 E0.7746
G1 X58.148 Y30.857 E0.8674
G1 X59.999 Y31.039 E0.9602
G1 X61.850 Y30.857 E1.0530
G1 X63.630 Y30.317 E1.1458
G1 X65.270 Y29.440 E1.2386
G1 X66.708 Y28.260 E1.3314
G1 X67.882 Y26.830 E1.4237
G1 X69.243 Y24.240 E1.5697
G1 X69.431 Y24.041 E1.5833
G1 X70.617 Y23.324 E1.6525
G1 X70.881 Y23.251 E1.6661
G1 X73.525 Y23.249 E1.7981
G1 X73.893 Y23.401 E1.8179
G1 X75.000 Y24.508 E1.8960
G1 X76.107 Y23.401 E1.9741
G1 X76.475 Y23.249 E1.9940
G1 X79.119 Y23.251 E2.1259
G1 X79.383 Y23.324 E2.1395
G1 X80.569 Y24.041 E2.2087
G1 X80.757 Y24.240 E2.2224
G1 X82.118 Y26.830 E2.3683
G1 X83.292 Y28.260 E2.4606
G1 X84.730 Y29.440 E2.5534
G1 X86.370 Y30.317 E2.6462
G1 X88.150 Y30.857 E2.7390
G1 X90.001 Y31.039 E2.8318
G1 X91.852 Y30.857 E2.9246
G1 X93.632 Y30.317 E3.0174
G1 X95.272 Y29.440 E3.1102
G1 X96.710 Y28.260 E3.2030
G1 X97.884 Y26.830 E3.2953
G1 X99.245 Y24.240 E3.4412
G1 X99.433 Y24.041 E3.4549
G1 X100.619 Y23.324 E3.5241
G1 X100.883 Y23.251 E3.5377
G1 X103.527 Y23.249 E3.6696
G1 X103.895 Y23.401 E3.6895
G1 X105.349 Y24.854 E3.7920
G1 X105.501 Y25.222 E3.8119
G1 X105.501 Y124.778 E8.7788
G1 X105.349 Y125.145 E8.7986
G1 X103.896 Y126.598 E8.9011
G1 X103.528 Y126.751 E8.9210
G1 X100.884 Y126.751 E9.0529
G1 X100.621 Y126.677 E9.0665
G1 X99.433 Y125.960 E9.1358
G1 X99.245 Y125.761 E9.1494
G1 X97.884 Y123.171 E9.2954
G1 X96.710 Y121.741 E9.3877
G1 X95.272 Y120.561 E9.4805
G1 X93.632 Y119.684 E9.5732
G1 X91.852 Y119.144 E9.6661
G1 X90.001 Y118.962 E9.7589
G1 X88.150 Y119.144 E9.8516
G1 X86.370 Y119.684 E9.9445
G1 X84.730 Y120.561 E10.0373
G1 X83.292 Y121.741 E10.1301
G1 X82.118 Y123.171 E10.2223
G1 X80.757 Y125.760 E10.3683
G1 X80.570 Y125.959 E10.3819
G1 X79.383 Y126.676 E10.4511
G1 X79.120 Y126.750 E10.4647
G1 X76.475 Y126.751 E10.5967
G1 X76.107 Y126.599 E10.6165
G1 X75.000 Y125.492 E10.6946
G1 X73.894 Y126.598 E10.7727
G1 X73.526 Y126.751 E10.7925
G1 X70.882 Y126.751 E10.9244
G1 X70.619 Y126.677 E10.9381
G1 X69.431 Y125.960 E11.0073
G1 X69.243 Y125.761 E11.0209
G1 X67.882 Y123.171 E11.1669
G1 X66.708 Y121.741 E11.2592
G1 X65.270 Y120.561 E11.3520
G1 X63.630 Y119.684 E11.4448
G1 X61.850 Y119.144 E11.5376
G1 X59.999 Y118.962 E11.6304
G1 X58.148 Y119.144 E11.7232
G1 X56.368 Y119.684 E11.8160
G1 X54.728 Y120.561 E11.9088
G1 X53.290 Y121.741 E12.0016
G1 X52.116 Y123.171 E12.0939
G1 X50.755 Y125.760 E12.2398
G1 X50.568 Y125.959 E12.2534
G1 X49.381 Y126.676 E12.3226
G1 X49.118 Y126.750 E12.3362
G1 X46.473 Y126.751 E12.4682
G1 X46.105 Y126.599 E12.4880
G1 X44.651 Y125.146 E12.5906
G1 X44.499 Y124.778 E12.6104
G1 X44.499 Y25.222 E17.5773
G1 X44.651 Y24.854 E17.5972
G1 X44.990 Y25.081 F4200
G92 E0
G1 X46.332 Y23.740 E0.0946 F1350
G1 X46.552 Y23.649 E0.1065
G1 X49.063 Y23.650 E0.2318
G1 X49.220 Y23.695 E0.2399
G1 X50.314 Y24.355 E0.3037
G1 X50.426 Y24.475 E0.3119
G1 X51.781 Y27.052 E0.4571
G1 X53.005 Y28.544 E0.5534
G1 X54.504 Y29.774 E0.6501
G1 X56.214 Y30.688 E0.7469
G1 X58.070 Y31.251 E0.8436
G1 X59.999 Y31.441 E0.9403
G1 X61.928 Y31.251 E1.0370
G1 X63.784 Y30.688 E1.1338
G1 X65.494 Y29.774 E1.2305
G1 X66.993 Y28.544 E1.3272
G1 X68.217 Y27.052 E1.4235
G1 X69.572 Y24.475 E1.5688
G1 X69.684 Y24.355 E1.5770
G1 X70.778 Y23.695 E1.6407
G1 X70.935 Y23.650 E1.6489
G1 X73.446 Y23.649 E1.7741
G1 X73.666 Y23.740 E1.7860
G1 X75.000 Y25.073 E1.8801
G1 X76.334 Y23.740 E1.9742
G1 X76.554 Y23.649 E1.9861
G1 X79.065 Y23.650 E2.1113
G1 X79.222 Y23.695 E2.1195
G1 X80.316 Y24.355 E2.1833
G1 X80.428 Y24.475 E2.1914
G1 X81.783 Y27.052 E2.3367
G1 X83.007 Y28.544 E2.4330
G1 X84.506 Y29.774 E2.5297
G1 X86.216 Y30.688 E2.6264
G1 X88.072 Y31.251 E2.7232
G1 X90.001 Y31.441 E2.8199
G1 X91.930 Y31.251 E2.9166
G1 X93.786 Y30.688 E3.0134
G1 X95.496 Y29.774 E3.1101
G1 X96.995 Y28.544 E3.2068
G1 X98.219 Y27.052 E3.3031
G1 X99.574 Y24.475 E3.4484
G1 X99.686 Y24.355 E3.4566
G1 X100.780 Y23.695 E3.5203
G1 X100.937 Y23.650 E3.5285
G1 X103.448 Y23.649 E3.6537
G1 X103.668 Y23.740 E3.6656
G1 X105.010 Y25.081 E3.7602
G1 X105.101 Y25.301 E3.7722
G1 X105.101 Y124.698 E8.7311
G1 X105.010 Y124.919 E8.7430
G1 X103.669 Y126.259 E8.8376
G1 X103.449 Y126.350 E8.8495
G1 X100.939 Y126.350 E8.9747
G1 X100.781 Y126.306 E8.9829
G1 X99.686 Y125.646 E9.0467
G1 X99.574 Y125.526 E9.0549
G1 X98.219 Y122.949 E9.2001
G1 X96.995 Y121.457 E9.2964
G1 X95.496 Y120.227 E9.3931
G1 X93.786 Y119.313 E9.4899
G1 X91.930 Y118.750 E9.5866
G1 X90.001 Y118.560 E9.6833
G1 X88.072 Y118.750 E9.7800
G1 X86.216 Y119.313 E9.8768
G1 X84.506 Y120.227 E9.9735
G1 X83.007 Y121.457 E10.0702
G1 X81.783 Y122.949 E10.1665
G1 X80.428 Y125.525 E10.3118
