; G-Code generated by Simplify3D(R) Version 3.0.2
; Sep 25, 2015 at 9:12:13 AM
; Settings Summary
;   processName,Process1
;   applyToModels,MPCNC_Square_Check_Long_Side,MPCNC_Square_Check_Long_Side(2)
;   profileName,PrinterBot Simple Metal Custom (modified)
;   profileVersion,2015-05-01 08:00:00
;   baseProfile,Default (modified)
;   printMaterial,PLA
;   printQuality,Medium
;   printExtruders,
;   extruderName,Primary Extruder
;   extruderToolheadNumber,0
;   extruderDiameter,0.4
;   extruderAutoWidth,0
;   extruderWidth,0.4
;   extrusionMultiplier,1
;   extruderUseRetract,1
;   extruderRetractionDistance,1.5
;   extruderExtraRestartDistance,0
;   extruderRetractionZLift,0
;   extruderRetractionSpeed,1800
;   extruderUseCoasting,0
;   extruderCoastingDistance,0.2
;   extruderUseWipe,0
;   extruderWipeDistance,5
;   primaryExtruder,0
;   layerHeight,0.3
;   topSolidLayers,3
;   bottomSolidLayers,3
;   perimeterOutlines,2
;   printPerimetersInsideOut,1
;   startPointOption,2
;   startPointOriginX,0
;   startPointOriginY,0
;   startPointOriginZ,300
;   sequentialIslands,0
;   spiralVaseMode,0
;   firstLayerHeightPercentage,90
;   firstLayerWidthPercentage,100
;   firstLayerUnderspeed,0.5
;   useRaft,0
;   raftExtruder,0
;   raftLayers,3
;   raftOffset,3
;   raftSeparationDistance,0.14
;   raftInfill,85
;   disableRaftBaseLayers,0
;   useSkirt,1
;   skirtExtruder,0
;   skirtLayers,1
;   skirtOutlines,5
;   skirtOffset,2
;   usePrimePillar,0
;   primePillarExtruder,999
;   primePillarWidth,12
;   primePillarLocation,7
;   primePillarSpeedMultiplier,1
;   useOozeShield,0
;   oozeShieldExtruder,999
;   oozeShieldOffset,2
;   oozeShieldOutlines,1
;   oozeShieldSidewallShape,1
;   oozeShieldSidewallAngle,30
;   oozeShieldSpeedMultiplier,1
;   infillExtruder,0
;   internalInfillPattern,Rectilinear
;   externalInfillPattern,Rectilinear
;   infillPercentage,5
;   outlineOverlapPercentage,15
;   infillExtrusionWidthPercentage,100
;   minInfillLength,5
;   infillLayerInterval,1
;   infillAngles,45,-45
;   overlapInfillAngles,0
;   generateSupport,0
;   supportExtruder,0
;   supportInfillPercentage,30
;   supportExtraInflation,0.4
;   denseSupportLayers,0
;   denseSupportInfillPercentage,70
;   supportLayerInterval,1
;   supportHorizontalPartOffset,0.3
;   supportUpperSeparationLayers,1
;   supportLowerSeparationLayers,1
;   supportType,0
;   supportGridSpacing,4
;   maxOverhangAngle,45
;   supportAngles,0
;   temperatureName,Primary Extruder,Heated Bed
;   temperatureNumber,0,1
;   temperatureSetpointCount,2,3
;   temperatureSetpointLayers,1,2,1,2,3
;   temperatureSetpointTemperatures,210,200,70,65,63
;   temperatureStabilizeAtStartup,1,1
;   temperatureHeatedBed,0,1
;   temperatureRelayBetweenLayers,0,0
;   temperatureRelayBetweenLoops,0,0
;   fanLayers,1,2
;   fanSpeeds,0,100
;   blipFanToFullPower,1
;   adjustSpeedForCooling,1
;   minSpeedLayerTime,15
;   minCoolingSpeedSlowdown,20
;   increaseFanForCooling,0
;   minFanLayerTime,45
;   maxCoolingFanSpeed,100
;   increaseFanForBridging,0
;   bridgingFanSpeed,100
;   use5D,1
;   relativeEdistances,0
;   allowEaxisZeroing,1
;   independentExtruderAxes,0
;   includeM10123,0
;   stickySupport,1
;   applyToolheadOffsets,0
;   gcodeXoffset,0
;   gcodeYoffset,0
;   gcodeZoffset,0
;   overrideMachineDefinition,1
;   machineTypeOverride,0
;   strokeXoverride,150
;   strokeYoverride,150
;   strokeZoverride,150
;   originOffsetXoverride,0
;   originOffsetYoverride,0
;   originOffsetZoverride,0
;   homeXdirOverride,-1
;   homeYdirOverride,-1
;   homeZdirOverride,-1
;   flipXoverride,1
;   flipYoverride,-1
;   flipZoverride,1
;   toolheadOffsets,0,0|0,0|0,0|0,0|0,0|0,0
;   overrideFirmwareConfiguration,1
;   firmwareTypeOverride,RepRap (Marlin/Repetier/Sprinter)
;   GPXconfigOverride,r2
;   baudRateOverride,250000
;   overridePrinterModels,1
;   printerModelsOverride
;   startingGcode,G28 X0 Y0 ; home X and Y axes,G29 ; probe z
;   layerChangeGcode,
;   retractionGcode,
;   toolChangeGcode,
;   endingGcode,M104 S0 T0 ; turn off extruder,M140 S0 T1 ; turn off bed,G28 X0 Y0 ; home,M84 ; disable motors
;   createX3G,0
;   celebration,0
;   celebrationSong,Random Song
;   createMB5G,0
;   postProcessing,
;   defaultSpeed,2700
;   outlineUnderspeed,0.8
;   solidInfillUnderspeed,0.8
;   supportUnderspeed,0.8
;   rapidXYspeed,4200
;   rapidZspeed,1002
;   minBridgingArea,50
;   bridgingExtraInflation,0
;   bridgingExtrusionMultiplier,1
;   bridgingSpeedMultiplier,1
;   filamentDiameter,1.75
;   filamentPricePerKg,55
;   filamentDensity,1.25
;   useMinPrintHeight,0
;   minPrintHeight,0
;   useMaxPrintHeight,0
;   maxPrintHeight,0
;   useDiaphragm,0
;   diaphragmLayerInterval,20
;   robustSlicing,1
;   mergeAllIntoSolid,0
;   onlyRetractWhenCrossingOutline,1
;   retractBetweenLayers,1
;   useRetractionMinTravel,0
;   retractionMinTravel,3
;   retractWhileWiping,0
;   onlyWipeOutlines,1
;   avoidCrossingOutline,0
;   maxMovementDetourFactor,3
;   toolChangeRetractionDistance,12
;   toolChangeExtraRestartDistance,-0.5
;   toolChangeRetractionSpeed,600
;   allowThinWallGapFill,1
;   thinWallAllowedOverlapPercentage,10
;   horizontalSizeCompensation,0
G90
M82
M106 S0
M140 S70
M190 S70
M104 S210 T0
M109 S210 T0
G28 X0 Y0 ; home X and Y axes
G29 ; probe z
G92 E0
G1 E-1.5000 F1800
G1 Z0.270 F1002
; layer 1, Z = 0.27
T0
; tool H0.300 W0.400
; skirt
G1 X43.700 Y3.813 F4200
G1 E0.0000 F540
G92 E0
G1 X43.974 Y3.151 E0.0357 F1350
G1 X45.652 Y1.474 E0.1541
G1 X46.314 Y1.200 E0.1898
G1 X49.373 Y1.200 E0.3425
G1 X49.923 Y1.381 E0.3714
G1 X51.449 Y2.513 E0.4662
G1 X51.783 Y2.986 E0.4951
G1 X51.976 Y3.623 E0.5283
G1 X52.779 Y5.125 E0.6132
G1 X53.859 Y6.441 E0.6982
G1 X55.175 Y7.522 E0.7831
G1 X56.676 Y8.324 E0.8680
G1 X58.306 Y8.818 E0.9530
G1 X60.000 Y8.985 E1.0379
G1 X61.694 Y8.818 E1.1229
G1 X63.324 Y8.324 E1.2078
G1 X64.825 Y7.522 E1.2927
G1 X66.141 Y6.441 E1.3777
G1 X67.213 Y5.135 E1.4620
G1 X68.587 Y2.521 E1.6093
G1 X68.924 Y2.163 E1.6338
G1 X70.298 Y1.333 E1.7139
G1 X70.772 Y1.201 E1.7385
G1 X73.685 Y1.199 E1.8838
G1 X74.347 Y1.473 E1.9195
G1 X75.000 Y2.126 E1.9656
G1 X75.652 Y1.474 E2.0116
G1 X76.314 Y1.200 E2.0474
G1 X79.373 Y1.200 E2.2000
G1 X79.923 Y1.381 E2.2289
G1 X81.449 Y2.513 E2.3237
G1 X81.783 Y2.986 E2.3526
G1 X81.976 Y3.623 E2.3858
G1 X82.779 Y5.125 E2.4708
G1 X83.859 Y6.441 E2.5557
G1 X85.175 Y7.522 E2.6406
G1 X86.676 Y8.324 E2.7256
G1 X88.306 Y8.818 E2.8105
G1 X90.000 Y8.985 E2.8954
G1 X91.694 Y8.818 E2.9804
G1 X93.324 Y8.324 E3.0653
G1 X94.825 Y7.522 E3.1503
G1 X96.141 Y6.441 E3.2352
G1 X97.213 Y5.135 E3.3195
G1 X98.587 Y2.521 E3.4668
G1 X98.924 Y2.163 E3.4914
G1 X100.298 Y1.333 E3.5715
G1 X100.772 Y1.201 E3.5960
G1 X103.685 Y1.199 E3.7413
G1 X104.347 Y1.473 E3.7771
G1 X106.026 Y3.151 E3.8955
G1 X106.300 Y3.813 E3.9312
G1 X106.300 Y146.187 E11.0343
G1 X106.026 Y146.849 E11.0701
G1 X104.348 Y148.526 E11.1884
G1 X103.686 Y148.800 E11.2242
G1 X100.839 Y148.800 E11.3662
G1 X100.289 Y148.619 E11.3951
G1 X98.763 Y147.487 E11.4899
G1 X98.429 Y147.013 E11.5188
G1 X98.023 Y145.677 E11.5885
G1 X97.221 Y144.176 E11.6734
G1 X96.141 Y142.859 E11.7584
G1 X94.825 Y141.779 E11.8433
G1 X93.324 Y140.977 E11.9282
G1 X91.694 Y140.483 E12.0132
G1 X90.000 Y140.316 E12.0981
G1 X88.306 Y140.483 E12.1830
G1 X86.676 Y140.977 E12.2680
G1 X85.175 Y141.779 E12.3529
G1 X83.859 Y142.859 E12.4379
G1 X82.779 Y144.176 E12.5228
G1 X81.977 Y145.677 E12.6077
G1 X81.571 Y147.013 E12.6774
G1 X81.237 Y147.487 E12.7063
G1 X79.711 Y148.619 E12.8011
G1 X79.161 Y148.800 E12.8300
G1 X76.314 Y148.800 E12.9721
G1 X75.652 Y148.526 E13.0078
G1 X75.000 Y147.875 E13.0538
G1 X74.348 Y148.526 E13.0998
G1 X73.686 Y148.800 E13.1355
G1 X70.839 Y148.800 E13.2776
G1 X70.289 Y148.619 E13.3065
G1 X68.763 Y147.487 E13.4013
G1 X68.429 Y147.013 E13.4302
G1 X68.023 Y145.677 E13.4999
G1 X67.221 Y144.176 E13.5848
G1 X66.141 Y142.860 E13.6697
G1 X64.825 Y141.779 E13.7547
G1 X63.324 Y140.977 E13.8396
G1 X61.694 Y140.483 E13.9246
G1 X60.000 Y140.316 E14.0095
G1 X58.306 Y140.483 E14.0944
G1 X56.676 Y140.977 E14.1794
G1 X55.175 Y141.779 E14.2643
G1 X53.859 Y142.859 E14.3492
G1 X52.779 Y144.176 E14.4342
G1 X51.977 Y145.677 E14.5191
G1 X51.571 Y147.013 E14.5888
G1 X51.237 Y147.487 E14.6177
G1 X49.711 Y148.619 E14.7125
G1 X49.161 Y148.800 E14.7414
G1 X46.314 Y148.800 E14.8834
G1 X45.652 Y148.526 E14.9192
G1 X43.974 Y146.849 E15.0376
G1 X43.700 Y146.187 E15.0733
G1 X43.700 Y3.813 E22.1763
G1 X44.100 Y3.893 F4200
G92 E0
G1 X44.313 Y3.378 E0.0278 F1350
G1 X45.879 Y1.813 E0.1382
G1 X46.393 Y1.599 E0.1660
G1 X49.309 Y1.599 E0.3115
G1 X49.736 Y1.741 E0.3340
G1 X51.160 Y2.796 E0.4223
G1 X51.419 Y3.164 E0.4448
G1 X51.605 Y3.777 E0.4768
G1 X52.445 Y5.349 E0.5657
G1 X53.575 Y6.726 E0.6545
G1 X54.952 Y7.856 E0.7434
G1 X56.523 Y8.695 E0.8323
G1 X58.228 Y9.213 E0.9212
G1 X60.000 Y9.387 E1.0100
G1 X61.772 Y9.213 E1.0989
G1 X63.477 Y8.695 E1.1878
G1 X65.048 Y7.856 E1.2766
G1 X66.425 Y6.726 E1.3655
G1 X67.548 Y5.358 E1.4538
G1 X68.916 Y2.756 E1.6004
G1 X69.178 Y2.477 E1.6195
G1 X70.458 Y1.703 E1.6942
G1 X70.827 Y1.601 E1.7132
G1 X73.605 Y1.599 E1.8519
G1 X74.120 Y1.812 E1.8797
G1 X75.000 Y2.691 E1.9417
G1 X75.879 Y1.813 E2.0037
G1 X76.393 Y1.599 E2.0315
G1 X79.309 Y1.599 E2.1769
G1 X79.736 Y1.741 E2.1994
G1 X81.159 Y2.796 E2.2878
G1 X81.419 Y3.164 E2.3103
G1 X81.605 Y3.777 E2.3422
G1 X82.445 Y5.349 E2.4311
G1 X83.575 Y6.726 E2.5200
G1 X84.952 Y7.856 E2.6089
G1 X86.523 Y8.695 E2.6977
G1 X88.228 Y9.213 E2.7866
G1 X90.000 Y9.387 E2.8755
G1 X91.772 Y9.213 E2.9643
G1 X93.477 Y8.695 E3.0532
G1 X95.048 Y7.856 E3.1421
G1 X96.425 Y6.726 E3.2309
G1 X97.548 Y5.358 E3.3192
G1 X98.916 Y2.756 E3.4659
G1 X99.178 Y2.477 E3.4850
G1 X100.458 Y1.703 E3.5596
G1 X100.827 Y1.601 E3.5787
G1 X103.605 Y1.599 E3.7173
G1 X104.120 Y1.812 E3.7451
G1 X105.687 Y3.377 E3.8556
G1 X105.900 Y3.892 E3.8834
G1 X105.900 Y146.107 E10.9786
G1 X105.687 Y146.622 E11.0064
G1 X104.121 Y148.187 E11.1168
G1 X103.607 Y148.400 E11.1446
G1 X100.903 Y148.400 E11.2795
G1 X100.476 Y148.259 E11.3019
G1 X99.052 Y147.204 E11.3903
G1 X98.793 Y146.836 E11.4128
G1 X98.395 Y145.523 E11.4812
G1 X97.555 Y143.952 E11.5701
G1 X96.425 Y142.575 E11.6590
G1 X95.048 Y141.445 E11.7478
G1 X93.477 Y140.606 E11.8367
G1 X91.772 Y140.088 E11.9256
G1 X90.000 Y139.914 E12.0144
G1 X88.228 Y140.088 E12.1033
G1 X86.523 Y140.606 E12.1922
G1 X84.952 Y141.445 E12.2810
G1 X83.575 Y142.575 E12.3699
G1 X82.445 Y143.952 E12.4588
G1 X81.605 Y145.523 E12.5476
G1 X81.207 Y146.836 E12.6161
G1 X80.948 Y147.204 E12.6385
G1 X79.524 Y148.259 E12.7269
G1 X79.097 Y148.400 E12.7494
G1 X76.393 Y148.400 E12.8843
G1 X75.879 Y148.187 E12.9121
G1 X75.000 Y147.309 E12.9741
G1 X74.121 Y148.187 E13.0360
G1 X73.607 Y148.400 E13.0638
G1 X70.903 Y148.400 E13.1987
G1 X70.476 Y148.259 E13.2212
G1 X69.052 Y147.204 E13.3096
G1 X68.793 Y146.836 E13.3321
G1 X68.395 Y145.523 E13.4005
G1 X67.555 Y143.952 E13.4893
G1 X66.425 Y142.575 E13.5782
G1 X65.048 Y141.445 E13.6671
G1 X63.477 Y140.606 E13.7559
G1 X61.772 Y140.088 E13.8448
G1 X60.000 Y139.914 E13.9337
G1 X58.228 Y140.088 E14.0225
G1 X56.523 Y140.606 E14.1114
G1 X54.952 Y141.445 E14.2003
G1 X53.575 Y142.575 E14.2892
G1 X52.445 Y143.952 E14.3780
G1 X51.605 Y145.523 E14.4669
G1 X51.207 Y146.836 E14.5353
G1 X50.948 Y147.204 E14.5578
G1 X49.524 Y148.259 E14.6462
G1 X49.097 Y148.400 E14.6687
G1 X46.393 Y148.400 E14.8035
G1 X45.879 Y148.187 E14.8313
G1 X44.313 Y146.622 E14.9418
G1 X44.100 Y146.107 E14.9696
G1 X44.100 Y3.893 E22.0647
G1 X44.500 Y3.972 F4200
G92 E0
G1 X44.652 Y3.605 E0.0198 F1350
G1 X46.105 Y2.152 E0.1224
G1 X46.473 Y1.1000 E0.1422
G1 X49.244 Y1.1000 E0.2805
G1 X49.550 Y2.100 E0.2965
G1 X50.870 Y3.079 E0.3785
G1 X51.055 Y3.342 E0.3946
G1 X51.234 Y3.931 E0.4253
G1 X52.111 Y5.572 E0.5181
G1 X53.291 Y7.010 E0.6109
G1 X54.729 Y8.190 E0.7037
G1 X56.369 Y9.067 E0.7965
G1 X58.149 Y9.607 E0.8893
G1 X60.000 Y9.789 E0.9821
G1 X61.851 Y9.607 E1.0749
G1 X63.631 Y9.067 E1.1677
G1 X65.271 Y8.190 E1.2605
G1 X66.709 Y7.010 E1.3533
G1 X67.883 Y5.580 E1.4456
G1 X69.244 Y2.990 E1.5915
G1 X69.432 Y2.791 E1.6052
G1 X70.618 Y2.074 E1.6744
G1 X70.882 Y2.000 E1.6880
G1 X73.526 Y1.999 E1.8199
G1 X73.894 Y2.151 E1.8398
G1 X75.000 Y3.257 E1.9178
G1 X76.105 Y2.152 E1.9958
G1 X76.473 Y1.1000 E2.0156
G1 X79.244 Y1.1000 E2.1539
G1 X79.550 Y2.100 E2.1699
G1 X80.869 Y3.079 E2.2519
G1 X81.055 Y3.342 E2.2680
G1 X81.234 Y3.931 E2.2987
G1 X82.111 Y5.572 E2.3915
G1 X83.291 Y7.010 E2.4843
G1 X84.729 Y8.190 E2.5771
G1 X86.369 Y9.067 E2.6699
G1 X88.149 Y9.607 E2.7627
G1 X90.000 Y9.789 E2.8555
G1 X91.851 Y9.607 E2.9483
G1 X93.631 Y9.067 E3.0411
G1 X95.271 Y8.190 E3.1339
G1 X96.709 Y7.010 E3.2267
G1 X97.883 Y5.580 E3.3190
G1 X99.244 Y2.990 E3.4649
G1 X99.432 Y2.791 E3.4786
G1 X100.618 Y2.074 E3.5478
G1 X100.882 Y2.000 E3.5614
G1 X103.526 Y1.999 E3.6933
G1 X103.894 Y2.151 E3.7132
G1 X105.348 Y3.604 E3.8157
G1 X105.500 Y3.972 E3.8356
G1 X105.500 Y146.028 E10.9228
G1 X105.348 Y146.395 E10.9427
G1 X103.895 Y147.848 E11.0452
G1 X103.527 Y148.000 E11.0650
G1 X100.968 Y148.000 E11.1927
G1 X100.662 Y147.900 E11.2088
G1 X99.342 Y146.921 E11.2907
G1 X99.157 Y146.658 E11.3068
G1 X98.766 Y145.369 E11.3740
G1 X97.889 Y143.729 E11.4667
G1 X96.709 Y142.291 E11.5596
G1 X95.271 Y141.111 E11.6524
G1 X93.631 Y140.234 E11.7451
G1 X91.851 Y139.694 E11.8380
G1 X90.000 Y139.512 E11.9308
G1 X88.149 Y139.694 E12.0235
G1 X86.369 Y140.234 E12.1164
G1 X84.729 Y141.111 E12.2091
G1 X83.291 Y142.291 E12.3020
G1 X82.111 Y143.729 E12.3948
G1 X81.234 Y145.369 E12.4875
G1 X80.843 Y146.658 E12.5547
G1 X80.658 Y146.921 E12.5708
G1 X79.338 Y147.900 E12.6527
G1 X79.032 Y148.000 E12.6688
G1 X76.473 Y148.000 E12.7965
G1 X76.105 Y147.848 E12.8163
G1 X75.000 Y146.743 E12.8943
G1 X73.895 Y147.848 E12.9723
G1 X73.527 Y148.000 E12.9921
G1 X70.968 Y148.000 E13.1198
G1 X70.662 Y147.900 E13.1359
G1 X69.342 Y146.921 E13.2179
G1 X69.157 Y146.658 E13.2339
G1 X68.766 Y145.369 E13.3011
G1 X67.889 Y143.729 E13.3939
G1 X66.709 Y142.291 E13.4867
G1 X65.271 Y141.111 E13.5795
G1 X63.631 Y140.234 E13.6723
G1 X61.851 Y139.694 E13.7651
G1 X60.000 Y139.512 E13.8579
G1 X58.149 Y139.694 E13.9507
G1 X56.369 Y140.234 E14.0435
G1 X54.729 Y141.111 E14.1363
G1 X53.291 Y142.291 E14.2291
G1 X52.111 Y143.729 E14.3219
G1 X51.234 Y145.369 E14.4147
G1 X50.843 Y146.658 E14.4819
G1 X50.658 Y146.921 E14.4979
G1 X49.338 Y147.900 E14.5799
G1 X49.032 Y148.000 E14.5959
G1 X46.473 Y148.000 E14.7236
G1 X46.105 Y147.848 E14.7435
G1 X44.652 Y146.395 E14.8460
G1 X44.500 Y146.028 E14.8658
G1 X44.500 Y3.972 E21.9530
G1 X44.900 Y4.052 F4200
G92 E0
G1 X44.991 Y3.831 E0.0119 F1350
G1 X46.332 Y2.491 E0.1065
G1 X46.552 Y2.400 E0.1184
G1 X49.180 Y2.400 E0.2495
G1 X49.363 Y2.460 E0.2591
G1 X50.580 Y3.362 E0.3347
G1 X50.691 Y3.520 E0.3443
G1 X50.862 Y4.085 E0.3738
G1 X51.776 Y5.795 E0.4705
G1 X53.006 Y7.294 E0.5672
G1 X54.505 Y8.524 E0.6640
G1 X56.215 Y9.438 E0.7607
G1 X58.071 Y10.001 E0.8574
G1 X60.000 Y10.191 E0.9542
G1 X61.929 Y10.001 E1.0509
G1 X63.785 Y9.438 E1.1476
G1 X65.495 Y8.524 E1.2443
G1 X66.994 Y7.294 E1.3411
G1 X68.218 Y5.802 E1.4374
G1 X69.573 Y3.225 E1.5826
G1 X69.685 Y3.105 E1.5908
G1 X70.779 Y2.445 E1.6546
G1 X70.936 Y2.400 E1.6627
G1 X73.447 Y2.399 E1.7880
G1 X73.667 Y2.490 E1.7999
G1 X75.000 Y3.822 E1.8939
G1 X76.332 Y2.491 E1.9878
G1 X76.552 Y2.400 E1.9998
G1 X79.180 Y2.400 E2.1308
G1 X79.363 Y2.460 E2.1405
G1 X80.579 Y3.362 E2.2160
G1 X80.691 Y3.520 E2.2256
G1 X80.862 Y4.085 E2.2551
G1 X81.776 Y5.795 E2.3519
G1 X83.006 Y7.294 E2.4486
G1 X84.505 Y8.524 E2.5454
G1 X86.215 Y9.438 E2.6421
G1 X88.071 Y10.001 E2.7388
G1 X90.000 Y10.191 E2.8355
G1 X91.929 Y10.001 E2.9322
G1 X93.785 Y9.438 E3.0290
G1 X95.495 Y8.524 E3.1257
G1 X96.994 Y7.294 E3.2225
G1 X98.218 Y5.802 E3.3187
G1 X99.573 Y3.225 E3.4640
G1 X99.685 Y3.105 E3.4722
G1 X100.779 Y2.445 E3.5359
G1 X100.936 Y2.400 E3.5441
G1 X103.447 Y2.399 E3.6693
G1 X103.667 Y2.490 E3.6812
G1 X105.009 Y3.831 E3.7759
G1 X105.100 Y4.051 E3.7878
G1 X105.100 Y145.948 E10.8670
G1 X105.009 Y146.169 E10.8789
G1 X103.668 Y147.509 E10.9735
G1 X103.448 Y147.600 E10.9854
