; G-Code generated by Simplify3D(R) Version 3.0.2
; Sep 7, 2015 at 11:18:58 AM
; Settings Summary
;   processName,Process1
;   applyToModels,solderless_Roller_Motor_Mount
;   profileName,PrinterBot Simple Metal Custom (modified)
;   profileVersion,2015-05-01 08:00:00
;   baseProfile,Default (modified)
;   printMaterial,PLA
;   printQuality,Medium
;   printExtruders,
;   extruderName,Primary Extruder
;   extruderToolheadNumber,0
;   extruderDiameter,0.4
;   extruderAutoWidth,0
;   extruderWidth,0.4
;   extrusionMultiplier,1
;   extruderUseRetract,1
;   extruderRetractionDistance,1
;   extruderExtraRestartDistance,0
;   extruderRetractionZLift,0
;   extruderRetractionSpeed,1800
;   extruderUseCoasting,0
;   extruderCoastingDistance,0.2
;   extruderUseWipe,0
;   extruderWipeDistance,5
;   primaryExtruder,0
;   layerHeight,0.2
;   topSolidLayers,3
;   bottomSolidLayers,3
;   perimeterOutlines,2
;   printPerimetersInsideOut,1
;   startPointOption,2
;   startPointOriginX,0
;   startPointOriginY,0
;   startPointOriginZ,300
;   sequentialIslands,0
;   spiralVaseMode,0
;   firstLayerHeightPercentage,90
;   firstLayerWidthPercentage,100
;   firstLayerUnderspeed,0.5
;   useRaft,0
;   raftExtruder,0
;   raftLayers,3
;   raftOffset,3
;   raftSeparationDistance,0.14
;   raftInfill,85
;   disableRaftBaseLayers,0
;   useSkirt,1
;   skirtExtruder,0
;   skirtLayers,1
;   skirtOutlines,4
;   skirtOffset,4
;   usePrimePillar,0
;   primePillarExtruder,999
;   primePillarWidth,12
;   primePillarLocation,7
;   primePillarSpeedMultiplier,1
;   useOozeShield,0
;   oozeShieldExtruder,999
;   oozeShieldOffset,2
;   oozeShieldOutlines,1
;   oozeShieldSidewallShape,1
;   oozeShieldSidewallAngle,30
;   oozeShieldSpeedMultiplier,1
;   infillExtruder,0
;   internalInfillPattern,Rectilinear
;   externalInfillPattern,Rectilinear
;   infillPercentage,70
;   outlineOverlapPercentage,15
;   infillExtrusionWidthPercentage,100
;   minInfillLength,5
;   infillLayerInterval,1
;   infillAngles,45,-45
;   overlapInfillAngles,0
;   generateSupport,0
;   supportExtruder,0
;   supportInfillPercentage,30
;   supportExtraInflation,0
;   denseSupportLayers,0
;   denseSupportInfillPercentage,70
;   supportLayerInterval,1
;   supportHorizontalPartOffset,0.3
;   supportUpperSeparationLayers,1
;   supportLowerSeparationLayers,1
;   supportType,0
;   supportGridSpacing,4
;   maxOverhangAngle,45
;   supportAngles,0
;   temperatureName,Primary Extruder,Heated Bed
;   temperatureNumber,0,1
;   temperatureSetpointCount,2,3
;   temperatureSetpointLayers,1,2,1,2,3
;   temperatureSetpointTemperatures,210,200,70,65,63
;   temperatureStabilizeAtStartup,1,1
;   temperatureHeatedBed,0,1
;   temperatureRelayBetweenLayers,0,0
;   temperatureRelayBetweenLoops,0,0
;   fanLayers,1,2
;   fanSpeeds,0,100
;   blipFanToFullPower,1
;   adjustSpeedForCooling,1
;   minSpeedLayerTime,15
;   minCoolingSpeedSlowdown,20
;   increaseFanForCooling,0
;   minFanLayerTime,45
;   maxCoolingFanSpeed,100
;   increaseFanForBridging,0
;   bridgingFanSpeed,100
;   use5D,1
;   relativeEdistances,0
;   allowEaxisZeroing,1
;   independentExtruderAxes,0
;   includeM10123,0
;   stickySupport,1
;   applyToolheadOffsets,0
;   gcodeXoffset,0
;   gcodeYoffset,0
;   gcodeZoffset,0
;   overrideMachineDefinition,1
;   machineTypeOverride,0
;   strokeXoverride,150
;   strokeYoverride,150
;   strokeZoverride,150
;   originOffsetXoverride,0
;   originOffsetYoverride,0
;   originOffsetZoverride,0
;   homeXdirOverride,-1
;   homeYdirOverride,-1
;   homeZdirOverride,-1
;   flipXoverride,1
;   flipYoverride,-1
;   flipZoverride,1
;   toolheadOffsets,0,0|0,0|0,0|0,0|0,0|0,0
;   overrideFirmwareConfiguration,1
;   firmwareTypeOverride,RepRap (Marlin/Repetier/Sprinter)
;   GPXconfigOverride,r2
;   baudRateOverride,250000
;   overridePrinterModels,1
;   printerModelsOverride
;   startingGcode,G28 X0 Y0 ; home X and Y axes,G29 ; probe z
;   layerChangeGcode,
;   retractionGcode,
;   toolChangeGcode,
;   endingGcode,M104 S0 T0 ; turn off extruder,M140 S0 T1 ; turn off bed,G28 X0 Y0 ; home,M84 ; disable motors
;   createX3G,0
;   celebration,0
;   celebrationSong,Random Song
;   createMB5G,0
;   postProcessing,
;   defaultSpeed,2700
;   outlineUnderspeed,0.8
;   solidInfillUnderspeed,0.8
;   supportUnderspeed,0.8
;   rapidXYspeed,4200
;   rapidZspeed,1002
;   minBridgingArea,50
;   bridgingExtraInflation,0
;   bridgingExtrusionMultiplier,1
;   bridgingSpeedMultiplier,1
;   filamentDiameter,1.75
;   filamentPricePerKg,22
;   filamentDensity,1.25
;   useMinPrintHeight,0
;   minPrintHeight,0
;   useMaxPrintHeight,0
;   maxPrintHeight,0
;   useDiaphragm,0
;   diaphragmLayerInterval,20
;   robustSlicing,1
;   mergeAllIntoSolid,0
;   onlyRetractWhenCrossingOutline,1
;   retractBetweenLayers,1
;   useRetractionMinTravel,0
;   retractionMinTravel,3
;   retractWhileWiping,0
;   onlyWipeOutlines,1
;   avoidCrossingOutline,0
;   maxMovementDetourFactor,3
;   toolChangeRetractionDistance,12
;   toolChangeExtraRestartDistance,-0.5
;   toolChangeRetractionSpeed,600
;   allowThinWallGapFill,1
;   thinWallAllowedOverlapPercentage,10
;   horizontalSizeCompensation,0
G90
M82
M106 S0
M140 S70
M190 S70
M104 S210 T0
M109 S210 T0
G28 X0 Y0 ; home X and Y axes
G29 ; probe z
G92 E0
G1 E-1.0000 F1800
G1 Z0.180 F1002
; layer 1, Z = 0.18
T0
; tool H0.200 W0.400
; skirt
G1 X29.387 Y35.493 F4200
G1 E0.0000 F540
G92 E0
G1 X29.425 Y35.480 E0.0013 F1350
G1 X29.681 Y35.402 E0.0103
G1 X29.720 Y35.392 E0.0116
G1 X30.385 Y35.230 E0.0343
G1 X30.434 Y35.220 E0.0360
G1 X30.766 Y35.164 E0.0472
G1 X30.816 Y35.157 E0.0489
G1 X31.854 Y35.058 E0.0836
G1 X31.887 Y35.055 E0.0847
G1 X32.111 Y35.045 E0.0921
G1 X32.145 Y35.044 E0.0933
G1 X58.162 Y35.044 E0.9586
G1 X59.255 Y33.207 E1.0297
G1 X59.265 Y33.192 E1.0303
G1 X59.327 Y33.093 E1.0342
G1 X59.336 Y33.078 E1.0347
G1 X59.631 Y32.635 E1.0525
G1 X59.662 Y32.592 E1.0542
G1 X59.877 Y32.315 E1.0659
G1 X59.911 Y32.275 E1.0676
G1 X60.587 Y31.530 E1.1011
G1 X60.636 Y31.480 E1.1034
G1 X60.983 Y31.166 E1.1190
G1 X61.037 Y31.122 E1.1213
G1 X61.894 Y30.490 E1.1567
G1 X61.952 Y30.452 E1.1590
G1 X62.355 Y30.212 E1.1746
G1 X62.416 Y30.180 E1.1769
G1 X63.328 Y29.754 E1.2104
G1 X63.377 Y29.734 E1.2121
G1 X63.705 Y29.610 E1.2238
G1 X63.755 Y29.593 E1.2255
G1 X64.378 Y29.409 E1.2471
G1 X64.428 Y29.396 E1.2489
G1 X64.772 Y29.322 E1.2606
G1 X64.823 Y29.313 E1.2623
G1 X65.762 Y29.183 E1.2938
G1 X65.814 Y29.178 E1.2956
G1 X66.164 Y29.156 E1.3072
G1 X66.216 Y29.154 E1.3090
G1 X66.866 Y29.162 E1.3306
G1 X66.918 Y29.165 E1.3323
G1 X67.268 Y29.195 E1.3440
G1 X67.320 Y29.201 E1.3457
G1 X68.197 Y29.344 E1.3753
G1 X68.232 Y29.350 E1.3765
G1 X68.460 Y29.399 E1.3842
G1 X68.494 Y29.407 E1.3854
G1 X121.563 Y43.558 E3.2122
G1 X121.581 Y43.563 E3.2128
G1 X121.697 Y43.597 E3.2168
G1 X121.714 Y43.602 E3.2174
G1 X122.263 Y43.779 E3.2366
G1 X122.296 Y43.791 E3.2377
G1 X122.517 Y43.875 E3.2456
G1 X122.550 Y43.888 E3.2468
G1 X123.137 Y44.145 E3.2681
G1 X123.168 Y44.160 E3.2692
G1 X123.379 Y44.265 E3.2771
G1 X123.410 Y44.282 E3.2783
G1 X123.964 Y44.593 E3.2994
G1 X123.994 Y44.611 E3.3005
G1 X124.193 Y44.737 E3.3084
G1 X124.222 Y44.757 E3.3096
G1 X124.744 Y45.124 E3.3308
G1 X124.773 Y45.145 E3.3320
G1 X124.959 Y45.291 E3.3398
G1 X124.986 Y45.313 E3.3410
G1 X125.470 Y45.733 E3.3623
G1 X125.496 Y45.756 E3.3635
G1 X125.667 Y45.920 E3.3713
G1 X125.692 Y45.945 E3.3725
G1 X126.131 Y46.411 E3.3938
G1 X126.154 Y46.437 E3.3950
G1 X126.308 Y46.617 E3.4028
G1 X126.330 Y46.645 E3.4040
G1 X126.720 Y47.152 E3.4253
G1 X126.741 Y47.181 E3.4265
G1 X126.875 Y47.376 E3.4344
G1 X126.895 Y47.405 E3.4355
G1 X127.231 Y47.949 E3.4568
G1 X127.249 Y47.980 E3.4580
G1 X127.364 Y48.187 E3.4659
G1 X127.380 Y48.219 E3.4670
G1 X127.660 Y48.794 E3.4883
G1 X127.675 Y48.826 E3.4895
G1 X127.768 Y49.044 E3.4974
G1 X127.781 Y49.077 E3.4985
G1 X128.002 Y49.677 E3.5198
G1 X128.013 Y49.710 E3.5210
G1 X128.084 Y49.936 E3.5289
G1 X128.093 Y49.970 E3.5301
G1 X128.253 Y50.590 E3.5513
G1 X128.261 Y50.624 E3.5525
G1 X128.308 Y50.856 E3.5604
G1 X128.315 Y50.891 E3.5616
G1 X128.411 Y51.524 E3.5828
G1 X128.415 Y51.559 E3.5840
G1 X128.439 Y51.794 E3.5919
G1 X128.442 Y51.830 E3.5931
G1 X128.471 Y52.410 E3.6124
G1 X128.472 Y52.427 E3.6130
G1 X128.475 Y52.546 E3.6169
G1 X128.475 Y52.563 E3.6175
G1 X128.475 Y96.080 E5.0649
G1 X128.475 Y96.097 E5.0654
G1 X128.472 Y96.216 E5.0694
G1 X128.471 Y96.233 E5.0700
G1 X128.442 Y96.815 E5.0893
G1 X128.439 Y96.851 E5.0905
G1 X128.415 Y97.090 E5.0985
G1 X128.410 Y97.126 E5.0997
G1 X128.312 Y97.764 E5.1212
G1 X128.306 Y97.799 E5.1224
G1 X128.259 Y98.027 E5.1301
G1 X128.251 Y98.061 E5.1313
G1 X128.093 Y98.673 E5.1523
G1 X128.084 Y98.707 E5.1535
G1 X128.013 Y98.933 E5.1614
G1 X128.002 Y98.966 E5.1625
G1 X127.781 Y99.567 E5.1838
G1 X127.768 Y99.599 E5.1850
G1 X127.675 Y99.817 E5.1929
G1 X127.660 Y99.849 E5.1940
G1 X127.380 Y100.424 E5.2153
G1 X127.364 Y100.456 E5.2165
G1 X127.249 Y100.663 E5.2244
G1 X127.231 Y100.694 E5.2255
G1 X126.895 Y101.238 E5.2468
G1 X126.875 Y101.267 E5.2480
G1 X126.741 Y101.462 E5.2559
G1 X126.720 Y101.491 E5.2571
G1 X126.330 Y101.998 E5.2783
G1 X126.308 Y102.026 E5.2795
G1 X126.154 Y102.206 E5.2874
G1 X126.131 Y102.232 E5.2886
G1 X125.692 Y102.698 E5.3098
G1 X125.667 Y102.723 E5.3110
G1 X125.496 Y102.887 E5.3189
G1 X125.470 Y102.911 E5.3201
G1 X124.986 Y103.330 E5.3413
G1 X124.959 Y103.352 E5.3425
G1 X124.772 Y103.498 E5.3504
G1 X124.744 Y103.519 E5.3516
G1 X124.221 Y103.887 E5.3729
G1 X124.192 Y103.907 E5.3740
G1 X123.991 Y104.033 E5.3819
G1 X123.961 Y104.051 E5.3831
G1 X123.403 Y104.365 E5.4044
G1 X123.372 Y104.382 E5.4055
G1 X123.160 Y104.487 E5.4134
G1 X123.128 Y104.502 E5.4146
G1 X122.540 Y104.759 E5.4359
G1 X122.507 Y104.772 E5.4371
G1 X122.283 Y104.857 E5.4451
G1 X122.250 Y104.869 E5.4463
G1 X121.687 Y105.049 E5.4659
G1 X121.670 Y105.054 E5.4665
G1 X121.559 Y105.087 E5.4704
G1 X121.542 Y105.091 E5.4709
G1 X63.116 Y120.654 E7.4820
G1 X63.056 Y120.667 E7.4840
G1 X62.655 Y120.738 E7.4975
G1 X62.594 Y120.746 E7.4996
G1 X61.598 Y120.832 E7.5328
G1 X61.568 Y120.834 E7.5338
G1 X61.364 Y120.843 E7.5406
G1 X61.334 Y120.844 E7.5416
G1 X32.145 Y120.844 E8.5125
G1 X32.111 Y120.843 E8.5136
G1 X31.887 Y120.832 E8.5210
G1 X31.854 Y120.830 E8.5221
G1 X30.759 Y120.725 E8.5587
G1 X30.692 Y120.715 E8.5610
G1 X30.249 Y120.630 E8.5760
G1 X30.183 Y120.614 E8.5782
G1 X29.078 Y120.287 E8.6166
G1 X29.033 Y120.272 E8.6182
G1 X28.735 Y120.161 E8.6287
G1 X28.691 Y120.143 E8.6303
G1 X27.197 Y119.471 E8.6848
G1 X26.890 Y119.208 E8.6982
G1 X25.388 Y116.885 E8.7902
G1 X25.273 Y116.497 E8.8037
G1 X25.273 Y95.960 E9.4868
G1 X25.327 Y95.690 E9.4959
G1 X26.039 Y93.967 E9.5579
G1 X26.192 Y93.738 E9.5671
G1 X27.680 Y92.247 E9.6372
G1 X27.703 Y92.225 E9.6382
G1 X27.861 Y92.080 E9.6453
G1 X27.885 Y92.059 E9.6464
G1 X29.176 Y90.982 E9.7023
G1 X29.204 Y90.959 E9.7035
G1 X29.399 Y90.814 E9.7116
G1 X29.428 Y90.793 E9.7128
G1 X30.835 Y89.846 E9.7692
G1 X30.866 Y89.827 E9.7704
G1 X31.074 Y89.702 E9.7785
G1 X31.106 Y89.684 E9.7797
G1 X32.603 Y88.888 E9.8361
G1 X32.635 Y88.872 E9.8373
G1 X32.855 Y88.769 E9.8454
G1 X32.888 Y88.755 E9.8466
G1 X34.459 Y88.118 E9.9030
G1 X34.493 Y88.105 E9.9042
G1 X34.723 Y88.026 E9.9122
G1 X34.758 Y88.015 E9.9134
G1 X36.386 Y87.543 E9.9698
G1 X36.421 Y87.534 E9.9710
G1 X36.658 Y87.479 E9.9791
G1 X36.693 Y87.471 E9.9803
G1 X38.362 Y87.170 E10.0367
G1 X38.398 Y87.165 E10.0379
G1 X38.639 Y87.134 E10.0460
G1 X38.675 Y87.131 E10.0472
G1 X40.365 Y87.004 E10.1036
G1 X40.401 Y87.002 E10.1048
G1 X40.644 Y86.996 E10.1129
G1 X40.681 Y86.996 E10.1141
G1 X42.315 Y87.043 E10.1685
G1 X42.333 Y87.044 E10.1691
G1 X42.454 Y87.050 E10.1731
G1 X42.472 Y87.051 E10.1737
G1 X58.018 Y88.300 E10.6924
G1 X59.214 Y88.334 E10.7322
G1 X60.283 Y88.254 E10.7679
G1 X61.338 Y88.064 E10.8035
G1 X62.368 Y87.767 E10.8392
G1 X63.362 Y87.365 E10.8748
G1 X64.309 Y86.863 E10.9105
G1 X65.199 Y86.267 E10.9461
G1 X66.023 Y85.581 E10.9818
G1 X66.773 Y84.815 E11.0174
G1 X67.439 Y83.975 E11.0531
G1 X68.015 Y83.071 E11.0887
G1 X68.495 Y82.113 E11.1244
G1 X68.874 Y81.110 E11.1601
G1 X69.147 Y80.073 E11.1957
G1 X69.312 Y79.014 E11.2314
G1 X69.368 Y77.944 E11.2670
G1 X69.312 Y76.873 E11.3027
G1 X69.147 Y75.814 E11.3383
G1 X68.874 Y74.778 E11.3740
G1 X68.495 Y73.775 E11.4096
G1 X68.015 Y72.817 E11.4453
G1 X67.439 Y71.913 E11.4809
G1 X66.773 Y71.073 E11.5166
G1 X66.023 Y70.306 E11.5522
G1 X65.199 Y69.621 E11.5879
G1 X64.309 Y69.024 E11.6235
G1 X63.362 Y68.522 E11.6592
G1 X62.368 Y68.121 E11.6948
G1 X61.338 Y67.823 E11.7305
G1 X60.285 Y67.634 E11.7661
G1 X59.206 Y67.554 E11.8021
G1 X58.003 Y67.588 E11.8421
G1 X42.472 Y68.836 E12.3603
G1 X42.454 Y68.837 E12.3609
G1 X42.333 Y68.844 E12.3649
G1 X42.315 Y68.845 E12.3656
G1 X40.681 Y68.891 E12.4199
G1 X40.644 Y68.891 E12.4211
G1 X40.401 Y68.886 E12.4292
G1 X40.365 Y68.884 E12.4304
G1 X38.675 Y68.757 E12.4868
G1 X38.639 Y68.753 E12.4880
G1 X38.398 Y68.723 E12.4961
G1 X38.362 Y68.717 E12.4973
G1 X36.693 Y68.416 E12.5537
G1 X36.658 Y68.409 E12.5549
G1 X36.421 Y68.354 E12.5630
G1 X36.386 Y68.344 E12.5642
G1 X34.758 Y67.873 E12.6206
G1 X34.723 Y67.862 E12.6218
G1 X34.493 Y67.782 E12.6299
G1 X34.459 Y67.770 E12.6311
G1 X32.888 Y67.133 E12.6874
G1 X32.855 Y67.118 E12.6886
G1 X32.635 Y67.015 E12.6967
G1 X32.603 Y66.999 E12.6979
G1 X31.106 Y66.203 E12.7543
G1 X31.074 Y66.186 E12.7555
G1 X30.866 Y66.061 E12.7636
G1 X30.835 Y66.041 E12.7648
G1 X29.428 Y65.095 E12.8212
G1 X29.399 Y65.074 E12.8224
G1 X29.204 Y64.928 E12.8305
G1 X29.176 Y64.906 E12.8317
G1 X27.885 Y63.829 E12.8876
G1 X27.861 Y63.808 E12.8887
G1 X27.703 Y63.663 E12.8958
G1 X27.680 Y63.641 E12.8969
G1 X26.192 Y62.150 E12.9669
G1 X26.039 Y61.921 E12.9761
G1 X25.327 Y60.198 E13.0381
G1 X25.273 Y59.928 E13.0472
G1 X25.273 Y39.302 E13.7333
G1 X25.402 Y38.892 E13.7476
G1 X27.086 Y36.478 E13.8455
G1 X27.426 Y36.215 E13.8597
G1 X29.387 Y35.493 E13.9292
G1 X29.520 Y35.870 F4200
G92 E0
G1 X29.547 Y35.861 E0.0009 F1350
G1 X29.793 Y35.786 E0.0095
G1 X29.820 Y35.779 E0.0104
G1 X30.472 Y35.620 E0.0328
G1 X30.508 Y35.613 E0.0340
G1 X30.825 Y35.559 E0.0447
G1 X30.861 Y35.555 E0.0459
G1 X31.887 Y35.456 E0.0802
G1 X31.911 Y35.455 E0.0810
G1 X32.126 Y35.444 E0.0881
G1 X32.150 Y35.444 E0.0889
G1 X58.389 Y35.444 E0.9616
G1 X59.598 Y33.413 E1.0402
G1 X59.604 Y33.403 E1.0406
G1 X59.664 Y33.308 E1.0444
G1 X59.671 Y33.298 E1.0448
G1 X59.960 Y32.862 E1.0622
G1 X59.982 Y32.832 E1.0634
G1 X60.189 Y32.567 E1.0746
G1 X60.213 Y32.538 E1.0758
G1 X60.876 Y31.805 E1.1087
G1 X60.912 Y31.770 E1.1104
G1 X61.244 Y31.470 E1.1253
G1 X61.283 Y31.438 E1.1269
G1 X62.123 Y30.818 E1.1617
G1 X62.165 Y30.790 E1.1633
G1 X62.551 Y30.561 E1.1783
G1 X62.595 Y30.538 E1.1799
G1 X63.491 Y30.120 E1.2128
G1 X63.525 Y30.106 E1.2140
G1 X63.840 Y29.987 E1.2252
G1 X63.875 Y29.975 E1.2265
G1 X64.484 Y29.795 E1.2476
G1 X64.520 Y29.786 E1.2488
G1 X64.849 Y29.715 E1.2600
G1 X64.885 Y29.708 E1.2612
G1 X65.809 Y29.580 E1.2923
G1 X65.846 Y29.577 E1.2935
G1 X66.182 Y29.555 E1.3047
G1 X66.219 Y29.555 E1.3059
G1 X66.854 Y29.562 E1.3270
G1 X66.891 Y29.564 E1.3283
G1 X67.226 Y29.593 E1.3395
G1 X67.263 Y29.597 E1.3407
G1 X68.128 Y29.738 E1.3699
G1 X68.153 Y29.742 E1.3707
G1 X68.372 Y29.789 E1.3781
G1 X68.396 Y29.795 E1.3790
G1 X121.458 Y43.944 E3.2055
G1 X121.470 Y43.947 E3.2059
G1 X121.581 Y43.980 E3.2098
G1 X121.594 Y43.984 E3.2102
G1 X122.135 Y44.158 E3.2291
G1 X122.159 Y44.167 E3.2299
G1 X122.371 Y44.247 E3.2375
G1 X122.394 Y44.256 E3.2383
G1 X122.972 Y44.509 E3.2593
G1 X122.994 Y44.520 E3.2601
G1 X123.196 Y44.621 E3.2676
G1 X123.218 Y44.633 E3.2685
G1 X123.763 Y44.939 E3.2893
G1 X123.784 Y44.952 E3.2901
G1 X123.975 Y45.073 E3.2976
G1 X123.996 Y45.087 E3.2984
G1 X124.510 Y45.448 E3.3193
G1 X124.530 Y45.463 E3.3202
G1 X124.709 Y45.603 E3.3277
G1 X124.728 Y45.619 E3.3285
G1 X125.204 Y46.031 E3.3495
G1 X125.223 Y46.048 E3.3503
G1 X125.386 Y46.206 E3.3579
G1 X125.404 Y46.223 E3.3587
G1 X125.836 Y46.682 E3.3797
G1 X125.853 Y46.700 E3.3805
G1 X126.000 Y46.873 E3.3880
G1 X126.016 Y46.893 E3.3889
G1 X126.400 Y47.392 E3.4098
G1 X126.414 Y47.412 E3.4107
G1 X126.543 Y47.599 E3.4182
