; G-Code generated by Simplify3D(R) Version 3.0.2
; Sep 7, 2015 at 11:31:10 AM
; Settings Summary
;   processName,Process1
;   applyToModels,z_nut_lock
;   profileName,PrinterBot Simple Metal Custom (modified)
;   profileVersion,2015-05-01 08:00:00
;   baseProfile,Default (modified)
;   printMaterial,PLA
;   printQuality,Medium
;   printExtruders,
;   extruderName,Primary Extruder
;   extruderToolheadNumber,0
;   extruderDiameter,0.4
;   extruderAutoWidth,0
;   extruderWidth,0.4
;   extrusionMultiplier,1
;   extruderUseRetract,1
;   extruderRetractionDistance,1
;   extruderExtraRestartDistance,0
;   extruderRetractionZLift,0
;   extruderRetractionSpeed,1800
;   extruderUseCoasting,0
;   extruderCoastingDistance,0.2
;   extruderUseWipe,0
;   extruderWipeDistance,5
;   primaryExtruder,0
;   layerHeight,0.2
;   topSolidLayers,3
;   bottomSolidLayers,3
;   perimeterOutlines,2
;   printPerimetersInsideOut,1
;   startPointOption,2
;   startPointOriginX,0
;   startPointOriginY,0
;   startPointOriginZ,300
;   sequentialIslands,0
;   spiralVaseMode,0
;   firstLayerHeightPercentage,90
;   firstLayerWidthPercentage,100
;   firstLayerUnderspeed,0.5
;   useRaft,0
;   raftExtruder,0
;   raftLayers,3
;   raftOffset,3
;   raftSeparationDistance,0.14
;   raftInfill,85
;   disableRaftBaseLayers,0
;   useSkirt,1
;   skirtExtruder,0
;   skirtLayers,1
;   skirtOutlines,4
;   skirtOffset,4
;   usePrimePillar,0
;   primePillarExtruder,999
;   primePillarWidth,12
;   primePillarLocation,7
;   primePillarSpeedMultiplier,1
;   useOozeShield,0
;   oozeShieldExtruder,999
;   oozeShieldOffset,2
;   oozeShieldOutlines,1
;   oozeShieldSidewallShape,1
;   oozeShieldSidewallAngle,30
;   oozeShieldSpeedMultiplier,1
;   infillExtruder,0
;   internalInfillPattern,Rectilinear
;   externalInfillPattern,Rectilinear
;   infillPercentage,70
;   outlineOverlapPercentage,15
;   infillExtrusionWidthPercentage,100
;   minInfillLength,5
;   infillLayerInterval,1
;   infillAngles,45,-45
;   overlapInfillAngles,0
;   generateSupport,0
;   supportExtruder,0
;   supportInfillPercentage,30
;   supportExtraInflation,0
;   denseSupportLayers,0
;   denseSupportInfillPercentage,70
;   supportLayerInterval,1
;   supportHorizontalPartOffset,0.3
;   supportUpperSeparationLayers,1
;   supportLowerSeparationLayers,1
;   supportType,0
;   supportGridSpacing,4
;   maxOverhangAngle,45
;   supportAngles,0
;   temperatureName,Primary Extruder,Heated Bed
;   temperatureNumber,0,1
;   temperatureSetpointCount,2,3
;   temperatureSetpointLayers,1,2,1,2,3
;   temperatureSetpointTemperatures,210,200,70,65,63
;   temperatureStabilizeAtStartup,1,1
;   temperatureHeatedBed,0,1
;   temperatureRelayBetweenLayers,0,0
;   temperatureRelayBetweenLoops,0,0
;   fanLayers,1,2
;   fanSpeeds,0,100
;   blipFanToFullPower,1
;   adjustSpeedForCooling,1
;   minSpeedLayerTime,15
;   minCoolingSpeedSlowdown,20
;   increaseFanForCooling,0
;   minFanLayerTime,45
;   maxCoolingFanSpeed,100
;   increaseFanForBridging,0
;   bridgingFanSpeed,100
;   use5D,1
;   relativeEdistances,0
;   allowEaxisZeroing,1
;   independentExtruderAxes,0
;   includeM10123,0
;   stickySupport,1
;   applyToolheadOffsets,0
;   gcodeXoffset,0
;   gcodeYoffset,0
;   gcodeZoffset,0
;   overrideMachineDefinition,1
;   machineTypeOverride,0
;   strokeXoverride,150
;   strokeYoverride,150
;   strokeZoverride,150
;   originOffsetXoverride,0
;   originOffsetYoverride,0
;   originOffsetZoverride,0
;   homeXdirOverride,-1
;   homeYdirOverride,-1
;   homeZdirOverride,-1
;   flipXoverride,1
;   flipYoverride,-1
;   flipZoverride,1
;   toolheadOffsets,0,0|0,0|0,0|0,0|0,0|0,0
;   overrideFirmwareConfiguration,1
;   firmwareTypeOverride,RepRap (Marlin/Repetier/Sprinter)
;   GPXconfigOverride,r2
;   baudRateOverride,250000
;   overridePrinterModels,1
;   printerModelsOverride
;   startingGcode,G28 X0 Y0 ; home X and Y axes,G29 ; probe z
;   layerChangeGcode,
;   retractionGcode,
;   toolChangeGcode,
;   endingGcode,M104 S0 T0 ; turn off extruder,M140 S0 T1 ; turn off bed,G28 X0 Y0 ; home,M84 ; disable motors
;   createX3G,0
;   celebration,0
;   celebrationSong,Random Song
;   createMB5G,0
;   postProcessing,
;   defaultSpeed,2700
;   outlineUnderspeed,0.8
;   solidInfillUnderspeed,0.8
;   supportUnderspeed,0.8
;   rapidXYspeed,4200
;   rapidZspeed,1002
;   minBridgingArea,50
;   bridgingExtraInflation,0
;   bridgingExtrusionMultiplier,1
;   bridgingSpeedMultiplier,1
;   filamentDiameter,1.75
;   filamentPricePerKg,22
;   filamentDensity,1.25
;   useMinPrintHeight,0
;   minPrintHeight,0
;   useMaxPrintHeight,0
;   maxPrintHeight,0
;   useDiaphragm,0
;   diaphragmLayerInterval,20
;   robustSlicing,1
;   mergeAllIntoSolid,0
;   onlyRetractWhenCrossingOutline,1
;   retractBetweenLayers,1
;   useRetractionMinTravel,0
;   retractionMinTravel,3
;   retractWhileWiping,0
;   onlyWipeOutlines,1
;   avoidCrossingOutline,0
;   maxMovementDetourFactor,3
;   toolChangeRetractionDistance,12
;   toolChangeExtraRestartDistance,-0.5
;   toolChangeRetractionSpeed,600
;   allowThinWallGapFill,1
;   thinWallAllowedOverlapPercentage,10
;   horizontalSizeCompensation,0
G90
M82
M106 S0
M140 S70
M190 S70
M104 S210 T0
M109 S210 T0
G28 X0 Y0 ; home X and Y axes
G29 ; probe z
G92 E0
G1 E-1.0000 F1800
G1 Z0.180 F1002
; layer 1, Z = 0.18
T0
; tool H0.200 W0.400
; skirt
G1 X62.917 Y58.623 F4200
G1 E0.0000 F540
G92 E0
G1 X62.985 Y58.552 E0.0033 F1350
G1 X63.473 Y58.112 E0.0251
G1 X63.550 Y58.052 E0.0284
G1 X64.407 Y57.474 E0.0627
G1 X64.481 Y57.431 E0.0656
G1 X64.993 Y57.170 E0.0847
G1 X65.072 Y57.136 E0.0875
G1 X65.868 Y56.846 E0.1157
G1 X65.938 Y56.825 E0.1182
G1 X66.416 Y56.705 E0.1345
G1 X66.488 Y56.691 E0.1370
G1 X67.205 Y56.591 E0.1611
G1 X67.253 Y56.586 E0.1627
G1 X67.580 Y56.563 E0.1736
G1 X67.629 Y56.561 E0.1752
G1 X85.484 Y56.560 E0.7691
G1 X86.133 Y56.935 E0.7940
G1 X86.194 Y57.039 E0.7980
G1 X86.291 Y57.013 E0.8014
G1 X86.843 Y57.086 E0.8199
G1 X93.139 Y60.721 E1.0617
G1 X93.478 Y61.163 E1.0802
G1 X94.480 Y64.902 E1.2090
G1 X94.408 Y65.454 E1.2275
G1 X77.743 Y94.318 E2.3360
G1 X77.300 Y94.657 E2.3546
G1 X73.556 Y95.657 E2.4835
G1 X73.003 Y95.583 E2.5020
G1 X66.507 Y91.817 E2.7518
G1 X66.362 Y91.706 E2.7579
G1 X65.491 Y90.833 E2.7989
G1 X65.379 Y90.688 E2.8050
G1 X56.657 Y75.578 E3.3853
G1 X56.634 Y75.536 E3.3868
G1 X56.494 Y75.251 E3.3974
G1 X56.475 Y75.208 E3.3990
G1 X56.225 Y74.596 E3.4210
G1 X56.205 Y74.540 E3.4229
G1 X56.086 Y74.161 E3.4361
G1 X56.071 Y74.104 E3.4381
G1 X55.949 Y73.558 E3.4567
G1 X55.940 Y73.512 E3.4583
G1 X55.892 Y73.198 E3.4688
G1 X55.886 Y73.151 E3.4704
G1 X55.836 Y72.554 E3.4903
G1 X55.833 Y72.483 E3.4927
G1 X55.841 Y72.006 E3.5086
G1 X55.846 Y71.935 E3.5109
G1 X55.957 Y71.001 E3.5422
G1 X55.973 Y70.914 E3.5452
G1 X56.118 Y70.336 E3.5650
G1 X56.145 Y70.251 E3.5679
G1 X56.446 Y69.477 E3.5956
G1 X56.467 Y69.429 E3.5973
G1 X56.622 Y69.106 E3.6092
G1 X56.647 Y69.059 E3.6110
G1 X62.000 Y59.787 E3.9671
G1 X62.033 Y59.736 E3.9691
G1 X62.268 Y59.400 E3.9828
G1 X62.305 Y59.351 E3.9848
G1 X62.917 Y58.623 E4.0164
G1 X63.214 Y58.890 F4200
G92 E0
G1 X63.263 Y58.840 E0.0023 F1350
G1 X63.731 Y58.419 E0.0233
G1 X63.786 Y58.376 E0.0256
G1 X64.621 Y57.813 E0.0591
G1 X64.674 Y57.782 E0.0611
G1 X65.164 Y57.532 E0.0794
G1 X65.220 Y57.508 E0.0814
G1 X65.995 Y57.226 E0.1089
G1 X66.045 Y57.210 E0.1106
G1 X66.502 Y57.096 E0.1263
G1 X66.554 Y57.086 E0.1280
G1 X67.253 Y56.988 E0.1515
G1 X67.288 Y56.984 E0.1527
G1 X67.601 Y56.962 E0.1632
G1 X67.636 Y56.961 E0.1643
G1 X85.377 Y56.960 E0.7544
G1 X85.841 Y57.228 E0.7722
G1 X86.001 Y57.505 E0.7828
G1 X86.317 Y57.420 E0.7937
G1 X86.712 Y57.472 E0.8070
G1 X92.870 Y61.028 E1.0435
G1 X93.113 Y61.344 E1.0567
G1 X94.073 Y64.929 E1.1802
G1 X94.021 Y65.323 E1.1934
G1 X77.436 Y94.049 E2.2966
G1 X77.120 Y94.291 E2.3099
G1 X73.530 Y95.250 E2.4335
G1 X73.135 Y95.197 E2.4467
G1 X66.730 Y91.484 E2.6930
G1 X66.626 Y91.405 E2.6973
G1 X65.792 Y90.569 E2.7366
G1 X65.713 Y90.465 E2.7409
G1 X57.006 Y75.384 E3.3201
G1 X56.991 Y75.354 E3.3213
G1 X56.857 Y75.081 E3.3314
G1 X56.843 Y75.050 E3.3325
G1 X56.598 Y74.452 E3.3540
G1 X56.584 Y74.412 E3.3554
G1 X56.470 Y74.050 E3.3680
G1 X56.459 Y74.009 E3.3694
G1 X56.341 Y73.478 E3.3875
G1 X56.334 Y73.444 E3.3887
G1 X56.288 Y73.144 E3.3988
G1 X56.284 Y73.110 E3.3999
G1 X56.235 Y72.530 E3.4193
G1 X56.234 Y72.479 E3.4210
G1 X56.241 Y72.023 E3.4361
G1 X56.245 Y71.972 E3.4378
G1 X56.353 Y71.061 E3.4684
G1 X56.364 Y70.999 E3.4705
G1 X56.503 Y70.445 E3.4894
G1 X56.522 Y70.385 E3.4915
G1 X56.816 Y69.630 E3.5185
G1 X56.831 Y69.595 E3.5198
G1 X56.979 Y69.286 E3.5311
G1 X56.997 Y69.253 E3.5324
G1 X62.342 Y59.995 E3.8880
G1 X62.366 Y59.958 E3.8894
G1 X62.591 Y59.636 E3.9025
G1 X62.617 Y59.602 E3.9039
G1 X63.214 Y58.890 E3.9348
G1 X63.512 Y59.158 F4200
G92 E0
G1 X63.541 Y59.128 E0.0014 F1350
G1 X63.988 Y58.726 E0.0214
G1 X64.021 Y58.700 E0.0228
G1 X64.834 Y58.151 E0.0554
G1 X64.866 Y58.133 E0.0566
G1 X65.334 Y57.894 E0.0741
G1 X65.368 Y57.879 E0.0754
G1 X66.122 Y57.605 E0.1020
G1 X66.152 Y57.596 E0.1031
G1 X66.589 Y57.487 E0.1181
G1 X66.620 Y57.481 E0.1191
G1 X67.302 Y57.385 E0.1420
G1 X67.323 Y57.383 E0.1427
G1 X67.622 Y57.362 E0.1527
G1 X67.643 Y57.361 E0.1534
G1 X85.269 Y57.360 E0.7396
G1 X85.548 Y57.521 E0.7503
G1 X85.808 Y57.971 E0.7676
G1 X86.344 Y57.827 E0.7861
G1 X86.581 Y57.858 E0.7940
G1 X92.602 Y61.335 E1.0253
G1 X92.747 Y61.524 E1.0332
G1 X93.666 Y64.955 E1.1514
G1 X93.635 Y65.192 E1.1593
G1 X77.130 Y93.780 E2.2572
G1 X76.940 Y93.925 E2.2652
G1 X73.504 Y94.843 E2.3835
G1 X73.267 Y94.811 E2.3914
G1 X66.953 Y91.151 E2.6342
G1 X66.891 Y91.103 E2.6368
G1 X66.094 Y90.305 E2.6743
G1 X66.046 Y90.243 E2.6769
G1 X57.356 Y75.190 E3.2550
G1 X57.347 Y75.172 E3.2557
G1 X57.219 Y74.911 E3.2654
G1 X57.210 Y74.892 E3.2660
G1 X56.972 Y74.309 E3.2870
G1 X56.963 Y74.285 E3.2878
G1 X56.854 Y73.938 E3.2999
G1 X56.848 Y73.914 E3.3008
G1 X56.733 Y73.397 E3.3184
G1 X56.729 Y73.377 E3.3190
G1 X56.685 Y73.090 E3.3287
G1 X56.682 Y73.070 E3.3294
G1 X56.635 Y72.506 E3.3482
G1 X56.634 Y72.476 E3.3492
G1 X56.641 Y72.040 E3.3637
G1 X56.643 Y72.009 E3.3647
G1 X56.749 Y71.121 E3.3945
G1 X56.756 Y71.083 E3.3958
G1 X56.888 Y70.554 E3.4139
G1 X56.899 Y70.518 E3.4152
G1 X57.186 Y69.782 E3.4414
G1 X57.195 Y69.761 E3.4422
G1 X57.337 Y69.466 E3.4531
G1 X57.347 Y69.446 E3.4538
G1 X62.684 Y60.203 E3.8088
G1 X62.698 Y60.180 E3.8097
G1 X62.914 Y59.873 E3.8222
G1 X62.929 Y59.852 E3.8231
G1 X63.512 Y59.158 E3.8532
G1 X63.809 Y59.426 F4200
G92 E0
G1 X63.819 Y59.416 E0.0005 F1350
G1 X64.245 Y59.032 E0.0195
G1 X64.256 Y59.024 E0.0200
G1 X65.048 Y58.490 E0.0518
G1 X65.058 Y58.483 E0.0522
G1 X65.505 Y58.256 E0.0688
G1 X65.516 Y58.251 E0.0693
G1 X66.249 Y57.984 E0.0952
G1 X66.259 Y57.981 E0.0955
G1 X66.676 Y57.877 E0.1098
G1 X66.686 Y57.875 E0.1102
G1 X67.351 Y57.782 E0.1325
G1 X67.358 Y57.781 E0.1327
G1 X67.643 Y57.761 E0.1422
G1 X67.650 Y57.761 E0.1425
G1 X85.162 Y57.760 E0.7249
G1 X85.255 Y57.814 E0.7285
G1 X85.615 Y58.437 E0.7524
G1 X86.371 Y58.234 E0.7785
G1 X86.449 Y58.245 E0.7811
G1 X92.333 Y61.641 E1.0070
G1 X92.381 Y61.704 E1.0097
G1 X93.259 Y64.982 E1.1226
G1 X93.249 Y65.061 E1.1252
G1 X76.823 Y93.511 E2.2178
G1 X76.760 Y93.560 E2.2205
G1 X73.477 Y94.436 E2.3335
G1 X73.399 Y94.425 E2.3361
G1 X67.176 Y90.818 E2.5754
G1 X67.156 Y90.802 E2.5762
G1 X66.395 Y90.041 E2.6120
G1 X66.380 Y90.020 E2.6129
G1 X57.706 Y74.995 E3.1899
G1 X57.703 Y74.989 E3.1901
G1 X57.581 Y74.741 E3.1993
G1 X57.578 Y74.734 E3.1996
G1 X57.345 Y74.165 E3.2200
G1 X57.342 Y74.157 E3.2203
G1 X57.239 Y73.827 E3.2318
G1 X57.236 Y73.818 E3.2321
G1 X57.124 Y73.317 E3.2492
G1 X57.123 Y73.310 E3.2494
G1 X57.081 Y73.036 E3.2586
G1 X57.080 Y73.029 E3.2589
G1 X57.034 Y72.483 E3.2771
G1 X57.034 Y72.472 E3.2775
G1 X57.041 Y72.057 E3.2913
G1 X57.041 Y72.046 E3.2916
G1 X57.144 Y71.180 E3.3206
G1 X57.147 Y71.168 E3.3211
G1 X57.273 Y70.664 E3.3384
G1 X57.277 Y70.651 E3.3388
G1 X57.556 Y69.934 E3.3644
G1 X57.559 Y69.927 E3.3646
G1 X57.694 Y69.646 E3.3750
G1 X57.698 Y69.639 E3.3753
G1 X63.026 Y60.410 E3.7297
G1 X63.031 Y60.403 E3.7300
G1 X63.236 Y60.109 E3.7419
G1 X63.242 Y60.103 E3.7422
G1 X63.809 Y59.426 E3.7716
G92 E0
G1 E-1.0000 F1800
; inner perimeter
G1 X67.245 Y62.792 F4200
G1 E0.0000 F1800
G92 E0
G1 X67.344 Y62.715 E0.0042 F1215
G1 X67.443 Y62.658 E0.0080
G1 X67.629 Y62.590 E0.0146
G1 X67.836 Y62.561 E0.0215
G1 X81.760 Y62.560 E0.4846
G1 X78.117 Y68.871 E0.7270
G1 X77.661 Y69.133 E0.7445
G1 X77.605 Y69.156 E0.7465
G1 X77.565 Y69.163 E0.7479
G1 X77.525 Y69.163 E0.7492
G1 X77.485 Y69.153 E0.7505
G1 X77.436 Y69.130 E0.7524
G1 X77.353 Y69.026 E0.7568
G1 X76.410 Y67.408 E0.8191
G1 X76.208 Y67.195 E0.8288
G1 X75.962 Y67.024 E0.8388
G1 X75.592 Y66.887 E0.8519
G1 X75.324 Y66.860 E0.8609
G1 X70.550 Y66.861 E1.0197
G1 X70.289 Y66.896 E1.0284
G1 X70.021 Y66.990 E1.0379
G1 X69.777 Y67.136 E1.0473
G1 X69.568 Y67.328 E1.0568
G1 X69.420 Y67.534 E1.0652
G1 X67.033 Y71.669 E1.2240
G1 X66.933 Y71.913 E1.2328
G1 X66.881 Y72.192 E1.2422
G1 X66.886 Y72.476 E1.2516
G1 X66.948 Y72.753 E1.2611
G1 X67.051 Y72.984 E1.2695
G1 X69.448 Y77.134 E1.4289
G1 X69.702 Y77.426 E1.4418
G1 X69.958 Y77.599 E1.4521
G1 X70.240 Y77.713 E1.4622
G1 X70.575 Y77.760 E1.4734
G1 X77.834 Y77.760 E1.7149
G1 X86.038 Y63.550 E2.2606
G1 X87.944 Y64.650 E2.3338
G1 X73.816 Y89.119 E3.2736
G1 X70.188 Y87.016 E3.4131
G1 X61.953 Y72.751 E3.9609
G1 X61.872 Y72.555 E3.9679
G1 X61.848 Y72.446 E3.9716
G1 X61.838 Y72.325 E3.9757
G1 X61.844 Y72.204 E3.9797
G1 X61.865 Y72.095 E3.9834
G1 X61.940 Y71.891 E3.9906
G1 X67.078 Y62.992 E4.3324
G1 X67.158 Y62.882 E4.3369
G1 X67.245 Y62.792 E4.3411
; outer perimeter
G1 X66.976 Y62.494 F4200
G92 E0
G1 X67.119 Y62.383 E0.0060 F1080
G1 X67.273 Y62.294 E0.0119
G1 X67.532 Y62.200 E0.0211
G1 X67.808 Y62.161 E0.0304
G1 X82.453 Y62.160 E0.5175
G1 X78.409 Y69.164 E0.7864
G1 X77.838 Y69.493 E0.8084
G1 X77.718 Y69.542 E0.8127
G1 X77.597 Y69.564 E0.8168
G1 X77.475 Y69.562 E0.8208
G1 X77.356 Y69.534 E0.8249
G1 X77.244 Y69.483 E0.8290
G1 X77.150 Y69.413 E0.8329
G1 X77.022 Y69.254 E0.8397
G1 X76.088 Y67.650 E0.9014
G1 X75.946 Y67.501 E0.9083
G1 X75.775 Y67.382 E0.9152
G1 X75.500 Y67.280 E0.9249
G1 X75.304 Y67.260 E0.9315
G1 X70.577 Y67.261 E1.0887
G1 X70.383 Y67.287 E1.0952
G1 X70.192 Y67.354 E1.1020
G1 X70.018 Y67.458 E1.1087
G1 X69.869 Y67.595 E1.1154
G1 X69.756 Y67.751 E1.1218
G1 X67.393 Y71.845 E1.2791
G1 X67.319 Y72.027 E1.2856
G1 X67.282 Y72.226 E1.2923
G1 X67.285 Y72.428 E1.2991
G1 X67.329 Y72.626 E1.3058
G1 X67.408 Y72.801 E1.3122
G1 X69.775 Y76.901 E1.4696
G1 X69.969 Y77.124 E1.4795
G1 X70.147 Y77.244 E1.4866
G1 X70.345 Y77.324 E1.4937
G1 X70.603 Y77.360 E1.5024
G1 X77.603 Y77.360 E1.7352
G1 X85.892 Y63.003 E2.2866
G1 X88.490 Y64.503 E2.3864
G1 X73.962 Y89.666 E3.3528
G1 X69.895 Y87.308 E3.5091
G1 X61.593 Y72.927 E4.0614
G1 X61.489 Y72.675 E4.0705
G1 X61.452 Y72.507 E4.0762
G1 X61.437 Y72.332 E4.0821
G1 X61.446 Y72.157 E4.0879
G1 X61.478 Y71.988 E4.0936
G1 X61.573 Y71.730 E4.1028
G1 X61.589 Y71.700 E4.1039
G1 X66.742 Y62.774 E4.4467
G1 X66.851 Y62.625 E4.4528
G1 X66.976 Y62.494 E4.4589
; solid layer
G1 X67.055 Y63.711 F4200
G92 E0
G1 X67.866 Y62.901 E0.0381 F1080
G1 X68.431 Y62.901 E0.0569
G1 X66.283 Y65.050 E0.1580
G1 X65.510 Y66.388 E0.2094
G1 X68.997 Y62.901 E0.3735
G1 X69.563 Y62.901 E0.3923
G1 X64.737 Y67.727 E0.6193
G1 X63.964 Y69.065 E0.6707
G1 X70.129 Y62.901 E0.9606
G1 X70.694 Y62.901 E0.9794
G1 X63.192 Y70.404 E1.3323
G1 X62.419 Y71.742 E1.3837
G1 X71.260 Y62.901 E1.7996
G1 X71.826 Y62.901 E1.8184
G1 X62.220 Y72.506 E2.2703
G1 X62.259 Y72.601 E2.2736
G1 X62.417 Y72.875 E2.2842
G1 X72.391 Y62.901 E2.7534
G1 X72.957 Y62.901 E2.7722
G1 X62.624 Y73.234 E3.2582
G1 X62.831 Y73.592 E3.2720
G1 X69.288 Y67.135 E3.5757
G1 X69.134 Y67.349 E3.5845
G1 X68.443 Y68.546 E3.6304
G1 X63.038 Y73.951 E3.8847
G1 X63.245 Y74.310 E3.8985
G1 X67.671 Y69.884 E4.1066
G1 X66.898 Y71.222 E4.1580
G1 X63.452 Y74.668 E4.3201
G1 X63.659 Y75.027 E4.3339
G1 X66.544 Y72.142 E4.4696
G1 X66.540 Y72.163 E4.4703
G1 X66.546 Y72.516 E4.4820
G1 X66.581 Y72.671 E4.4873
G1 X63.866 Y75.386 E4.6150
G1 X64.073 Y75.744 E4.6288
