; G-Code generated by Simplify3D(R) Version 3.0.2
; Oct 24, 2015 at 8:59:58 PM
; Settings Summary
;   processName,Process1
;   applyToModels,80mmFanCover-Flat
;   profileName,PrinterBot Simple Metal Custom (modified)
;   profileVersion,2015-05-01 08:00:00
;   baseProfile,Default (modified)
;   printMaterial,PLA
;   printQuality,Medium
;   printExtruders,
;   extruderName,Primary Extruder
;   extruderToolheadNumber,0
;   extruderDiameter,0.4
;   extruderAutoWidth,0
;   extruderWidth,0.4
;   extrusionMultiplier,1
;   extruderUseRetract,1
;   extruderRetractionDistance,1.5
;   extruderExtraRestartDistance,0.1
;   extruderRetractionZLift,0
;   extruderRetractionSpeed,1800
;   extruderUseCoasting,0
;   extruderCoastingDistance,0.2
;   extruderUseWipe,0
;   extruderWipeDistance,5
;   primaryExtruder,0
;   layerHeight,0.2
;   topSolidLayers,3
;   bottomSolidLayers,3
;   perimeterOutlines,2
;   printPerimetersInsideOut,1
;   startPointOption,2
;   startPointOriginX,0
;   startPointOriginY,0
;   startPointOriginZ,300
;   sequentialIslands,0
;   spiralVaseMode,0
;   firstLayerHeightPercentage,60
;   firstLayerWidthPercentage,100
;   firstLayerUnderspeed,0.5
;   useRaft,0
;   raftExtruder,0
;   raftLayers,3
;   raftOffset,3
;   raftSeparationDistance,0.14
;   raftInfill,85
;   disableRaftBaseLayers,0
;   useSkirt,1
;   skirtExtruder,0
;   skirtLayers,1
;   skirtOutlines,5
;   skirtOffset,4
;   usePrimePillar,0
;   primePillarExtruder,999
;   primePillarWidth,12
;   primePillarLocation,7
;   primePillarSpeedMultiplier,1
;   useOozeShield,0
;   oozeShieldExtruder,999
;   oozeShieldOffset,2
;   oozeShieldOutlines,1
;   oozeShieldSidewallShape,1
;   oozeShieldSidewallAngle,30
;   oozeShieldSpeedMultiplier,1
;   infillExtruder,0
;   internalInfillPattern,Rectilinear
;   externalInfillPattern,Rectilinear
;   infillPercentage,25
;   outlineOverlapPercentage,15
;   infillExtrusionWidthPercentage,100
;   minInfillLength,5
;   infillLayerInterval,1
;   infillAngles,45,-45
;   overlapInfillAngles,0
;   generateSupport,0
;   supportExtruder,0
;   supportInfillPercentage,30
;   supportExtraInflation,0.4
;   denseSupportLayers,0
;   denseSupportInfillPercentage,70
;   supportLayerInterval,1
;   supportHorizontalPartOffset,0.3
;   supportUpperSeparationLayers,1
;   supportLowerSeparationLayers,1
;   supportType,0
;   supportGridSpacing,4
;   maxOverhangAngle,45
;   supportAngles,0
;   temperatureName,Primary Extruder,Heated Bed
;   temperatureNumber,0,1
;   temperatureSetpointCount,2,3
;   temperatureSetpointLayers,1,2,1,2,3
;   temperatureSetpointTemperatures,210,200,70,65,63
;   temperatureStabilizeAtStartup,1,1
;   temperatureHeatedBed,0,1
;   temperatureRelayBetweenLayers,0,0
;   temperatureRelayBetweenLoops,0,0
;   fanLayers,1,2,3
;   fanSpeeds,0,0,100
;   blipFanToFullPower,1
;   adjustSpeedForCooling,1
;   minSpeedLayerTime,15
;   minCoolingSpeedSlowdown,20
;   increaseFanForCooling,0
;   minFanLayerTime,45
;   maxCoolingFanSpeed,100
;   increaseFanForBridging,0
;   bridgingFanSpeed,100
;   use5D,1
;   relativeEdistances,0
;   allowEaxisZeroing,1
;   independentExtruderAxes,0
;   includeM10123,0
;   stickySupport,1
;   applyToolheadOffsets,0
;   gcodeXoffset,0
;   gcodeYoffset,0
;   gcodeZoffset,0
;   overrideMachineDefinition,1
;   machineTypeOverride,0
;   strokeXoverride,150
;   strokeYoverride,150
;   strokeZoverride,150
;   originOffsetXoverride,0
;   originOffsetYoverride,0
;   originOffsetZoverride,0
;   homeXdirOverride,-1
;   homeYdirOverride,-1
;   homeZdirOverride,-1
;   flipXoverride,1
;   flipYoverride,-1
;   flipZoverride,1
;   toolheadOffsets,0,0|0,0|0,0|0,0|0,0|0,0
;   overrideFirmwareConfiguration,1
;   firmwareTypeOverride,RepRap (Marlin/Repetier/Sprinter)
;   GPXconfigOverride,r2
;   baudRateOverride,250000
;   overridePrinterModels,1
;   printerModelsOverride
;   startingGcode,G28 X0 Y0 ; home X and Y axes,G29 ; probe z,M201 X1000 Y1000 ; acceleration settings
;   layerChangeGcode,
;   retractionGcode,
;   toolChangeGcode,
;   endingGcode,M104 S0 T0 ; turn off extruder,M140 S0 T1 ; turn off bed,G28 X0 Y0 ; home,M84 ; disable motors
;   createX3G,0
;   celebration,0
;   celebrationSong,Random Song
;   createMB5G,0
;   postProcessing,
;   defaultSpeed,3300
;   outlineUnderspeed,0.8
;   solidInfillUnderspeed,0.8
;   supportUnderspeed,0.8
;   rapidXYspeed,4200
;   rapidZspeed,1002
;   minBridgingArea,50
;   bridgingExtraInflation,0
;   bridgingExtrusionMultiplier,1
;   bridgingSpeedMultiplier,0.8
;   filamentDiameter,1.74
;   filamentPricePerKg,22
;   filamentDensity,1.25
;   useMinPrintHeight,0
;   minPrintHeight,0
;   useMaxPrintHeight,0
;   maxPrintHeight,0
;   useDiaphragm,0
;   diaphragmLayerInterval,20
;   robustSlicing,1
;   mergeAllIntoSolid,0
;   onlyRetractWhenCrossingOutline,1
;   retractBetweenLayers,1
;   useRetractionMinTravel,0
;   retractionMinTravel,3
;   retractWhileWiping,0
;   onlyWipeOutlines,1
;   avoidCrossingOutline,0
;   maxMovementDetourFactor,3
;   toolChangeRetractionDistance,12
;   toolChangeExtraRestartDistance,-0.5
;   toolChangeRetractionSpeed,600
;   allowThinWallGapFill,1
;   thinWallAllowedOverlapPercentage,10
;   horizontalSizeCompensation,0
G90
M82
M106 S0
M140 S70
M190 S70
M104 S210 T0
M109 S210 T0
G28 X0 Y0 ; home X and Y axes
G29 ; probe z
M201 X1000 Y1000 ; acceleration settings
G92 E0
G1 E-1.5000 F1800
G1 Z0.120 F1002
; layer 1, Z = 0.12
T0
; tool H0.200 W0.400
; skirt
G1 X31.917 Y32.836 F4200
G1 E0.1000 F540
G92 E0
G1 X32.836 Y31.917 E0.0437 F1650
G1 X32.894 Y31.864 E0.0464
G1 X33.222 Y31.589 E0.0608
G1 X33.284 Y31.541 E0.0634
G1 X34.348 Y30.796 E0.1071
G1 X34.415 Y30.754 E0.1098
G1 X34.785 Y30.540 E0.1241
G1 X34.855 Y30.504 E0.1268
G1 X36.033 Y29.955 E0.1705
G1 X36.105 Y29.924 E0.1732
G1 X36.507 Y29.778 E0.1875
G1 X36.582 Y29.755 E0.1902
G1 X37.837 Y29.418 E0.2339
G1 X37.914 Y29.401 E0.2365
G1 X38.335 Y29.327 E0.2509
G1 X38.413 Y29.317 E0.2536
G1 X39.601 Y29.213 E0.2937
G1 X39.640 Y29.210 E0.2950
G1 X39.854 Y29.201 E0.3022
G1 X39.893 Y29.200 E0.3035
G1 X110.107 Y29.200 E2.6658
G1 X110.146 Y29.201 E2.6671
G1 X110.360 Y29.210 E2.6743
G1 X110.399 Y29.213 E2.6756
G1 X111.587 Y29.317 E2.7157
G1 X111.665 Y29.327 E2.7184
G1 X112.086 Y29.401 E2.7328
G1 X112.163 Y29.418 E2.7354
G1 X113.418 Y29.755 E2.7791
G1 X113.493 Y29.778 E2.7818
G1 X113.895 Y29.924 E2.7962
G1 X113.967 Y29.955 E2.7988
G1 X115.145 Y30.504 E2.8425
G1 X115.215 Y30.540 E2.8452
G1 X115.585 Y30.754 E2.8596
G1 X115.652 Y30.796 E2.8622
G1 X116.716 Y31.541 E2.9059
G1 X116.778 Y31.589 E2.9086
G1 X117.106 Y31.864 E2.9230
G1 X117.164 Y31.917 E2.9256
G1 X118.083 Y32.836 E2.9693
G1 X118.136 Y32.894 E2.9720
G1 X118.411 Y33.222 E2.9863
G1 X118.459 Y33.284 E2.9890
G1 X119.204 Y34.348 E3.0327
G1 X119.246 Y34.415 E3.0354
G1 X119.460 Y34.785 E3.0497
G1 X119.496 Y34.855 E3.0524
G1 X120.045 Y36.033 E3.0961
G1 X120.076 Y36.105 E3.0988
G1 X120.222 Y36.507 E3.1131
G1 X120.245 Y36.582 E3.1158
G1 X120.582 Y37.837 E3.1595
G1 X120.599 Y37.914 E3.1621
G1 X120.673 Y38.335 E3.1765
G1 X120.683 Y38.413 E3.1792
G1 X120.787 Y39.601 E3.2193
G1 X120.790 Y39.640 E3.2206
G1 X120.799 Y39.854 E3.2278
G1 X120.800 Y39.893 E3.2291
G1 X120.800 Y110.107 E5.5914
G1 X120.799 Y110.146 E5.5927
G1 X120.790 Y110.360 E5.5999
G1 X120.787 Y110.399 E5.6012
G1 X120.683 Y111.587 E5.6413
G1 X120.673 Y111.665 E5.6440
G1 X120.599 Y112.086 E5.6584
G1 X120.582 Y112.163 E5.6610
G1 X120.245 Y113.418 E5.7047
G1 X120.222 Y113.493 E5.7074
G1 X120.076 Y113.895 E5.7218
G1 X120.045 Y113.967 E5.7244
G1 X119.496 Y115.145 E5.7681
G1 X119.460 Y115.215 E5.7708
G1 X119.246 Y115.585 E5.7852
G1 X119.204 Y115.652 E5.7878
G1 X118.459 Y116.716 E5.8315
G1 X118.411 Y116.778 E5.8342
G1 X118.136 Y117.106 E5.8486
G1 X118.083 Y117.164 E5.8512
G1 X117.164 Y118.083 E5.8949
G1 X117.106 Y118.136 E5.8976
G1 X116.778 Y118.411 E5.9119
G1 X116.716 Y118.459 E5.9146
G1 X115.652 Y119.204 E5.9583
G1 X115.585 Y119.246 E5.9610
G1 X115.215 Y119.460 E5.9753
G1 X115.145 Y119.496 E5.9780
G1 X113.967 Y120.045 E6.0217
G1 X113.895 Y120.076 E6.0243
G1 X113.493 Y120.222 E6.0387
G1 X113.418 Y120.245 E6.0414
G1 X112.163 Y120.582 E6.0851
G1 X112.086 Y120.599 E6.0877
G1 X111.665 Y120.673 E6.1021
G1 X111.587 Y120.683 E6.1048
G1 X110.399 Y120.787 E6.1449
G1 X110.360 Y120.790 E6.1462
G1 X110.146 Y120.799 E6.1534
G1 X110.107 Y120.800 E6.1547
G1 X39.893 Y120.800 E8.5170
G1 X39.854 Y120.799 E8.5183
G1 X39.640 Y120.790 E8.5255
G1 X39.601 Y120.787 E8.5268
G1 X38.413 Y120.683 E8.5669
G1 X38.335 Y120.673 E8.5696
G1 X37.914 Y120.599 E8.5840
G1 X37.837 Y120.582 E8.5866
G1 X36.582 Y120.245 E8.6303
G1 X36.507 Y120.222 E8.6330
G1 X36.105 Y120.076 E8.6474
G1 X36.033 Y120.045 E8.6500
G1 X34.855 Y119.496 E8.6937
G1 X34.785 Y119.460 E8.6964
G1 X34.415 Y119.246 E8.7108
G1 X34.348 Y119.204 E8.7134
G1 X33.284 Y118.459 E8.7571
G1 X33.222 Y118.411 E8.7598
G1 X32.894 Y118.136 E8.7742
G1 X32.836 Y118.083 E8.7768
G1 X31.917 Y117.164 E8.8205
G1 X31.864 Y117.106 E8.8232
G1 X31.589 Y116.778 E8.8375
G1 X31.541 Y116.716 E8.8402
G1 X30.796 Y115.652 E8.8839
G1 X30.754 Y115.585 E8.8865
G1 X30.540 Y115.215 E8.9009
G1 X30.504 Y115.145 E8.9036
G1 X29.955 Y113.967 E8.9473
G1 X29.924 Y113.895 E8.9499
G1 X29.778 Y113.493 E8.9643
G1 X29.755 Y113.418 E8.9670
G1 X29.418 Y112.163 E9.0107
G1 X29.401 Y112.086 E9.0133
G1 X29.327 Y111.665 E9.0277
G1 X29.317 Y111.587 E9.0304
G1 X29.213 Y110.399 E9.0705
G1 X29.210 Y110.360 E9.0718
G1 X29.201 Y110.146 E9.0790
G1 X29.200 Y110.107 E9.0803
G1 X29.200 Y39.893 E11.4426
G1 X29.201 Y39.854 E11.4439
G1 X29.210 Y39.640 E11.4511
G1 X29.213 Y39.601 E11.4524
G1 X29.317 Y38.413 E11.4925
G1 X29.327 Y38.335 E11.4952
G1 X29.401 Y37.914 E11.5096
G1 X29.418 Y37.837 E11.5122
G1 X29.755 Y36.582 E11.5559
G1 X29.778 Y36.507 E11.5586
G1 X29.924 Y36.105 E11.5730
G1 X29.955 Y36.033 E11.5756
G1 X30.504 Y34.855 E11.6193
G1 X30.540 Y34.785 E11.6220
G1 X30.754 Y34.415 E11.6364
G1 X30.796 Y34.348 E11.6390
G1 X31.541 Y33.284 E11.6827
G1 X31.589 Y33.222 E11.6854
G1 X31.864 Y32.894 E11.6998
G1 X31.917 Y32.836 E11.7024
G1 X32.206 Y33.113 F4200
G92 E0
G1 X33.113 Y32.206 E0.0431 F1650
G1 X33.158 Y32.165 E0.0452
G1 X33.472 Y31.901 E0.0590
G1 X33.521 Y31.864 E0.0610
G1 X34.571 Y31.129 E0.1042
G1 X34.622 Y31.096 E0.1062
G1 X34.978 Y30.891 E0.1200
G1 X35.032 Y30.863 E0.1221
G1 X36.194 Y30.321 E0.1652
G1 X36.250 Y30.297 E0.1673
G1 X36.636 Y30.157 E0.1811
G1 X36.694 Y30.139 E0.1831
G1 X37.932 Y29.807 E0.2263
G1 X37.992 Y29.794 E0.2283
G1 X38.396 Y29.722 E0.2421
G1 X38.457 Y29.714 E0.2442
G1 X39.632 Y29.612 E0.2839
G1 X39.662 Y29.610 E0.2849
G1 X39.867 Y29.601 E0.2918
G1 X39.897 Y29.600 E0.2928
G1 X110.103 Y29.600 E2.6548
G1 X110.133 Y29.601 E2.6558
G1 X110.338 Y29.610 E2.6627
G1 X110.368 Y29.612 E2.6637
G1 X111.543 Y29.714 E2.7034
G1 X111.604 Y29.722 E2.7055
G1 X112.008 Y29.794 E2.7193
G1 X112.068 Y29.807 E2.7213
G1 X113.306 Y30.139 E2.7644
G1 X113.364 Y30.157 E2.7665
G1 X113.750 Y30.297 E2.7803
G1 X113.806 Y30.321 E2.7824
G1 X114.968 Y30.863 E2.8255
G1 X115.022 Y30.891 E2.8275
G1 X115.378 Y31.096 E2.8414
G1 X115.429 Y31.129 E2.8434
G1 X116.479 Y31.864 E2.8865
G1 X116.528 Y31.901 E2.8886
G1 X116.842 Y32.165 E2.9024
G1 X116.887 Y32.206 E2.9045
G1 X117.794 Y33.113 E2.9476
G1 X117.835 Y33.158 E2.9496
G1 X118.099 Y33.472 E2.9634
G1 X118.136 Y33.521 E2.9655
G1 X118.871 Y34.571 E3.0086
G1 X118.904 Y34.622 E3.0107
G1 X119.109 Y34.978 E3.0245
G1 X119.138 Y35.032 E3.0266
G1 X119.679 Y36.194 E3.0697
G1 X119.703 Y36.250 E3.0717
G1 X119.843 Y36.636 E3.0855
G1 X119.861 Y36.694 E3.0876
G1 X120.193 Y37.932 E3.1307
G1 X120.206 Y37.992 E3.1328
G1 X120.278 Y38.396 E3.1466
G1 X120.286 Y38.457 E3.1486
G1 X120.388 Y39.632 E3.1883
G1 X120.390 Y39.662 E3.1893
G1 X120.399 Y39.867 E3.1962
G1 X120.400 Y39.897 E3.1973
G1 X120.400 Y110.103 E5.5592
G1 X120.399 Y110.133 E5.5603
G1 X120.390 Y110.338 E5.5672
G1 X120.388 Y110.368 E5.5682
G1 X120.286 Y111.543 E5.6079
G1 X120.278 Y111.604 E5.6099
G1 X120.206 Y112.008 E5.6237
G1 X120.193 Y112.068 E5.6258
G1 X119.861 Y113.306 E5.6689
G1 X119.843 Y113.364 E5.6710
G1 X119.703 Y113.750 E5.6848
G1 X119.679 Y113.806 E5.6868
G1 X119.138 Y114.968 E5.7299
G1 X119.109 Y115.022 E5.7320
G1 X118.904 Y115.378 E5.7458
G1 X118.871 Y115.429 E5.7479
G1 X118.136 Y116.479 E5.7910
G1 X118.099 Y116.528 E5.7931
G1 X117.835 Y116.842 E5.8069
G1 X117.794 Y116.887 E5.8089
G1 X116.887 Y117.794 E5.8520
G1 X116.842 Y117.835 E5.8541
G1 X116.528 Y118.099 E5.8679
G1 X116.479 Y118.136 E5.8700
G1 X115.429 Y118.871 E5.9131
G1 X115.378 Y118.904 E5.9151
G1 X115.022 Y119.109 E5.9290
G1 X114.968 Y119.138 E5.9310
G1 X113.806 Y119.679 E5.9741
G1 X113.750 Y119.703 E5.9762
G1 X113.364 Y119.843 E5.9900
G1 X113.306 Y119.861 E5.9921
G1 X112.068 Y120.193 E6.0352
G1 X112.008 Y120.206 E6.0372
G1 X111.604 Y120.278 E6.0510
G1 X111.543 Y120.286 E6.0531
G1 X110.368 Y120.388 E6.0928
G1 X110.338 Y120.390 E6.0938
G1 X110.133 Y120.399 E6.1007
G1 X110.103 Y120.400 E6.1017
G1 X39.897 Y120.400 E8.4637
G1 X39.867 Y120.399 E8.4647
G1 X39.662 Y120.390 E8.4716
G1 X39.632 Y120.388 E8.4726
G1 X38.457 Y120.286 E8.5123
G1 X38.396 Y120.278 E8.5144
G1 X37.992 Y120.206 E8.5282
G1 X37.932 Y120.193 E8.5302
G1 X36.694 Y119.861 E8.5734
G1 X36.636 Y119.843 E8.5754
G1 X36.250 Y119.703 E8.5892
G1 X36.194 Y119.679 E8.5913
G1 X35.032 Y119.138 E8.6344
G1 X34.978 Y119.109 E8.6365
G1 X34.622 Y118.904 E8.6503
G1 X34.571 Y118.871 E8.6523
G1 X33.521 Y118.136 E8.6955
G1 X33.472 Y118.099 E8.6975
G1 X33.158 Y117.835 E8.7113
G1 X33.113 Y117.794 E8.7134
G1 X32.206 Y116.887 E8.7565
G1 X32.165 Y116.842 E8.7586
G1 X31.901 Y116.528 E8.7724
G1 X31.864 Y116.479 E8.7744
G1 X31.129 Y115.429 E8.8175
G1 X31.096 Y115.378 E8.8196
G1 X30.891 Y115.022 E8.8334
G1 X30.863 Y114.968 E8.8355
G1 X30.321 Y113.806 E8.8786
G1 X30.297 Y113.750 E8.8806
G1 X30.157 Y113.364 E8.8945
G1 X30.139 Y113.306 E8.8965
G1 X29.807 Y112.068 E8.9396
G1 X29.794 Y112.008 E8.9417
G1 X29.722 Y111.604 E8.9555
G1 X29.714 Y111.543 E8.9576
G1 X29.612 Y110.368 E8.9972
G1 X29.610 Y110.338 E8.9983
G1 X29.601 Y110.133 E9.0052
G1 X29.600 Y110.103 E9.0062
G1 X29.600 Y39.897 E11.3681
G1 X29.601 Y39.867 E11.3692
G1 X29.610 Y39.662 E11.3761
G1 X29.612 Y39.632 E11.3771
G1 X29.714 Y38.457 E11.4168
G1 X29.722 Y38.396 E11.4188
G1 X29.794 Y37.992 E11.4326
G1 X29.807 Y37.932 E11.4347
G1 X30.139 Y36.694 E11.4778
G1 X30.157 Y36.636 E11.4799
G1 X30.297 Y36.250 E11.4937
G1 X30.321 Y36.194 E11.4957
G1 X30.863 Y35.032 E11.5389
G1 X30.891 Y34.978 E11.5409
G1 X31.096 Y34.622 E11.5547
G1 X31.129 Y34.571 E11.5568
G1 X31.864 Y33.521 E11.5999
G1 X31.901 Y33.472 E11.6020
G1 X32.165 Y33.158 E11.6158
G1 X32.206 Y33.113 E11.6178
G1 X32.495 Y33.389 F4200
G92 E0
G1 X33.389 Y32.495 E0.0425 F1650
G1 X33.422 Y32.466 E0.0440
G1 X33.723 Y32.213 E0.0572
G1 X33.757 Y32.187 E0.0587
G1 X34.793 Y31.461 E0.1012
G1 X34.830 Y31.438 E0.1027
G1 X35.170 Y31.242 E0.1159
G1 X35.209 Y31.221 E0.1174
G1 X36.355 Y30.687 E0.1599
G1 X36.395 Y30.670 E0.1614
G1 X36.764 Y30.536 E0.1746
G1 X36.806 Y30.523 E0.1761
G1 X38.027 Y30.195 E0.2186
G1 X38.070 Y30.186 E0.2201
G1 X38.457 Y30.118 E0.2333
G1 X38.500 Y30.112 E0.2348
G1 X39.662 Y30.010 E0.2740
G1 X39.684 Y30.009 E0.2748
G1 X39.880 Y30.000 E0.2814
G1 X39.902 Y30.000 E0.2821
G1 X110.098 Y30.000 E2.6438
G1 X110.120 Y30.000 E2.6445
G1 X110.316 Y30.009 E2.6511
G1 X110.338 Y30.010 E2.6518
G1 X111.500 Y30.112 E2.6911
G1 X111.543 Y30.118 E2.6925
G1 X111.930 Y30.186 E2.7058
G1 X111.973 Y30.195 E2.7072
G1 X113.194 Y30.523 E2.7498
G1 X113.236 Y30.536 E2.7512
G1 X113.605 Y30.670 E2.7645
G1 X113.645 Y30.687 E2.7659
G1 X114.791 Y31.221 E2.8085
G1 X114.830 Y31.242 E2.8099
G1 X115.170 Y31.438 E2.8231
G1 X115.207 Y31.461 E2.8246
G1 X116.243 Y32.187 E2.8672
G1 X116.277 Y32.213 E2.8686
G1 X116.578 Y32.466 E2.8818
G1 X116.611 Y32.495 E2.8833
G1 X117.505 Y33.389 E2.9259
G1 X117.534 Y33.422 E2.9273
G1 X117.787 Y33.723 E2.9405
G1 X117.813 Y33.757 E2.9420
G1 X118.539 Y34.793 E2.9846
G1 X118.562 Y34.830 E2.9860
G1 X118.759 Y35.170 E2.9992
G1 X118.779 Y35.209 E3.0007
G1 X119.313 Y36.355 E3.0433
G1 X119.330 Y36.395 E3.0447
G1 X119.464 Y36.764 E3.0579
G1 X119.477 Y36.806 E3.0594
