; G-Code generated by Simplify3D(R) Version 3.0.2
; Oct 22, 2015 at 7:41:14 PM
; Settings Summary
;   processName,Process1
;   applyToModels,mm_emt_locks_end
;   profileName,PrinterBot Simple Metal Custom (modified)
;   profileVersion,2015-05-01 08:00:00
;   baseProfile,Default (modified)
;   printMaterial,PLA
;   printQuality,Medium
;   printExtruders,
;   extruderName,Primary Extruder
;   extruderToolheadNumber,0
;   extruderDiameter,0.4
;   extruderAutoWidth,0
;   extruderWidth,0.4
;   extrusionMultiplier,1
;   extruderUseRetract,1
;   extruderRetractionDistance,1.5
;   extruderExtraRestartDistance,0.1
;   extruderRetractionZLift,0
;   extruderRetractionSpeed,1800
;   extruderUseCoasting,0
;   extruderCoastingDistance,0.2
;   extruderUseWipe,0
;   extruderWipeDistance,5
;   primaryExtruder,0
;   layerHeight,0.2
;   topSolidLayers,3
;   bottomSolidLayers,3
;   perimeterOutlines,2
;   printPerimetersInsideOut,1
;   startPointOption,2
;   startPointOriginX,0
;   startPointOriginY,0
;   startPointOriginZ,300
;   sequentialIslands,0
;   spiralVaseMode,0
;   firstLayerHeightPercentage,60
;   firstLayerWidthPercentage,100
;   firstLayerUnderspeed,0.5
;   useRaft,0
;   raftExtruder,0
;   raftLayers,3
;   raftOffset,3
;   raftSeparationDistance,0.14
;   raftInfill,85
;   disableRaftBaseLayers,0
;   useSkirt,1
;   skirtExtruder,0
;   skirtLayers,1
;   skirtOutlines,5
;   skirtOffset,4
;   usePrimePillar,0
;   primePillarExtruder,999
;   primePillarWidth,12
;   primePillarLocation,7
;   primePillarSpeedMultiplier,1
;   useOozeShield,0
;   oozeShieldExtruder,999
;   oozeShieldOffset,2
;   oozeShieldOutlines,1
;   oozeShieldSidewallShape,1
;   oozeShieldSidewallAngle,30
;   oozeShieldSpeedMultiplier,1
;   infillExtruder,0
;   internalInfillPattern,Rectilinear
;   externalInfillPattern,Rectilinear
;   infillPercentage,25
;   outlineOverlapPercentage,15
;   infillExtrusionWidthPercentage,100
;   minInfillLength,5
;   infillLayerInterval,1
;   infillAngles,45,-45
;   overlapInfillAngles,0
;   generateSupport,0
;   supportExtruder,0
;   supportInfillPercentage,30
;   supportExtraInflation,0.4
;   denseSupportLayers,0
;   denseSupportInfillPercentage,70
;   supportLayerInterval,1
;   supportHorizontalPartOffset,0.3
;   supportUpperSeparationLayers,1
;   supportLowerSeparationLayers,1
;   supportType,0
;   supportGridSpacing,4
;   maxOverhangAngle,45
;   supportAngles,0
;   temperatureName,Primary Extruder,Heated Bed
;   temperatureNumber,0,1
;   temperatureSetpointCount,2,3
;   temperatureSetpointLayers,1,2,1,2,3
;   temperatureSetpointTemperatures,210,200,70,65,63
;   temperatureStabilizeAtStartup,1,1
;   temperatureHeatedBed,0,1
;   temperatureRelayBetweenLayers,0,0
;   temperatureRelayBetweenLoops,0,0
;   fanLayers,1,2,3
;   fanSpeeds,0,0,100
;   blipFanToFullPower,1
;   adjustSpeedForCooling,1
;   minSpeedLayerTime,15
;   minCoolingSpeedSlowdown,20
;   increaseFanForCooling,0
;   minFanLayerTime,45
;   maxCoolingFanSpeed,100
;   increaseFanForBridging,0
;   bridgingFanSpeed,100
;   use5D,1
;   relativeEdistances,0
;   allowEaxisZeroing,1
;   independentExtruderAxes,0
;   includeM10123,0
;   stickySupport,1
;   applyToolheadOffsets,0
;   gcodeXoffset,0
;   gcodeYoffset,0
;   gcodeZoffset,0
;   overrideMachineDefinition,1
;   machineTypeOverride,0
;   strokeXoverride,150
;   strokeYoverride,150
;   strokeZoverride,150
;   originOffsetXoverride,0
;   originOffsetYoverride,0
;   originOffsetZoverride,0
;   homeXdirOverride,-1
;   homeYdirOverride,-1
;   homeZdirOverride,-1
;   flipXoverride,1
;   flipYoverride,-1
;   flipZoverride,1
;   toolheadOffsets,0,0|0,0|0,0|0,0|0,0|0,0
;   overrideFirmwareConfiguration,1
;   firmwareTypeOverride,RepRap (Marlin/Repetier/Sprinter)
;   GPXconfigOverride,r2
;   baudRateOverride,250000
;   overridePrinterModels,1
;   printerModelsOverride
;   startingGcode,G28 X0 Y0 ; home X and Y axes,G29 ; probe z,M201 X1000 Y1000 ; acceleration settings
;   layerChangeGcode,
;   retractionGcode,
;   toolChangeGcode,
;   endingGcode,M104 S0 T0 ; turn off extruder,M140 S0 T1 ; turn off bed,G28 X0 Y0 ; home,M84 ; disable motors
;   createX3G,0
;   celebration,0
;   celebrationSong,Random Song
;   createMB5G,0
;   postProcessing,
;   defaultSpeed,3300
;   outlineUnderspeed,0.8
;   solidInfillUnderspeed,0.8
;   supportUnderspeed,0.8
;   rapidXYspeed,4200
;   rapidZspeed,1002
;   minBridgingArea,50
;   bridgingExtraInflation,0
;   bridgingExtrusionMultiplier,1
;   bridgingSpeedMultiplier,0.8
;   filamentDiameter,1.74
;   filamentPricePerKg,22
;   filamentDensity,1.25
;   useMinPrintHeight,0
;   minPrintHeight,0
;   useMaxPrintHeight,0
;   maxPrintHeight,0
;   useDiaphragm,0
;   diaphragmLayerInterval,20
;   robustSlicing,1
;   mergeAllIntoSolid,0
;   onlyRetractWhenCrossingOutline,1
;   retractBetweenLayers,1
;   useRetractionMinTravel,0
;   retractionMinTravel,3
;   retractWhileWiping,0
;   onlyWipeOutlines,1
;   avoidCrossingOutline,0
;   maxMovementDetourFactor,3
;   toolChangeRetractionDistance,12
;   toolChangeExtraRestartDistance,-0.5
;   toolChangeRetractionSpeed,600
;   allowThinWallGapFill,1
;   thinWallAllowedOverlapPercentage,10
;   horizontalSizeCompensation,0
G90
M82
M106 S0
M140 S70
M190 S70
M104 S210 T0
M109 S210 T0
G28 X0 Y0 ; home X and Y axes
G29 ; probe z
M201 X1000 Y1000 ; acceleration settings
G92 E0
G1 E-1.5000 F1800
G1 Z0.120 F1002
; layer 1, Z = 0.12
T0
; tool H0.200 W0.400
; skirt
G1 X49.145 Y56.725 F4200
G1 E0.1000 F540
G92 E0
G1 X49.260 Y56.630 E0.0050 F1650
G1 X49.282 Y56.613 E0.0059
G1 X50.249 Y55.875 E0.0469
G1 X50.271 Y55.858 E0.0478
G1 X50.391 Y55.772 E0.0528
G1 X50.413 Y55.757 E0.0537
G1 X51.421 Y55.079 E0.0946
G1 X51.444 Y55.064 E0.0955
G1 X51.569 Y54.985 E0.1005
G1 X51.593 Y54.971 E0.1014
G1 X52.662 Y54.342 E0.1431
G1 X52.686 Y54.328 E0.1440
G1 X52.818 Y54.255 E0.1491
G1 X52.843 Y54.243 E0.1501
G1 X53.969 Y53.671 E0.1925
G1 X53.994 Y53.658 E0.1935
G1 X54.131 Y53.594 E0.1986
G1 X54.156 Y53.582 E0.1995
G1 X55.287 Y53.093 E0.2410
G1 X55.312 Y53.083 E0.2419
G1 X55.451 Y53.028 E0.2469
G1 X55.477 Y53.018 E0.2478
G1 X56.651 Y52.593 E0.2899
G1 X56.678 Y52.584 E0.2908
G1 X56.822 Y52.537 E0.2959
G1 X56.849 Y52.529 E0.2968
G1 X58.063 Y52.172 E0.3394
G1 X58.090 Y52.165 E0.3404
G1 X58.238 Y52.127 E0.3455
G1 X58.265 Y52.120 E0.3464
G1 X59.472 Y51.846 E0.3881
G1 X59.499 Y51.840 E0.3890
G1 X59.646 Y51.812 E0.3941
G1 X59.674 Y51.807 E0.3950
G1 X60.906 Y51.605 E0.4370
G1 X60.933 Y51.601 E0.4379
G1 X61.083 Y51.582 E0.4430
G1 X61.110 Y51.579 E0.4439
G1 X62.348 Y51.454 E0.4858
G1 X62.376 Y51.451 E0.4867
G1 X62.526 Y51.441 E0.4918
G1 X62.553 Y51.440 E0.4927
G1 X63.790 Y51.391 E0.5343
G1 X63.817 Y51.390 E0.5353
G1 X63.966 Y51.389 E0.5403
G1 X63.993 Y51.389 E0.5412
G1 X65.221 Y51.416 E0.5825
G1 X65.248 Y51.417 E0.5834
G1 X65.396 Y51.425 E0.5884
G1 X65.423 Y51.427 E0.5893
G1 X66.636 Y51.526 E0.6302
G1 X66.663 Y51.529 E0.6312
G1 X66.809 Y51.545 E0.6361
G1 X66.835 Y51.549 E0.6370
G1 X68.040 Y51.721 E0.6779
G1 X68.066 Y51.725 E0.6788
G1 X68.210 Y51.750 E0.6837
G1 X68.236 Y51.755 E0.6846
G1 X71.728 Y52.468 E0.8045
G1 X72.400 Y53.000 E0.8334
G1 X74.461 Y57.438 E0.9980
G1 X74.433 Y58.294 E1.0268
G1 X71.037 Y64.511 E1.2651
G1 X70.650 Y64.889 E1.2833
G1 X67.980 Y66.259 E1.3843
G1 X67.447 Y66.354 E1.4025
G1 X64.656 Y66.010 E1.4971
G1 X64.263 Y65.992 E1.5103
G1 X63.790 Y65.996 E1.5263
G1 X63.301 Y66.026 E1.5428
G1 X62.833 Y66.080 E1.5586
G1 X62.342 Y66.163 E1.5754
G1 X61.884 Y66.266 E1.5911
G1 X61.416 Y66.398 E1.6075
G1 X60.957 Y66.555 E1.6238
G1 X60.496 Y66.741 E1.6406
G1 X60.066 Y66.942 E1.6565
G1 X59.636 Y67.172 E1.6729
G1 X59.223 Y67.422 E1.6892
G1 X58.816 Y67.699 E1.7058
G1 X58.436 Y67.989 E1.7218
G1 X58.081 Y68.291 E1.7375
G1 X57.737 Y68.617 E1.7534
G1 X57.466 Y68.902 E1.7667
G1 X56.841 Y69.667 E1.7999
G1 X56.328 Y70.446 E1.8313
G1 X55.867 Y71.335 E1.8650
G1 X55.710 Y71.703 E1.8784
G1 X55.547 Y72.154 E1.8946
G1 X55.407 Y72.616 E1.9108
G1 X55.289 Y73.097 E1.9275
G1 X55.202 Y73.558 E1.9433
G1 X55.136 Y74.050 E1.9600
G1 X55.098 Y74.533 E1.9763
G1 X55.086 Y75.019 E1.9926
G1 X55.099 Y75.496 E2.0087
G1 X55.119 Y75.733 E2.0167
G1 X57.276 Y76.158 E2.0906
G1 X57.865 Y76.545 E2.1144
G1 X59.184 Y78.461 E2.1926
G1 X59.572 Y78.950 E2.2136
G1 X59.955 Y79.349 E2.2322
G1 X60.387 Y79.723 E2.2514
G1 X60.874 Y80.067 E2.2715
G1 X61.432 Y80.385 E2.2931
G1 X61.578 Y80.455 E2.2986
G1 X62.180 Y80.690 E2.3203
G1 X62.760 Y80.853 E2.3406
G1 X63.400 Y80.967 E2.3625
G1 X63.554 Y80.983 E2.3676
G1 X64.209 Y81.003 E2.3897
G1 X64.786 Y80.964 E2.4091
G1 X65.412 Y80.862 E2.4305
G1 X65.552 Y80.828 E2.4354
G1 X66.136 Y80.647 E2.4559
G1 X66.676 Y80.422 E2.4756
G1 X69.043 Y79.182 E2.5655
G1 X69.737 Y79.113 E2.5889
G1 X73.496 Y80.204 E2.7206
G1 X74.044 Y80.633 E2.7441
G1 X75.000 Y82.289 E2.8084
G1 X75.956 Y80.633 E2.8727
G1 X76.504 Y80.204 E2.8961
G1 X80.263 Y79.113 E3.0278
G1 X80.957 Y79.182 E3.0513
G1 X83.324 Y80.422 E3.1412
G1 X83.864 Y80.647 E3.1609
G1 X84.447 Y80.828 E3.1814
G1 X84.588 Y80.862 E3.1863
G1 X85.214 Y80.964 E3.2076
G1 X85.791 Y81.003 E3.2271
G1 X86.446 Y80.983 E3.2491
G1 X86.600 Y80.967 E3.2543
G1 X87.240 Y80.853 E3.2762
G1 X87.820 Y80.690 E3.2965
G1 X88.422 Y80.455 E3.3182
G1 X88.568 Y80.386 E3.3236
G1 X89.126 Y80.067 E3.3453
G1 X89.613 Y79.723 E3.3653
G1 X90.045 Y79.349 E3.3845
G1 X90.428 Y78.950 E3.4032
G1 X90.816 Y78.461 E3.4242
G1 X92.135 Y76.545 E3.5024
G1 X92.724 Y76.158 E3.5261
G1 X94.881 Y75.733 E3.6001
G1 X94.901 Y75.496 E3.6081
G1 X94.914 Y75.020 E3.6241
G1 X94.902 Y74.535 E3.6404
G1 X94.863 Y74.040 E3.6571
G1 X94.798 Y73.559 E3.6735
G1 X94.711 Y73.097 E3.6893
G1 X94.593 Y72.616 E3.7059
G1 X94.453 Y72.153 E3.7222
G1 X94.290 Y71.704 E3.7383
G1 X94.133 Y71.335 E3.7518
G1 X93.672 Y70.446 E3.7855
G1 X93.158 Y69.665 E3.8169
G1 X92.541 Y68.909 E3.8498
G1 X92.262 Y68.616 E3.8634
G1 X91.920 Y68.293 E3.8792
G1 X91.557 Y67.985 E3.8952
G1 X91.176 Y67.694 E3.9113
G1 X90.778 Y67.422 E3.9276
G1 X90.364 Y67.172 E3.9438
G1 X89.934 Y66.942 E3.9602
G1 X89.504 Y66.741 E3.9762
G1 X89.043 Y66.555 E3.9929
G1 X88.584 Y66.398 E4.0093
G1 X88.116 Y66.266 E4.0256
G1 X87.658 Y66.163 E4.0414
G1 X87.169 Y66.080 E4.0581
G1 X86.689 Y66.025 E4.0743
G1 X86.211 Y65.996 E4.0905
G1 X85.737 Y65.992 E4.1064
G1 X85.344 Y66.010 E4.1196
G1 X82.553 Y66.354 E4.2143
G1 X82.020 Y66.259 E4.2325
G1 X79.350 Y64.889 E4.3334
G1 X78.963 Y64.511 E4.3516
G1 X75.567 Y58.293 E4.5900
G1 X75.539 Y57.437 E4.6188
G1 X77.602 Y52.998 E4.7835
G1 X78.274 Y52.467 E4.8123
G1 X81.779 Y51.753 E4.9327
G1 X81.805 Y51.748 E4.9336
G1 X81.948 Y51.723 E4.9384
G1 X81.974 Y51.719 E4.9393
G1 X83.165 Y51.549 E4.9798
G1 X83.192 Y51.545 E4.9807
G1 X83.338 Y51.529 E4.9856
G1 X83.364 Y51.526 E4.9865
G1 X84.577 Y51.427 E5.0275
G1 X84.604 Y51.425 E5.0284
G1 X84.752 Y51.417 E5.0334
G1 X84.779 Y51.416 E5.0343
G1 X86.007 Y51.389 E5.0756
G1 X86.034 Y51.389 E5.0765
G1 X86.183 Y51.390 E5.0815
G1 X86.210 Y51.391 E5.0825
G1 X87.447 Y51.440 E5.1241
G1 X87.474 Y51.441 E5.1250
G1 X87.624 Y51.451 E5.1301
G1 X87.652 Y51.454 E5.1310
G1 X88.890 Y51.579 E5.1729
G1 X88.917 Y51.582 E5.1738
G1 X89.067 Y51.601 E5.1789
G1 X89.094 Y51.605 E5.1798
G1 X90.326 Y51.807 E5.2218
G1 X90.354 Y51.812 E5.2227
G1 X90.501 Y51.840 E5.2278
G1 X90.528 Y51.846 E5.2287
G1 X91.735 Y52.120 E5.2704
G1 X91.762 Y52.127 E5.2713
G1 X91.910 Y52.165 E5.2764
G1 X91.937 Y52.172 E5.2774
G1 X93.151 Y52.529 E5.3199
G1 X93.178 Y52.537 E5.3209
G1 X93.322 Y52.584 E5.3260
G1 X93.349 Y52.593 E5.3269
G1 X94.523 Y53.018 E5.3689
G1 X94.549 Y53.028 E5.3699
G1 X94.688 Y53.083 E5.3749
G1 X94.713 Y53.093 E5.3758
G1 X95.844 Y53.582 E5.4173
G1 X95.869 Y53.594 E5.4182
G1 X96.006 Y53.658 E5.4233
G1 X96.031 Y53.671 E5.4242
G1 X97.157 Y54.243 E5.4667
G1 X97.182 Y54.256 E5.4677
G1 X97.314 Y54.328 E5.4727
G1 X97.338 Y54.342 E5.4737
G1 X98.407 Y54.971 E5.5154
G1 X98.431 Y54.985 E5.5163
G1 X98.556 Y55.064 E5.5213
G1 X98.579 Y55.079 E5.5222
G1 X99.587 Y55.757 E5.5631
G1 X99.609 Y55.772 E5.5640
G1 X99.729 Y55.858 E5.5690
G1 X99.751 Y55.875 E5.5699
G1 X100.718 Y56.613 E5.6108
G1 X100.740 Y56.630 E5.6118
G1 X100.855 Y56.725 E5.6168
G1 X100.876 Y56.742 E5.6177
G1 X101.816 Y57.555 E5.6595
G1 X101.836 Y57.573 E5.6604
G1 X101.943 Y57.671 E5.6653
G1 X101.962 Y57.690 E5.6662
G1 X102.805 Y58.511 E5.7058
G1 X102.824 Y58.530 E5.7067
G1 X102.925 Y58.635 E5.7116
G1 X102.943 Y58.654 E5.7125
G1 X103.763 Y59.554 E5.7534
G1 X103.780 Y59.574 E5.7543
G1 X103.876 Y59.685 E5.7593
G1 X103.893 Y59.706 E5.7602
G1 X104.657 Y60.653 E5.8011
G1 X104.674 Y60.674 E5.8020
G1 X104.763 Y60.792 E5.8070
G1 X104.779 Y60.814 E5.8079
G1 X105.492 Y61.815 E5.8492
G1 X105.507 Y61.837 E5.8501
G1 X105.590 Y61.961 E5.8552
G1 X105.605 Y61.984 E5.8561
G1 X106.259 Y63.034 E5.8977
G1 X106.274 Y63.058 E5.8986
G1 X106.349 Y63.187 E5.9037
G1 X106.363 Y63.212 E5.9046
G1 X106.955 Y64.306 E5.9465
G1 X106.968 Y64.330 E5.9474
G1 X107.036 Y64.465 E5.9525
G1 X107.048 Y64.490 E5.9534
G1 X107.574 Y65.622 E5.9954
G1 X107.585 Y65.647 E5.9964
G1 X107.644 Y65.785 E6.0014
G1 X107.655 Y65.811 E6.0023
G1 X108.107 Y66.964 E6.0440
G1 X108.116 Y66.990 E6.0449
G1 X108.168 Y67.133 E6.0500
G1 X108.177 Y67.160 E6.0510
G1 X108.565 Y68.365 E6.0936
G1 X108.573 Y68.391 E6.0945
G1 X108.615 Y68.537 E6.0996
G1 X108.622 Y68.564 E6.1006
G1 X108.931 Y69.774 E6.1426
G1 X108.937 Y69.801 E6.1435
G1 X108.969 Y69.947 E6.1485
G1 X108.975 Y69.974 E6.1495
G1 X109.206 Y71.184 E6.1909
G1 X109.211 Y71.211 E6.1918
G1 X109.235 Y71.361 E6.1969
G1 X109.238 Y71.389 E6.1979
G1 X109.398 Y72.641 E6.2404
G1 X109.401 Y72.669 E6.2413
G1 X109.416 Y72.819 E6.2464
G1 X109.418 Y72.847 E6.2473
G1 X109.498 Y74.085 E6.2890
G1 X109.500 Y74.112 E6.2900
G1 X109.505 Y74.260 E6.2949
G1 X109.505 Y74.287 E6.2958
G1 X109.511 Y75.502 E6.3367
G1 X109.511 Y75.529 E6.3376
G1 X109.507 Y75.677 E6.3426
G1 X109.506 Y75.704 E6.3435
G1 X109.438 Y76.919 E6.3845
G1 X109.436 Y76.946 E6.3854
G1 X109.423 Y77.095 E6.3904
G1 X109.421 Y77.122 E6.3913
G1 X109.276 Y78.357 E6.4332
G1 X109.273 Y78.384 E6.4341
G1 X109.251 Y78.529 E6.4390
G1 X109.247 Y78.555 E6.4399
G1 X109.038 Y79.727 E6.4799
G1 X109.033 Y79.753 E6.4808
G1 X109.003 Y79.894 E6.4857
G1 X108.998 Y79.920 E6.4866
G1 X108.717 Y81.090 E6.5270
G1 X108.711 Y81.116 E6.5279
G1 X108.673 Y81.255 E6.5328
G1 X108.665 Y81.281 E6.5337
G1 X108.316 Y82.433 E6.5742
G1 X108.308 Y82.459 E6.5751
G1 X108.260 Y82.600 E6.5801
G1 X108.251 Y82.625 E6.5810
G1 X107.819 Y83.789 E6.6228
G1 X107.809 Y83.814 E6.6237
G1 X107.754 Y83.952 E6.6287
G1 X107.743 Y83.977 E6.6296
G1 X107.249 Y85.096 E6.6708
G1 X107.237 Y85.121 E6.6717
G1 X107.173 Y85.256 E6.6767
G1 X107.160 Y85.281 E6.6777
G1 X106.589 Y86.387 E6.7195
G1 X106.576 Y86.411 E6.7205
G1 X106.502 Y86.544 E6.7256
G1 X106.488 Y86.568 E6.7265
G1 X105.840 Y87.652 E6.7690
G1 X105.825 Y87.676 E6.7700
G1 X105.744 Y87.802 E6.7750
G1 X105.729 Y87.825 E6.7759
G1 X105.030 Y88.847 E6.8176
G1 X105.014 Y88.869 E6.8185
G1 X104.925 Y88.991 E6.8236
G1 X104.908 Y89.013 E6.8245
G1 X104.138 Y90.001 E6.8667
G1 X104.121 Y90.023 E6.8676
G1 X104.023 Y90.140 E6.8727
G1 X104.005 Y90.162 E6.8737
G1 X103.168 Y91.108 E6.9162
G1 X103.150 Y91.128 E6.9171
G1 X103.047 Y91.237 E6.9221
G1 X103.028 Y91.257 E6.9231
G1 X102.156 Y92.128 E6.9645
G1 X102.136 Y92.148 E6.9655
G1 X102.026 Y92.251 E6.9706
G1 X102.005 Y92.270 E6.9715
G1 X101.059 Y93.106 E7.0140
G1 X101.038 Y93.124 E7.0149
G1 X100.922 Y93.220 E7.0200
G1 X100.900 Y93.238 E7.0209
G1 X99.921 Y94.001 E7.0627
G1 X99.899 Y94.017 E7.0636
G1 X99.778 Y94.105 E7.0686
G1 X99.756 Y94.121 E7.0696
G1 X98.743 Y94.816 E7.1109
G1 X98.720 Y94.831 E7.1118
G1 X98.597 Y94.910 E7.1167
G1 X98.574 Y94.924 E7.1176
G1 X97.542 Y95.544 E7.1581
G1 X97.519 Y95.557 E7.1590
G1 X97.389 Y95.630 E7.1641
G1 X97.365 Y95.643 E7.1650
G1 X96.263 Y96.217 E7.2068
G1 X96.239 Y96.230 E7.2077
G1 X96.106 Y96.293 E7.2126
G1 X96.082 Y96.305 E7.2135
G1 X94.996 Y96.790 E7.2535
G1 X94.972 Y96.801 E7.2544
G1 X94.840 Y96.855 E7.2593
G1 X94.815 Y96.865 E7.2601
G1 X93.702 Y97.286 E7.3002
G1 X93.677 Y97.295 E7.3011
G1 X93.538 Y97.343 E7.3060
G1 X93.512 Y97.352 E7.3069
G1 X92.337 Y97.717 E7.3483
G1 X92.311 Y97.725 E7.3492
