; G-Code generated by Simplify3D(R) Version 3.0.2
; Oct 22, 2015 at 8:49:21 PM
; Settings Summary
;   processName,Process1
;   applyToModels,mm_emt_locks_mid
;   profileName,PrinterBot Simple Metal Custom (modified)
;   profileVersion,2015-05-01 08:00:00
;   baseProfile,Default (modified)
;   printMaterial,PLA
;   printQuality,Medium
;   printExtruders,
;   extruderName,Primary Extruder
;   extruderToolheadNumber,0
;   extruderDiameter,0.4
;   extruderAutoWidth,0
;   extruderWidth,0.4
;   extrusionMultiplier,1
;   extruderUseRetract,1
;   extruderRetractionDistance,1.5
;   extruderExtraRestartDistance,0.1
;   extruderRetractionZLift,0
;   extruderRetractionSpeed,1800
;   extruderUseCoasting,0
;   extruderCoastingDistance,0.2
;   extruderUseWipe,0
;   extruderWipeDistance,5
;   primaryExtruder,0
;   layerHeight,0.2
;   topSolidLayers,3
;   bottomSolidLayers,3
;   perimeterOutlines,2
;   printPerimetersInsideOut,1
;   startPointOption,2
;   startPointOriginX,0
;   startPointOriginY,0
;   startPointOriginZ,300
;   sequentialIslands,0
;   spiralVaseMode,0
;   firstLayerHeightPercentage,60
;   firstLayerWidthPercentage,100
;   firstLayerUnderspeed,0.5
;   useRaft,0
;   raftExtruder,0
;   raftLayers,3
;   raftOffset,3
;   raftSeparationDistance,0.14
;   raftInfill,85
;   disableRaftBaseLayers,0
;   useSkirt,1
;   skirtExtruder,0
;   skirtLayers,1
;   skirtOutlines,5
;   skirtOffset,4
;   usePrimePillar,0
;   primePillarExtruder,999
;   primePillarWidth,12
;   primePillarLocation,7
;   primePillarSpeedMultiplier,1
;   useOozeShield,0
;   oozeShieldExtruder,999
;   oozeShieldOffset,2
;   oozeShieldOutlines,1
;   oozeShieldSidewallShape,1
;   oozeShieldSidewallAngle,30
;   oozeShieldSpeedMultiplier,1
;   infillExtruder,0
;   internalInfillPattern,Rectilinear
;   externalInfillPattern,Rectilinear
;   infillPercentage,25
;   outlineOverlapPercentage,15
;   infillExtrusionWidthPercentage,100
;   minInfillLength,5
;   infillLayerInterval,1
;   infillAngles,45,-45
;   overlapInfillAngles,0
;   generateSupport,0
;   supportExtruder,0
;   supportInfillPercentage,30
;   supportExtraInflation,0.4
;   denseSupportLayers,0
;   denseSupportInfillPercentage,70
;   supportLayerInterval,1
;   supportHorizontalPartOffset,0.3
;   supportUpperSeparationLayers,1
;   supportLowerSeparationLayers,1
;   supportType,0
;   supportGridSpacing,4
;   maxOverhangAngle,45
;   supportAngles,0
;   temperatureName,Primary Extruder,Heated Bed
;   temperatureNumber,0,1
;   temperatureSetpointCount,2,3
;   temperatureSetpointLayers,1,2,1,2,3
;   temperatureSetpointTemperatures,210,200,70,65,63
;   temperatureStabilizeAtStartup,1,1
;   temperatureHeatedBed,0,1
;   temperatureRelayBetweenLayers,0,0
;   temperatureRelayBetweenLoops,0,0
;   fanLayers,1,2,3
;   fanSpeeds,0,0,100
;   blipFanToFullPower,1
;   adjustSpeedForCooling,1
;   minSpeedLayerTime,15
;   minCoolingSpeedSlowdown,20
;   increaseFanForCooling,0
;   minFanLayerTime,45
;   maxCoolingFanSpeed,100
;   increaseFanForBridging,0
;   bridgingFanSpeed,100
;   use5D,1
;   relativeEdistances,0
;   allowEaxisZeroing,1
;   independentExtruderAxes,0
;   includeM10123,0
;   stickySupport,1
;   applyToolheadOffsets,0
;   gcodeXoffset,0
;   gcodeYoffset,0
;   gcodeZoffset,0
;   overrideMachineDefinition,1
;   machineTypeOverride,0
;   strokeXoverride,150
;   strokeYoverride,150
;   strokeZoverride,150
;   originOffsetXoverride,0
;   originOffsetYoverride,0
;   originOffsetZoverride,0
;   homeXdirOverride,-1
;   homeYdirOverride,-1
;   homeZdirOverride,-1
;   flipXoverride,1
;   flipYoverride,-1
;   flipZoverride,1
;   toolheadOffsets,0,0|0,0|0,0|0,0|0,0|0,0
;   overrideFirmwareConfiguration,1
;   firmwareTypeOverride,RepRap (Marlin/Repetier/Sprinter)
;   GPXconfigOverride,r2
;   baudRateOverride,250000
;   overridePrinterModels,1
;   printerModelsOverride
;   startingGcode,G28 X0 Y0 ; home X and Y axes,G29 ; probe z,M201 X1000 Y1000 ; acceleration settings
;   layerChangeGcode,
;   retractionGcode,
;   toolChangeGcode,
;   endingGcode,M104 S0 T0 ; turn off extruder,M140 S0 T1 ; turn off bed,G28 X0 Y0 ; home,M84 ; disable motors
;   createX3G,0
;   celebration,0
;   celebrationSong,Random Song
;   createMB5G,0
;   postProcessing,
;   defaultSpeed,3300
;   outlineUnderspeed,0.8
;   solidInfillUnderspeed,0.8
;   supportUnderspeed,0.8
;   rapidXYspeed,4200
;   rapidZspeed,1002
;   minBridgingArea,50
;   bridgingExtraInflation,0
;   bridgingExtrusionMultiplier,1
;   bridgingSpeedMultiplier,0.8
;   filamentDiameter,1.74
;   filamentPricePerKg,22
;   filamentDensity,1.25
;   useMinPrintHeight,0
;   minPrintHeight,0
;   useMaxPrintHeight,0
;   maxPrintHeight,0
;   useDiaphragm,0
;   diaphragmLayerInterval,20
;   robustSlicing,1
;   mergeAllIntoSolid,0
;   onlyRetractWhenCrossingOutline,1
;   retractBetweenLayers,1
;   useRetractionMinTravel,0
;   retractionMinTravel,3
;   retractWhileWiping,0
;   onlyWipeOutlines,1
;   avoidCrossingOutline,0
;   maxMovementDetourFactor,3
;   toolChangeRetractionDistance,12
;   toolChangeExtraRestartDistance,-0.5
;   toolChangeRetractionSpeed,600
;   allowThinWallGapFill,1
;   thinWallAllowedOverlapPercentage,10
;   horizontalSizeCompensation,0
G90
M82
M106 S0
M140 S70
M190 S70
M104 S210 T0
M109 S210 T0
G28 X0 Y0 ; home X and Y axes
G29 ; probe z
M201 X1000 Y1000 ; acceleration settings
G92 E0
G1 E-1.5000 F1800
G1 Z0.120 F1002
; layer 1, Z = 0.12
T0
; tool H0.200 W0.400
; skirt
G1 X48.348 Y57.405 F4200
G1 E0.1000 F540
G92 E0
G1 X48.368 Y57.387 E0.0009 F1650
G1 X49.303 Y56.595 E0.0421
G1 X49.324 Y56.578 E0.0431
G1 X49.440 Y56.486 E0.0480
G1 X49.461 Y56.469 E0.0489
G1 X50.434 Y55.741 E0.0898
G1 X50.456 Y55.725 E0.0907
G1 X50.576 Y55.641 E0.0957
G1 X50.598 Y55.625 E0.0966
G1 X51.604 Y54.962 E0.1371
G1 X51.627 Y54.948 E0.1380
G1 X51.750 Y54.872 E0.1429
G1 X51.773 Y54.858 E0.1438
G1 X52.805 Y54.262 E0.1839
G1 X52.828 Y54.249 E0.1848
G1 X52.954 Y54.181 E0.1896
G1 X52.978 Y54.169 E0.1905
G1 X54.030 Y53.640 E0.2301
G1 X54.054 Y53.629 E0.2310
G1 X54.183 Y53.569 E0.2358
G1 X54.207 Y53.558 E0.2367
G1 X55.288 Y53.092 E0.2763
G1 X55.312 Y53.082 E0.2772
G1 X55.445 Y53.029 E0.2820
G1 X55.470 Y53.019 E0.2829
G1 X56.590 Y52.612 E0.3230
G1 X56.616 Y52.603 E0.3239
G1 X56.753 Y52.558 E0.3288
G1 X56.779 Y52.550 E0.3296
G1 X57.934 Y52.206 E0.3702
G1 X57.959 Y52.199 E0.3711
G1 X58.101 Y52.161 E0.3760
G1 X58.127 Y52.154 E0.3769
G1 X59.311 Y51.877 E0.4178
G1 X59.338 Y51.872 E0.4188
G1 X59.482 Y51.842 E0.4237
G1 X59.509 Y51.837 E0.4246
G1 X60.717 Y51.631 E0.4658
G1 X60.744 Y51.627 E0.4668
G1 X60.891 Y51.606 E0.4718
G1 X60.918 Y51.603 E0.4727
G1 X62.142 Y51.469 E0.5141
G1 X62.170 Y51.466 E0.5151
G1 X62.319 Y51.454 E0.5201
G1 X62.346 Y51.453 E0.5210
G1 X63.581 Y51.393 E0.5626
G1 X63.608 Y51.393 E0.5635
G1 X63.758 Y51.390 E0.5686
G1 X63.786 Y51.390 E0.5695
G1 X65.024 Y51.406 E0.6112
G1 X65.052 Y51.407 E0.6121
G1 X65.202 Y51.414 E0.6171
G1 X65.229 Y51.415 E0.6181
G1 X66.465 Y51.507 E0.6597
G1 X66.492 Y51.510 E0.6607
G1 X66.641 Y51.525 E0.6657
G1 X66.668 Y51.529 E0.6666
G1 X67.893 Y51.695 E0.7082
G1 X67.920 Y51.700 E0.7091
G1 X68.068 Y51.724 E0.7142
G1 X68.095 Y51.729 E0.7151
G1 X69.303 Y51.970 E0.7565
G1 X69.330 Y51.975 E0.7575
G1 X69.474 Y52.009 E0.7625
G1 X69.501 Y52.015 E0.7634
G1 X70.686 Y52.327 E0.8046
G1 X70.712 Y52.334 E0.8055
G1 X70.853 Y52.376 E0.8105
G1 X70.879 Y52.384 E0.8114
G1 X72.035 Y52.763 E0.8523
G1 X72.060 Y52.772 E0.8532
G1 X72.198 Y52.822 E0.8581
G1 X72.223 Y52.831 E0.8590
G1 X73.343 Y53.275 E0.8996
G1 X73.368 Y53.285 E0.9005
G1 X73.501 Y53.342 E0.9053
G1 X73.525 Y53.353 E0.9062
G1 X74.606 Y53.857 E0.9463
G1 X74.629 Y53.868 E0.9472
G1 X74.757 Y53.932 E0.9520
G1 X74.780 Y53.944 E0.9529
G1 X75.000 Y54.063 E0.9613
G1 X75.223 Y53.943 E0.9698
G1 X75.247 Y53.930 E0.9707
G1 X75.375 Y53.866 E0.9755
G1 X75.398 Y53.855 E0.9764
G1 X76.479 Y53.351 E1.0165
G1 X76.503 Y53.340 E1.0174
G1 X76.636 Y53.283 E1.0223
G1 X76.661 Y53.273 E1.0232
G1 X77.781 Y52.830 E1.0637
G1 X77.807 Y52.820 E1.0647
G1 X77.944 Y52.770 E1.0696
G1 X77.970 Y52.761 E1.0705
G1 X79.125 Y52.382 E1.1114
G1 X79.151 Y52.374 E1.1123
G1 X79.293 Y52.333 E1.1173
G1 X79.319 Y52.325 E1.1182
G1 X80.504 Y52.014 E1.1594
G1 X80.530 Y52.008 E1.1603
G1 X80.675 Y51.974 E1.1653
G1 X80.702 Y51.968 E1.1662
G1 X81.910 Y51.728 E1.2077
G1 X81.937 Y51.723 E1.2086
G1 X82.084 Y51.699 E1.2136
G1 X82.111 Y51.695 E1.2146
G1 X83.337 Y51.528 E1.2562
G1 X83.364 Y51.525 E1.2571
G1 X83.513 Y51.509 E1.2621
G1 X83.540 Y51.507 E1.2630
G1 X84.776 Y51.415 E1.3047
G1 X84.803 Y51.413 E1.3057
G1 X84.953 Y51.407 E1.3107
G1 X84.980 Y51.406 E1.3116
G1 X86.219 Y51.390 E1.3533
G1 X86.247 Y51.390 E1.3542
G1 X86.396 Y51.393 E1.3593
G1 X86.424 Y51.394 E1.3602
G1 X87.659 Y51.453 E1.4018
G1 X87.686 Y51.455 E1.4027
G1 X87.835 Y51.467 E1.4077
G1 X87.862 Y51.469 E1.4086
G1 X89.087 Y51.603 E1.4501
G1 X89.114 Y51.607 E1.4510
G1 X89.261 Y51.627 E1.4560
G1 X89.288 Y51.631 E1.4569
G1 X90.496 Y51.838 E1.4981
G1 X90.522 Y51.843 E1.4991
G1 X90.667 Y51.873 E1.5040
G1 X90.693 Y51.878 E1.5049
G1 X91.877 Y52.156 E1.5459
G1 X91.904 Y52.162 E1.5468
G1 X92.045 Y52.200 E1.5517
G1 X92.071 Y52.207 E1.5526
G1 X93.226 Y52.551 E1.5931
G1 X93.251 Y52.559 E1.5940
G1 X93.389 Y52.605 E1.5989
G1 X93.414 Y52.614 E1.5998
G1 X94.534 Y53.021 E1.6399
G1 X94.559 Y53.030 E1.6408
G1 X94.692 Y53.083 E1.6456
G1 X94.716 Y53.093 E1.6465
G1 X95.798 Y53.560 E1.6861
G1 X95.821 Y53.571 E1.6870
G1 X95.950 Y53.631 E1.6918
G1 X95.974 Y53.642 E1.6927
G1 X97.026 Y54.171 E1.7323
G1 X97.050 Y54.183 E1.7332
G1 X97.176 Y54.251 E1.7380
G1 X97.199 Y54.264 E1.7389
G1 X98.231 Y54.860 E1.7790
G1 X98.254 Y54.874 E1.7799
G1 X98.377 Y54.950 E1.7848
G1 X98.400 Y54.965 E1.7857
G1 X99.406 Y55.628 E1.8262
G1 X99.428 Y55.643 E1.8271
G1 X99.548 Y55.728 E1.8320
G1 X99.569 Y55.743 E1.8329
G1 X100.543 Y56.472 E1.8738
G1 X100.564 Y56.489 E1.8748
G1 X100.680 Y56.581 E1.8797
G1 X100.700 Y56.598 E1.8806
G1 X101.635 Y57.390 E1.9219
G1 X101.656 Y57.408 E1.9228
G1 X101.766 Y57.508 E1.9278
G1 X101.786 Y57.526 E1.9287
G1 X102.676 Y58.379 E1.9701
G1 X102.695 Y58.398 E1.9711
G1 X102.800 Y58.504 E1.9761
G1 X102.819 Y58.524 E1.9770
G1 X103.658 Y59.432 E2.0186
G1 X103.676 Y59.453 E2.0195
G1 X103.775 Y59.566 E2.0246
G1 X103.792 Y59.587 E2.0255
G1 X104.576 Y60.546 E2.0672
G1 X104.593 Y60.568 E2.0681
G1 X104.684 Y60.687 E2.0731
G1 X104.701 Y60.709 E2.0741
G1 X105.424 Y61.714 E2.1157
G1 X105.440 Y61.737 E2.1167
G1 X105.524 Y61.861 E2.1217
G1 X105.539 Y61.884 E2.1226
G1 X106.199 Y62.930 E2.1642
G1 X106.213 Y62.953 E2.1652
G1 X106.289 Y63.082 E2.1702
G1 X106.302 Y63.106 E2.1711
G1 X106.895 Y64.186 E2.2125
G1 X106.907 Y64.210 E2.2135
G1 X106.975 Y64.342 E2.2185
G1 X106.987 Y64.367 E2.2194
G1 X107.510 Y65.474 E2.2606
G1 X107.521 Y65.499 E2.2615
G1 X107.580 Y65.635 E2.2665
G1 X107.591 Y65.660 E2.2674
G1 X108.043 Y66.788 E2.3083
G1 X108.052 Y66.813 E2.3092
G1 X108.103 Y66.951 E2.3141
G1 X108.112 Y66.976 E2.3150
G1 X108.492 Y68.120 E2.3556
G1 X108.500 Y68.145 E2.3565
G1 X108.542 Y68.284 E2.3614
G1 X108.549 Y68.310 E2.3622
G1 X108.858 Y69.461 E2.4024
G1 X108.864 Y69.487 E2.4032
G1 X108.897 Y69.626 E2.4081
G1 X108.903 Y69.652 E2.4089
G1 X109.141 Y70.805 E2.4486
G1 X109.146 Y70.831 E2.4494
G1 X109.170 Y70.971 E2.4542
G1 X109.175 Y70.997 E2.4551
G1 X109.345 Y72.162 E2.4947
G1 X109.349 Y72.188 E2.4956
G1 X109.365 Y72.331 E2.5005
G1 X109.368 Y72.357 E2.5013
G1 X109.471 Y73.544 E2.5414
G1 X109.473 Y73.571 E2.5423
G1 X109.482 Y73.716 E2.5472
G1 X109.483 Y73.742 E2.5481
G1 X109.516 Y74.947 E2.5887
G1 X109.517 Y74.974 E2.5896
G1 X109.516 Y75.120 E2.5945
G1 X109.516 Y75.147 E2.5954
G1 X109.477 Y76.363 E2.6363
G1 X109.476 Y76.390 E2.6372
G1 X109.466 Y76.537 E2.6422
G1 X109.464 Y76.564 E2.6431
G1 X109.351 Y77.784 E2.6843
G1 X109.348 Y77.811 E2.6852
G1 X109.330 Y77.959 E2.6902
G1 X109.327 Y77.986 E2.6911
G1 X109.139 Y79.203 E2.7326
G1 X109.134 Y79.230 E2.7335
G1 X109.107 Y79.377 E2.7385
G1 X109.102 Y79.404 E2.7395
G1 X108.839 Y80.612 E2.7811
G1 X108.833 Y80.639 E2.7820
G1 X108.797 Y80.784 E2.7870
G1 X108.790 Y80.811 E2.7879
G1 X108.453 Y82.003 E2.8296
G1 X108.445 Y82.029 E2.8306
G1 X108.400 Y82.172 E2.8356
G1 X108.392 Y82.198 E2.8365
G1 X107.983 Y83.368 E2.8782
G1 X107.974 Y83.394 E2.8791
G1 X107.920 Y83.534 E2.8842
G1 X107.910 Y83.559 E2.8851
G1 X107.431 Y84.699 E2.9267
G1 X107.420 Y84.724 E2.9276
G1 X107.359 Y84.860 E2.9326
G1 X107.347 Y84.885 E2.9336
G1 X106.802 Y85.990 E2.9750
G1 X106.789 Y86.014 E2.9759
G1 X106.720 Y86.145 E2.9809
G1 X106.707 Y86.169 E2.9818
G1 X106.099 Y87.233 E3.0230
G1 X106.085 Y87.256 E3.0240
G1 X106.008 Y87.382 E3.0289
G1 X105.994 Y87.405 E3.0298
G1 X105.328 Y88.423 E3.0708
G1 X105.313 Y88.446 E3.0717
G1 X105.230 Y88.566 E3.0766
G1 X105.214 Y88.587 E3.0775
G1 X104.495 Y89.555 E3.1180
G1 X104.479 Y89.576 E3.1189
G1 X104.389 Y89.690 E3.1238
G1 X104.373 Y89.710 E3.1247
G1 X103.606 Y90.624 E3.1648
G1 X103.589 Y90.644 E3.1657
G1 X103.494 Y90.751 E3.1705
G1 X103.476 Y90.770 E3.1714
G1 X102.668 Y91.627 E3.2110
G1 X102.650 Y91.645 E3.2119
G1 X102.549 Y91.746 E3.2167
G1 X102.530 Y91.764 E3.2176
G1 X101.674 Y92.572 E3.2572
G1 X101.654 Y92.590 E3.2581
G1 X101.547 Y92.685 E3.2629
G1 X101.527 Y92.703 E3.2638
G1 X100.614 Y93.469 E3.3039
G1 X100.593 Y93.485 E3.3048
G1 X100.479 Y93.575 E3.3097
G1 X100.458 Y93.591 E3.3106
G1 X99.490 Y94.310 E3.3511
G1 X99.469 Y94.325 E3.3520
G1 X99.349 Y94.409 E3.3569
G1 X99.326 Y94.424 E3.3578
G1 X98.308 Y95.089 E3.3988
G1 X98.285 Y95.104 E3.3997
G1 X98.159 Y95.181 E3.4046
G1 X98.136 Y95.195 E3.4055
G1 X97.072 Y95.802 E3.4468
G1 X97.048 Y95.815 E3.4477
G1 X96.917 Y95.885 E3.4527
G1 X96.893 Y95.897 E3.4536
G1 X95.788 Y96.442 E3.4950
G1 X95.763 Y96.454 E3.4960
G1 X95.627 Y96.516 E3.5010
G1 X95.602 Y96.527 E3.5019
G1 X94.461 Y97.005 E3.5435
G1 X94.436 Y97.015 E3.5444
G1 X94.296 Y97.069 E3.5495
G1 X94.270 Y97.078 E3.5504
G1 X93.101 Y97.486 E3.5921
G1 X93.075 Y97.495 E3.5930
G1 X92.932 Y97.540 E3.5980
G1 X92.905 Y97.548 E3.5990
G1 X91.713 Y97.884 E3.6406
G1 X91.686 Y97.891 E3.6416
G1 X91.541 Y97.927 E3.6466
G1 X91.514 Y97.934 E3.6475
G1 X90.306 Y98.196 E3.6891
G1 X90.279 Y98.201 E3.6901
G1 X90.132 Y98.228 E3.6951
G1 X90.105 Y98.233 E3.6960
G1 X88.888 Y98.420 E3.7374
G1 X88.861 Y98.424 E3.7384
G1 X88.713 Y98.442 E3.7434
G1 X88.686 Y98.445 E3.7443
G1 X87.466 Y98.558 E3.7855
G1 X87.439 Y98.560 E3.7864
G1 X87.292 Y98.569 E3.7914
G1 X87.265 Y98.570 E3.7923
G1 X86.049 Y98.609 E3.8332
G1 X86.022 Y98.609 E3.8341
G1 X85.876 Y98.610 E3.8390
G1 X85.849 Y98.609 E3.8399
G1 X84.644 Y98.576 E3.8805
G1 X84.618 Y98.575 E3.8814
G1 X84.473 Y98.566 E3.8863
G1 X84.447 Y98.564 E3.8872
G1 X83.259 Y98.461 E3.9273
G1 X83.233 Y98.458 E3.9281
G1 X83.091 Y98.441 E3.9329
G1 X83.065 Y98.438 E3.9338
G1 X79.938 Y97.980 E4.0402
G1 X79.314 Y97.601 E4.0647
G1 X76.907 Y94.268 E4.2030
G1 X76.744 Y93.557 E4.2276
G1 X77.963 Y86.641 E4.4638
G1 X78.334 Y86.048 E4.4874
G1 X81.515 Y83.737 E4.6197
G1 X82.195 Y83.567 E4.6432
G1 X84.959 Y83.956 E4.7371
G1 X85.593 Y84.000 E4.7585
G1 X86.239 Y84.000 E4.7803
G1 X86.892 Y83.951 E4.8023
G1 X87.600 Y83.847 E4.8264
G1 X87.821 Y83.802 E4.8340
G1 X88.573 Y83.604 E4.8601
G1 X88.790 Y83.533 E4.8678
G1 X89.519 Y83.251 E4.8941
G1 X89.727 Y83.157 E4.9018
G1 X90.371 Y82.821 E4.9262
G1 X90.985 Y82.439 E4.9505
G1 X91.171 Y82.309 E4.9582
G1 X91.733 Y81.866 E4.9823
G1 X92.217 Y81.425 E5.0043
G1 X92.662 Y80.956 E5.0260
G1 X93.065 Y80.464 E5.0474
G1 X93.425 Y79.957 E5.0684
G1 X93.750 Y79.426 E5.0893
G1 X94.043 Y78.861 E5.1107
G1 X94.298 Y78.268 E5.1324
G1 X94.514 Y77.649 E5.1545
G1 X94.699 Y76.958 E5.1785
G1 X94.745 Y76.737 E5.1861
G1 X94.854 Y76.023 E5.2105
G1 X94.906 Y75.352 E5.2331
G1 X94.907 Y74.678 E5.2557
G1 X94.876 Y74.262 E5.2698
G1 X92.806 Y73.876 E5.3406
G1 X92.219 Y73.503 E5.3640
G1 X90.589 Y71.235 E5.4580
G1 X90.501 Y71.127 E5.4627
G1 X90.080 Y70.682 E5.4833
G1 X89.657 Y70.310 E5.5022
G1 X89.191 Y69.973 E5.5216
G1 X88.625 Y69.641 E5.5437
G1 X88.488 Y69.574 E5.5488
G1 X87.870 Y69.325 E5.5712
G1 X87.297 Y69.158 E5.5913
G1 X86.639 Y69.036 E5.6138
G1 X86.486 Y69.019 E5.6190
G1 X85.822 Y68.995 E5.6413
G1 X85.239 Y69.032 E5.6610
