; G-Code generated by Simplify3D(R) Version 3.0.2
; Oct 22, 2015 at 8:49:10 PM
; Settings Summary
;   processName,Process1
;   applyToModels,mm_ps_40x100x165_upper
;   profileName,PrinterBot Simple Metal Custom (modified)
;   profileVersion,2015-05-01 08:00:00
;   baseProfile,Default (modified)
;   printMaterial,PLA
;   printQuality,Medium
;   printExtruders,
;   extruderName,Primary Extruder
;   extruderToolheadNumber,0
;   extruderDiameter,0.4
;   extruderAutoWidth,0
;   extruderWidth,0.4
;   extrusionMultiplier,1
;   extruderUseRetract,1
;   extruderRetractionDistance,1.5
;   extruderExtraRestartDistance,0.1
;   extruderRetractionZLift,0
;   extruderRetractionSpeed,1800
;   extruderUseCoasting,0
;   extruderCoastingDistance,0.2
;   extruderUseWipe,0
;   extruderWipeDistance,5
;   primaryExtruder,0
;   layerHeight,0.2
;   topSolidLayers,3
;   bottomSolidLayers,3
;   perimeterOutlines,2
;   printPerimetersInsideOut,1
;   startPointOption,2
;   startPointOriginX,0
;   startPointOriginY,0
;   startPointOriginZ,300
;   sequentialIslands,0
;   spiralVaseMode,0
;   firstLayerHeightPercentage,60
;   firstLayerWidthPercentage,100
;   firstLayerUnderspeed,0.5
;   useRaft,0
;   raftExtruder,0
;   raftLayers,3
;   raftOffset,3
;   raftSeparationDistance,0.14
;   raftInfill,85
;   disableRaftBaseLayers,0
;   useSkirt,1
;   skirtExtruder,0
;   skirtLayers,1
;   skirtOutlines,5
;   skirtOffset,4
;   usePrimePillar,0
;   primePillarExtruder,999
;   primePillarWidth,12
;   primePillarLocation,7
;   primePillarSpeedMultiplier,1
;   useOozeShield,0
;   oozeShieldExtruder,999
;   oozeShieldOffset,2
;   oozeShieldOutlines,1
;   oozeShieldSidewallShape,1
;   oozeShieldSidewallAngle,30
;   oozeShieldSpeedMultiplier,1
;   infillExtruder,0
;   internalInfillPattern,Rectilinear
;   externalInfillPattern,Rectilinear
;   infillPercentage,25
;   outlineOverlapPercentage,15
;   infillExtrusionWidthPercentage,100
;   minInfillLength,5
;   infillLayerInterval,1
;   infillAngles,45,-45
;   overlapInfillAngles,0
;   generateSupport,0
;   supportExtruder,0
;   supportInfillPercentage,30
;   supportExtraInflation,0.4
;   denseSupportLayers,0
;   denseSupportInfillPercentage,70
;   supportLayerInterval,1
;   supportHorizontalPartOffset,0.3
;   supportUpperSeparationLayers,1
;   supportLowerSeparationLayers,1
;   supportType,0
;   supportGridSpacing,4
;   maxOverhangAngle,45
;   supportAngles,0
;   temperatureName,Primary Extruder,Heated Bed
;   temperatureNumber,0,1
;   temperatureSetpointCount,2,3
;   temperatureSetpointLayers,1,2,1,2,3
;   temperatureSetpointTemperatures,210,200,70,65,63
;   temperatureStabilizeAtStartup,1,1
;   temperatureHeatedBed,0,1
;   temperatureRelayBetweenLayers,0,0
;   temperatureRelayBetweenLoops,0,0
;   fanLayers,1,2,3
;   fanSpeeds,0,0,100
;   blipFanToFullPower,1
;   adjustSpeedForCooling,1
;   minSpeedLayerTime,15
;   minCoolingSpeedSlowdown,20
;   increaseFanForCooling,0
;   minFanLayerTime,45
;   maxCoolingFanSpeed,100
;   increaseFanForBridging,0
;   bridgingFanSpeed,100
;   use5D,1
;   relativeEdistances,0
;   allowEaxisZeroing,1
;   independentExtruderAxes,0
;   includeM10123,0
;   stickySupport,1
;   applyToolheadOffsets,0
;   gcodeXoffset,0
;   gcodeYoffset,0
;   gcodeZoffset,0
;   overrideMachineDefinition,1
;   machineTypeOverride,0
;   strokeXoverride,150
;   strokeYoverride,150
;   strokeZoverride,150
;   originOffsetXoverride,0
;   originOffsetYoverride,0
;   originOffsetZoverride,0
;   homeXdirOverride,-1
;   homeYdirOverride,-1
;   homeZdirOverride,-1
;   flipXoverride,1
;   flipYoverride,-1
;   flipZoverride,1
;   toolheadOffsets,0,0|0,0|0,0|0,0|0,0|0,0
;   overrideFirmwareConfiguration,1
;   firmwareTypeOverride,RepRap (Marlin/Repetier/Sprinter)
;   GPXconfigOverride,r2
;   baudRateOverride,250000
;   overridePrinterModels,1
;   printerModelsOverride
;   startingGcode,G28 X0 Y0 ; home X and Y axes,G29 ; probe z,M201 X1000 Y1000 ; acceleration settings
;   layerChangeGcode,
;   retractionGcode,
;   toolChangeGcode,
;   endingGcode,M104 S0 T0 ; turn off extruder,M140 S0 T1 ; turn off bed,G28 X0 Y0 ; home,M84 ; disable motors
;   createX3G,0
;   celebration,0
;   celebrationSong,Random Song
;   createMB5G,0
;   postProcessing,
;   defaultSpeed,3300
;   outlineUnderspeed,0.8
;   solidInfillUnderspeed,0.8
;   supportUnderspeed,0.8
;   rapidXYspeed,4200
;   rapidZspeed,1002
;   minBridgingArea,50
;   bridgingExtraInflation,0
;   bridgingExtrusionMultiplier,1
;   bridgingSpeedMultiplier,0.8
;   filamentDiameter,1.74
;   filamentPricePerKg,22
;   filamentDensity,1.25
;   useMinPrintHeight,0
;   minPrintHeight,0
;   useMaxPrintHeight,0
;   maxPrintHeight,0
;   useDiaphragm,0
;   diaphragmLayerInterval,20
;   robustSlicing,1
;   mergeAllIntoSolid,0
;   onlyRetractWhenCrossingOutline,1
;   retractBetweenLayers,1
;   useRetractionMinTravel,0
;   retractionMinTravel,3
;   retractWhileWiping,0
;   onlyWipeOutlines,1
;   avoidCrossingOutline,0
;   maxMovementDetourFactor,3
;   toolChangeRetractionDistance,12
;   toolChangeExtraRestartDistance,-0.5
;   toolChangeRetractionSpeed,600
;   allowThinWallGapFill,1
;   thinWallAllowedOverlapPercentage,10
;   horizontalSizeCompensation,0
G90
M82
M106 S0
M140 S70
M190 S70
M104 S210 T0
M109 S210 T0
G28 X0 Y0 ; home X and Y axes
G29 ; probe z
M201 X1000 Y1000 ; acceleration settings
G92 E0
G1 E-1.5000 F1800
G1 Z0.120 F1002
; layer 1, Z = 0.12
T0
; tool H0.200 W0.400
; skirt
G1 X8.876 Y13.751 F4200
G1 E0.1000 F540
G92 E0
G1 X10.089 Y13.055 E0.0471 F1650
G1 X10.122 Y13.037 E0.0483
G1 X10.300 Y12.944 E0.0551
G1 X10.333 Y12.928 E0.0563
G1 X11.628 Y12.320 E0.1044
G1 X11.662 Y12.305 E0.1057
G1 X11.847 Y12.227 E0.1125
G1 X11.882 Y12.213 E0.1137
G1 X13.196 Y11.723 E0.1609
G1 X13.231 Y11.711 E0.1621
G1 X13.418 Y11.650 E0.1688
G1 X13.453 Y11.639 E0.1700
G1 X14.780 Y11.263 E0.2164
G1 X14.814 Y11.254 E0.2176
G1 X15.002 Y11.208 E0.2241
G1 X15.036 Y11.201 E0.2253
G1 X16.354 Y10.937 E0.2705
G1 X16.389 Y10.931 E0.2717
G1 X16.581 Y10.900 E0.2782
G1 X16.616 Y10.895 E0.2794
G1 X17.996 Y10.732 E0.3261
G1 X18.031 Y10.728 E0.3273
G1 X18.221 Y10.713 E0.3338
G1 X18.256 Y10.711 E0.3349
G1 X19.535 Y10.659 E0.3780
G1 X19.561 Y10.659 E0.3789
G1 X19.700 Y10.657 E0.3835
G1 X19.725 Y10.657 E0.3844
G1 X20.433 Y10.669 E0.4082
G1 X20.459 Y10.670 E0.4091
G1 X20.601 Y10.676 E0.4139
G1 X20.627 Y10.678 E0.4147
G1 X21.941 Y10.776 E0.4591
G1 X21.976 Y10.779 E0.4603
G1 X22.167 Y10.801 E0.4667
G1 X22.202 Y10.806 E0.4679
G1 X23.551 Y11.014 E0.5138
G1 X23.586 Y11.020 E0.5150
G1 X23.778 Y11.057 E0.5216
G1 X23.813 Y11.065 E0.5228
G1 X25.162 Y11.385 E0.5694
G1 X25.197 Y11.394 E0.5707
G1 X25.387 Y11.447 E0.5773
G1 X25.422 Y11.458 E0.5785
G1 X26.756 Y11.890 E0.6257
G1 X26.791 Y11.902 E0.6270
G1 X26.978 Y11.971 E0.6337
G1 X27.013 Y11.985 E0.6349
G1 X28.318 Y12.529 E0.6825
G1 X28.352 Y12.544 E0.6838
G1 X28.535 Y12.629 E0.6905
G1 X28.568 Y12.646 E0.6918
G1 X29.831 Y13.299 E0.7396
G1 X29.863 Y13.317 E0.7409
G1 X30.039 Y13.417 E0.7477
G1 X30.071 Y13.436 E0.7489
G1 X31.278 Y14.192 E0.7968
G1 X31.309 Y14.213 E0.7981
G1 X31.476 Y14.327 E0.8049
G1 X31.506 Y14.349 E0.8061
G1 X32.645 Y15.201 E0.8540
G1 X32.674 Y15.224 E0.8552
G1 X32.830 Y15.351 E0.8620
G1 X32.859 Y15.375 E0.8633
G1 X33.919 Y16.313 E0.9109
G1 X33.946 Y16.338 E0.9122
G1 X34.091 Y16.477 E0.9189
G1 X34.117 Y16.503 E0.9202
G1 X35.095 Y17.524 E0.9677
G1 X35.120 Y17.551 E0.9690
G1 X35.253 Y17.701 E0.9757
G1 X35.277 Y17.730 E0.9769
G1 X36.167 Y18.826 E1.0245
G1 X36.190 Y18.854 E1.0257
G1 X36.309 Y19.014 E1.0324
G1 X36.330 Y19.044 E1.0336
G1 X36.458 Y19.230 E1.0412
G1 X51.214 Y15.277 E1.5552
G1 X66.777 Y-0.287 E2.2957
G1 X67.439 Y-0.561 E2.3198
G1 X71.469 Y-0.561 E2.4553
G1 X72.130 Y-0.287 E2.4794
G1 X79.985 Y7.568 E2.8531
G1 X87.563 Y5.537 E3.1171
G1 X88.037 Y5.537 E3.1330
G1 X90.565 Y6.214 E3.2211
G1 X90.975 Y6.451 E3.2370
G1 X143.549 Y59.025 E5.7384
G1 X143.786 Y59.435 E5.7544
G1 X144.463 Y61.963 E5.8424
G1 X144.463 Y62.437 E5.8584
G1 X142.432 Y70.015 E6.1223
G1 X150.287 Y77.870 E6.4960
G1 X150.561 Y78.531 E6.5201
G1 X150.561 Y82.561 E6.6557
G1 X150.287 Y83.223 E6.6798
G1 X134.723 Y98.786 E7.4203
G1 X130.771 Y113.538 E7.9341
G1 X130.840 Y113.584 E7.9369
G1 X130.869 Y113.605 E7.9381
G1 X131.026 Y113.721 E7.9447
G1 X131.055 Y113.743 E7.9459
G1 X132.137 Y114.608 E7.9925
G1 X132.165 Y114.632 E7.9937
G1 X132.315 Y114.761 E8.0004
G1 X132.342 Y114.786 E8.0016
G1 X133.363 Y115.747 E8.0488
G1 X133.389 Y115.773 E8.0500
G1 X133.529 Y115.916 E8.0567
G1 X133.554 Y115.942 E8.0580
G1 X134.501 Y116.993 E8.1056
G1 X134.525 Y117.021 E8.1068
G1 X134.654 Y117.176 E8.1136
G1 X134.677 Y117.205 E8.1148
G1 X135.540 Y118.335 E8.1627
G1 X135.562 Y118.365 E8.1639
G1 X135.677 Y118.531 E8.1707
G1 X135.698 Y118.562 E8.1720
G1 X136.466 Y119.762 E8.2199
G1 X136.485 Y119.793 E8.2211
G1 X136.587 Y119.968 E8.2279
G1 X136.605 Y120.000 E8.2292
G1 X137.270 Y121.258 E8.2770
G1 X137.287 Y121.291 E8.2783
G1 X137.374 Y121.472 E8.2851
G1 X137.389 Y121.506 E8.2863
G1 X137.946 Y122.808 E8.3340
G1 X137.960 Y122.842 E8.3352
G1 X138.032 Y123.030 E8.3420
G1 X138.044 Y123.065 E8.3432
G1 X138.492 Y124.405 E8.3908
G1 X138.503 Y124.441 E8.3920
G1 X138.559 Y124.633 E8.3987
G1 X138.568 Y124.669 E8.4000
G1 X138.905 Y126.040 E8.4475
G1 X138.913 Y126.076 E8.4487
G1 X138.952 Y126.271 E8.4554
G1 X138.959 Y126.307 E8.4567
G1 X139.180 Y127.681 E8.5035
G1 X139.185 Y127.717 E8.5047
G1 X139.208 Y127.912 E8.5113
G1 X139.212 Y127.947 E8.5125
G1 X139.320 Y129.311 E8.5585
G1 X139.322 Y129.347 E8.5597
G1 X139.330 Y129.540 E8.5662
G1 X139.331 Y129.576 E8.5674
G1 X139.331 Y130.939 E8.6133
G1 X139.330 Y130.974 E8.6145
G1 X139.323 Y131.161 E8.6208
G1 X139.321 Y131.196 E8.6219
G1 X139.222 Y132.483 E8.6654
G1 X139.219 Y132.518 E8.6666
G1 X139.198 Y132.705 E8.6729
G1 X139.193 Y132.739 E8.6741
G1 X138.985 Y134.082 E8.7198
G1 X138.979 Y134.117 E8.7210
G1 X138.942 Y134.305 E8.7274
G1 X138.935 Y134.340 E8.7286
G1 X138.627 Y135.646 E8.7738
G1 X138.618 Y135.681 E8.7750
G1 X138.567 Y135.866 E8.7814
G1 X138.557 Y135.899 E8.7826
G1 X138.148 Y137.176 E8.8277
G1 X138.139 Y137.201 E8.8286
G1 X138.090 Y137.339 E8.8335
G1 X138.081 Y137.364 E8.8344
G1 X137.814 Y138.054 E8.8593
G1 X137.804 Y138.079 E8.8602
G1 X137.746 Y138.215 E8.8652
G1 X137.735 Y138.240 E8.8661
G1 X137.164 Y139.486 E8.9122
G1 X137.148 Y139.519 E8.9134
G1 X137.057 Y139.696 E8.9201
G1 X137.040 Y139.728 E8.9214
G1 X136.351 Y140.957 E8.9688
G1 X136.332 Y140.989 E8.9700
G1 X136.227 Y141.160 E8.9768
G1 X136.207 Y141.191 E8.9780
G1 X135.428 Y142.346 E9.0249
G1 X135.412 Y142.369 E9.0258
G1 X135.324 Y142.492 E9.0309
G1 X135.307 Y142.514 E9.0319
G1 X134.843 Y143.119 E9.0575
G1 X134.825 Y143.140 E9.0584
G1 X134.729 Y143.258 E9.0635
G1 X134.711 Y143.279 E9.0645
G1 X133.808 Y144.316 E9.1107
G1 X133.789 Y144.337 E9.1117
G1 X133.684 Y144.450 E9.1169
G1 X133.664 Y144.470 E9.1178
G1 X133.119 Y145.021 E9.1439
G1 X133.100 Y145.041 E9.1448
G1 X132.992 Y145.143 E9.1498
G1 X132.972 Y145.162 E9.1508
G1 X131.943 Y146.083 E9.1972
G1 X131.915 Y146.106 E9.1984
G1 X131.762 Y146.233 E9.2051
G1 X131.733 Y146.256 E9.2064
G1 X130.638 Y147.086 E9.2526
G1 X130.616 Y147.102 E9.2535
G1 X130.493 Y147.190 E9.2586
G1 X130.470 Y147.206 E9.2596
G1 X129.827 Y147.634 E9.2855
G1 X129.803 Y147.649 E9.2865
G1 X129.675 Y147.728 E9.2916
G1 X129.651 Y147.743 E9.2925
G1 X128.451 Y148.439 E9.3392
G1 X128.419 Y148.456 E9.3404
G1 X128.242 Y148.549 E9.3471
G1 X128.210 Y148.565 E9.3483
G1 X126.953 Y149.163 E9.3952
G1 X126.920 Y149.178 E9.3964
G1 X126.740 Y149.255 E9.4030
G1 X126.707 Y149.269 E9.4042
G1 X125.428 Y149.756 E9.4502
G1 X125.395 Y149.768 E9.4514
G1 X125.211 Y149.830 E9.4579
G1 X125.177 Y149.840 E9.4591
G1 X123.890 Y150.217 E9.5042
G1 X123.864 Y150.224 E9.5051
G1 X123.725 Y150.261 E9.5100
G1 X123.699 Y150.267 E9.5109
G1 X121.072 Y150.871 E9.6016
G1 X120.357 Y150.747 E9.6260
G1 X116.916 Y148.545 E9.7634
G1 X116.504 Y147.948 E9.7878
G1 X115.069 Y141.083 E10.0238
G1 X115.193 Y140.393 E10.0473
G1 X117.297 Y137.062 E10.1799
G1 X117.866 Y136.653 E10.2035
G1 X120.332 Y136.054 E10.2889
G1 X120.697 Y135.941 E10.3017
G1 X121.058 Y135.802 E10.3147
G1 X121.414 Y135.639 E10.3279
G1 X121.761 Y135.451 E10.3412
G1 X122.098 Y135.239 E10.3546
G1 X122.423 Y135.003 E10.3681
G1 X122.721 Y134.755 E10.3811
G1 X123.019 Y134.472 E10.3949
G1 X123.290 Y134.177 E10.4084
G1 X123.531 Y133.877 E10.4214
G1 X123.767 Y133.541 E10.4352
G1 X123.971 Y133.202 E10.4485
G1 X124.153 Y132.852 E10.4618
G1 X124.303 Y132.511 E10.4743
G1 X124.442 Y132.129 E10.4880
G1 X124.547 Y131.773 E10.5005
G1 X124.631 Y131.400 E10.5133
G1 X124.692 Y131.017 E10.5264
G1 X124.728 Y130.628 E10.5395
G1 X124.739 Y130.233 E10.5528
G1 X124.724 Y129.836 E10.5662
G1 X124.682 Y129.437 E10.5797
G1 X124.616 Y129.054 E10.5928
G1 X124.520 Y128.655 E10.6066
G1 X124.400 Y128.272 E10.6201
G1 X124.261 Y127.913 E10.6330
G1 X124.087 Y127.542 E10.6468
G1 X123.897 Y127.195 E10.6601
G1 X123.684 Y126.863 E10.6734
G1 X123.464 Y126.562 E10.6859
G1 X123.202 Y126.250 E10.6996
G1 X122.947 Y125.982 E10.7121
G1 X122.666 Y125.723 E10.7249
G1 X122.365 Y125.479 E10.7380
G1 X122.046 Y125.252 E10.7511
G1 X121.709 Y125.046 E10.7644
G1 X121.358 Y124.860 E10.7778
G1 X120.991 Y124.697 E10.7913
G1 X120.626 Y124.562 E10.8044
G1 X120.233 Y124.446 E10.8182
G1 X119.842 Y124.359 E10.8317
G1 X119.461 Y124.300 E10.8446
G1 X119.052 Y124.264 E10.8584
G1 X118.657 Y124.256 E10.8717
G1 X118.263 Y124.274 E10.8850
G1 X117.892 Y124.314 E10.8975
G1 X117.491 Y124.385 E10.9112
G1 X117.131 Y124.472 E10.9237
G1 X116.766 Y124.586 E10.9366
G1 X116.405 Y124.724 E10.9496
G1 X116.049 Y124.888 E10.9628
G1 X115.702 Y125.076 E10.9761
G1 X115.365 Y125.287 E10.9894
G1 X115.040 Y125.523 E11.0029
G1 X114.742 Y125.772 E11.0160
G1 X114.445 Y126.055 E11.0298
G1 X114.173 Y126.350 E11.0433
G1 X113.932 Y126.650 E11.0562
G1 X113.696 Y126.986 E11.0701
G1 X113.492 Y127.325 E11.0834
G1 X113.311 Y127.672 E11.0965
G1 X113.156 Y128.026 E11.1095
G1 X112.284 Y130.415 E11.1951
G1 X111.815 Y130.935 E11.2187
G1 X108.271 Y132.655 E11.3512
G1 X107.571 Y132.702 E11.3748
G1 X100.874 Y130.501 E11.6119
G1 X100.320 Y130.014 E11.6368
G1 X98.530 Y126.259 E11.7767
G1 X98.500 Y125.522 E11.8015
G1 X99.764 Y122.198 E11.9212
G1 X99.780 Y122.160 E11.9226
G1 X99.869 Y121.955 E11.9301
G1 X99.886 Y121.918 E11.9315
G1 X99.944 Y121.800 E11.9359
G1 X28.200 Y50.055 E15.3494
G1 X28.063 Y50.122 E15.3546
G1 X28.025 Y50.140 E15.3559
G1 X27.819 Y50.229 E15.3635
G1 X27.781 Y50.244 E15.3649
G1 X24.475 Y51.500 E15.4839
G1 X23.738 Y51.469 E15.5087
G1 X19.985 Y49.679 E15.6486
G1 X19.498 Y49.125 E15.6734
G1 X17.298 Y42.428 E15.9105
G1 X17.345 Y41.729 E15.9341
G1 X19.066 Y38.184 E16.0667
G1 X19.586 Y37.715 E16.0903
G1 X21.971 Y36.846 E16.1756
G1 X22.320 Y36.692 E16.1885
G1 X22.664 Y36.515 E16.2015
G1 X23.000 Y36.313 E16.2147
G1 X23.324 Y36.088 E16.2279
G1 X23.635 Y35.840 E16.2413
G1 X23.931 Y35.569 E16.2548
G1 X24.201 Y35.289 E16.2679
G1 X24.465 Y34.975 E16.2817
G1 X24.701 Y34.651 E16.2952
G1 X24.908 Y34.326 E16.3082
G1 X25.104 Y33.966 E16.3220
G1 X25.270 Y33.607 E16.3353
G1 X25.412 Y33.240 E16.3485
G1 X25.523 Y32.883 E16.3611
G1 X25.619 Y32.488 E16.3748
G1 X25.683 Y32.123 E16.3872
G1 X25.726 Y31.743 E16.4001
G1 X25.744 Y31.356 E16.4131
G1 X25.737 Y30.965 E16.4263
G1 X25.704 Y30.572 E16.4396
G1 X25.644 Y30.178 E16.4529
G1 X25.558 Y29.786 E16.4665
G1 X25.451 Y29.413 E16.4795
G1 X25.310 Y29.027 E16.4933
G1 X25.149 Y28.660 E16.5068
G1 X24.971 Y28.319 E16.5198
G1 X24.757 Y27.969 E16.5336
G1 X24.529 Y27.645 E16.5469
G1 X24.281 Y27.339 E16.5601
G1 X24.029 Y27.065 E16.5727
G1 X23.734 Y26.783 E16.5864
G1 X23.450 Y26.546 E16.5989
G1 X23.142 Y26.319 E16.6117
G1 X22.816 Y26.110 E16.6247
G1 X22.474 Y25.920 E16.6379
G1 X22.116 Y25.752 E16.6512
G1 X21.746 Y25.607 E16.6646
G1 X21.364 Y25.485 E16.6781
G1 X20.987 Y25.392 E16.6912
G1 X20.582 Y25.321 E16.7050
G1 X20.184 Y25.277 E16.7184
G1 X19.799 Y25.261 E16.7314
G1 X19.389 Y25.271 E16.7452
G1 X18.995 Y25.307 E16.7585
G1 X18.606 Y25.368 E16.7718
G1 X18.242 Y25.449 E16.7843
G1 X17.851 Y25.564 E16.7980
G1 X17.503 Y25.691 E16.8105
G1 X17.153 Y25.845 E16.8233
