; G-Code generated by Simplify3D(R) Version 3.0.2
; Oct 22, 2015 at 8:48:49 PM
; Settings Summary
;   processName,Process1
;   applyToModels,mm_ps_40x100x165_lower
;   profileName,PrinterBot Simple Metal Custom (modified)
;   profileVersion,2015-05-01 08:00:00
;   baseProfile,Default (modified)
;   printMaterial,PLA
;   printQuality,Medium
;   printExtruders,
;   extruderName,Primary Extruder
;   extruderToolheadNumber,0
;   extruderDiameter,0.4
;   extruderAutoWidth,0
;   extruderWidth,0.4
;   extrusionMultiplier,1
;   extruderUseRetract,1
;   extruderRetractionDistance,1.5
;   extruderExtraRestartDistance,0.1
;   extruderRetractionZLift,0
;   extruderRetractionSpeed,1800
;   extruderUseCoasting,0
;   extruderCoastingDistance,0.2
;   extruderUseWipe,0
;   extruderWipeDistance,5
;   primaryExtruder,0
;   layerHeight,0.2
;   topSolidLayers,3
;   bottomSolidLayers,3
;   perimeterOutlines,2
;   printPerimetersInsideOut,1
;   startPointOption,2
;   startPointOriginX,0
;   startPointOriginY,0
;   startPointOriginZ,300
;   sequentialIslands,0
;   spiralVaseMode,0
;   firstLayerHeightPercentage,60
;   firstLayerWidthPercentage,100
;   firstLayerUnderspeed,0.5
;   useRaft,0
;   raftExtruder,0
;   raftLayers,3
;   raftOffset,3
;   raftSeparationDistance,0.14
;   raftInfill,85
;   disableRaftBaseLayers,0
;   useSkirt,1
;   skirtExtruder,0
;   skirtLayers,1
;   skirtOutlines,5
;   skirtOffset,4
;   usePrimePillar,0
;   primePillarExtruder,999
;   primePillarWidth,12
;   primePillarLocation,7
;   primePillarSpeedMultiplier,1
;   useOozeShield,0
;   oozeShieldExtruder,999
;   oozeShieldOffset,2
;   oozeShieldOutlines,1
;   oozeShieldSidewallShape,1
;   oozeShieldSidewallAngle,30
;   oozeShieldSpeedMultiplier,1
;   infillExtruder,0
;   internalInfillPattern,Rectilinear
;   externalInfillPattern,Rectilinear
;   infillPercentage,25
;   outlineOverlapPercentage,15
;   infillExtrusionWidthPercentage,100
;   minInfillLength,5
;   infillLayerInterval,1
;   infillAngles,45,-45
;   overlapInfillAngles,0
;   generateSupport,0
;   supportExtruder,0
;   supportInfillPercentage,30
;   supportExtraInflation,0.4
;   denseSupportLayers,0
;   denseSupportInfillPercentage,70
;   supportLayerInterval,1
;   supportHorizontalPartOffset,0.3
;   supportUpperSeparationLayers,1
;   supportLowerSeparationLayers,1
;   supportType,0
;   supportGridSpacing,4
;   maxOverhangAngle,45
;   supportAngles,0
;   temperatureName,Primary Extruder,Heated Bed
;   temperatureNumber,0,1
;   temperatureSetpointCount,2,3
;   temperatureSetpointLayers,1,2,1,2,3
;   temperatureSetpointTemperatures,210,200,70,65,63
;   temperatureStabilizeAtStartup,1,1
;   temperatureHeatedBed,0,1
;   temperatureRelayBetweenLayers,0,0
;   temperatureRelayBetweenLoops,0,0
;   fanLayers,1,2,3
;   fanSpeeds,0,0,100
;   blipFanToFullPower,1
;   adjustSpeedForCooling,1
;   minSpeedLayerTime,15
;   minCoolingSpeedSlowdown,20
;   increaseFanForCooling,0
;   minFanLayerTime,45
;   maxCoolingFanSpeed,100
;   increaseFanForBridging,0
;   bridgingFanSpeed,100
;   use5D,1
;   relativeEdistances,0
;   allowEaxisZeroing,1
;   independentExtruderAxes,0
;   includeM10123,0
;   stickySupport,1
;   applyToolheadOffsets,0
;   gcodeXoffset,0
;   gcodeYoffset,0
;   gcodeZoffset,0
;   overrideMachineDefinition,1
;   machineTypeOverride,0
;   strokeXoverride,150
;   strokeYoverride,150
;   strokeZoverride,150
;   originOffsetXoverride,0
;   originOffsetYoverride,0
;   originOffsetZoverride,0
;   homeXdirOverride,-1
;   homeYdirOverride,-1
;   homeZdirOverride,-1
;   flipXoverride,1
;   flipYoverride,-1
;   flipZoverride,1
;   toolheadOffsets,0,0|0,0|0,0|0,0|0,0|0,0
;   overrideFirmwareConfiguration,1
;   firmwareTypeOverride,RepRap (Marlin/Repetier/Sprinter)
;   GPXconfigOverride,r2
;   baudRateOverride,250000
;   overridePrinterModels,1
;   printerModelsOverride
;   startingGcode,G28 X0 Y0 ; home X and Y axes,G29 ; probe z,M201 X1000 Y1000 ; acceleration settings
;   layerChangeGcode,
;   retractionGcode,
;   toolChangeGcode,
;   endingGcode,M104 S0 T0 ; turn off extruder,M140 S0 T1 ; turn off bed,G28 X0 Y0 ; home,M84 ; disable motors
;   createX3G,0
;   celebration,0
;   celebrationSong,Random Song
;   createMB5G,0
;   postProcessing,
;   defaultSpeed,3300
;   outlineUnderspeed,0.8
;   solidInfillUnderspeed,0.8
;   supportUnderspeed,0.8
;   rapidXYspeed,4200
;   rapidZspeed,1002
;   minBridgingArea,50
;   bridgingExtraInflation,0
;   bridgingExtrusionMultiplier,1
;   bridgingSpeedMultiplier,0.8
;   filamentDiameter,1.74
;   filamentPricePerKg,22
;   filamentDensity,1.25
;   useMinPrintHeight,0
;   minPrintHeight,0
;   useMaxPrintHeight,0
;   maxPrintHeight,0
;   useDiaphragm,0
;   diaphragmLayerInterval,20
;   robustSlicing,1
;   mergeAllIntoSolid,0
;   onlyRetractWhenCrossingOutline,1
;   retractBetweenLayers,1
;   useRetractionMinTravel,0
;   retractionMinTravel,3
;   retractWhileWiping,0
;   onlyWipeOutlines,1
;   avoidCrossingOutline,0
;   maxMovementDetourFactor,3
;   toolChangeRetractionDistance,12
;   toolChangeExtraRestartDistance,-0.5
;   toolChangeRetractionSpeed,600
;   allowThinWallGapFill,1
;   thinWallAllowedOverlapPercentage,10
;   horizontalSizeCompensation,0
G90
M82
M106 S0
M140 S70
M190 S70
M104 S210 T0
M109 S210 T0
G28 X0 Y0 ; home X and Y axes
G29 ; probe z
M201 X1000 Y1000 ; acceleration settings
G92 E0
G1 E-1.5000 F1800
G1 Z0.120 F1002
; layer 1, Z = 0.12
T0
; tool H0.200 W0.400
; skirt
G1 X9.043 Y13.649 F4200
G1 E0.1000 F540
G92 E0
G1 X10.272 Y12.960 E0.0474 F1650
G1 X10.304 Y12.943 E0.0486
G1 X10.481 Y12.852 E0.0553
G1 X10.514 Y12.836 E0.0566
G1 X11.782 Y12.255 E0.1035
G1 X11.815 Y12.240 E0.1047
G1 X11.997 Y12.166 E0.1113
G1 X12.030 Y12.153 E0.1125
G1 X13.323 Y11.681 E0.1588
G1 X13.357 Y11.670 E0.1600
G1 X13.541 Y11.610 E0.1665
G1 X13.575 Y11.600 E0.1677
G1 X14.880 Y11.238 E0.2133
G1 X14.914 Y11.230 E0.2145
G1 X15.099 Y11.186 E0.2209
G1 X15.133 Y11.179 E0.2220
G1 X16.436 Y10.924 E0.2667
G1 X16.470 Y10.918 E0.2678
G1 X16.654 Y10.889 E0.2741
G1 X16.688 Y10.884 E0.2753
G1 X17.958 Y10.735 E0.3183
G1 X17.984 Y10.733 E0.3192
G1 X18.124 Y10.720 E0.3239
G1 X18.150 Y10.718 E0.3248
G1 X18.883 Y10.675 E0.3495
G1 X18.910 Y10.674 E0.3504
G1 X19.055 Y10.669 E0.3553
G1 X19.082 Y10.669 E0.3562
G1 X20.424 Y10.669 E0.4013
G1 X20.460 Y10.670 E0.4025
G1 X20.653 Y10.678 E0.4091
G1 X20.689 Y10.680 E0.4103
G1 X22.053 Y10.788 E0.4563
G1 X22.088 Y10.792 E0.4575
G1 X22.283 Y10.815 E0.4641
G1 X22.319 Y10.820 E0.4653
G1 X23.693 Y11.041 E0.5121
G1 X23.729 Y11.048 E0.5134
G1 X23.924 Y11.087 E0.5201
G1 X23.960 Y11.095 E0.5213
G1 X25.331 Y11.432 E0.5688
G1 X25.367 Y11.441 E0.5700
G1 X25.559 Y11.497 E0.5768
G1 X25.595 Y11.508 E0.5780
G1 X26.935 Y11.956 E0.6256
G1 X26.970 Y11.968 E0.6268
G1 X27.158 Y12.040 E0.6336
G1 X27.192 Y12.054 E0.6348
G1 X28.494 Y12.611 E0.6825
G1 X28.528 Y12.626 E0.6837
G1 X28.709 Y12.713 E0.6905
G1 X28.742 Y12.730 E0.6917
G1 X30.000 Y13.395 E0.7396
G1 X30.033 Y13.413 E0.7409
G1 X30.208 Y13.515 E0.7477
G1 X30.240 Y13.535 E0.7489
G1 X31.450 Y14.310 E0.7973
G1 X31.481 Y14.331 E0.7985
G1 X31.647 Y14.447 E0.8054
G1 X31.677 Y14.469 E0.8066
G1 X32.797 Y15.324 E0.8540
G1 X32.826 Y15.347 E0.8553
G1 X32.980 Y15.475 E0.8620
G1 X33.008 Y15.499 E0.8632
G1 X34.058 Y16.446 E0.9108
G1 X34.084 Y16.471 E0.9120
G1 X34.227 Y16.611 E0.9188
G1 X34.253 Y16.637 E0.9200
G1 X35.214 Y17.658 E0.9672
G1 X35.239 Y17.685 E0.9684
G1 X35.369 Y17.835 E0.9751
G1 X35.392 Y17.863 E0.9763
G1 X36.257 Y18.945 E1.0229
G1 X36.279 Y18.974 E1.0241
G1 X36.395 Y19.131 E1.0307
G1 X36.416 Y19.160 E1.0319
G1 X36.462 Y19.229 E1.0347
G1 X51.214 Y15.277 E1.5485
G1 X66.777 Y-0.287 E2.2890
G1 X67.439 Y-0.561 E2.3131
G1 X71.469 Y-0.561 E2.4487
G1 X72.130 Y-0.287 E2.4728
G1 X79.985 Y7.568 E2.8465
G1 X87.563 Y5.537 E3.1104
G1 X88.037 Y5.537 E3.1264
G1 X90.565 Y6.214 E3.2144
G1 X90.975 Y6.451 E3.2304
G1 X143.549 Y59.025 E5.7318
G1 X143.786 Y59.435 E5.7477
G1 X144.463 Y61.963 E5.8358
G1 X144.463 Y62.437 E5.8517
G1 X142.432 Y70.015 E6.1157
G1 X150.287 Y77.870 E6.4894
G1 X150.561 Y78.531 E6.5134
G1 X150.561 Y82.561 E6.6490
G1 X150.287 Y83.223 E6.6731
G1 X134.723 Y98.786 E7.4136
G1 X130.769 Y113.544 E7.9276
G1 X131.622 Y114.181 E7.9634
G1 X131.651 Y114.204 E7.9647
G1 X131.806 Y114.330 E7.9714
G1 X131.834 Y114.354 E7.9727
G1 X132.887 Y115.283 E8.0199
G1 X132.914 Y115.308 E8.0211
G1 X133.058 Y115.446 E8.0278
G1 X133.084 Y115.472 E8.0291
G1 X134.071 Y116.498 E8.0770
G1 X134.096 Y116.525 E8.0782
G1 X134.231 Y116.677 E8.0850
G1 X134.255 Y116.705 E8.0863
G1 X135.152 Y117.807 E8.1341
G1 X135.174 Y117.836 E8.1353
G1 X135.295 Y117.997 E8.1421
G1 X135.317 Y118.027 E8.1434
G1 X136.115 Y119.191 E8.1908
G1 X136.135 Y119.222 E8.1921
G1 X136.243 Y119.393 E8.1989
G1 X136.262 Y119.425 E8.2001
G1 X136.980 Y120.683 E8.2489
G1 X136.998 Y120.716 E8.2501
G1 X137.092 Y120.897 E8.2570
G1 X137.108 Y120.931 E8.2583
G1 X137.702 Y122.207 E8.3056
G1 X137.717 Y122.240 E8.3068
G1 X137.794 Y122.424 E8.3135
G1 X137.807 Y122.458 E8.3148
G1 X138.296 Y123.779 E8.3622
G1 X138.308 Y123.814 E8.3634
G1 X138.369 Y124.004 E8.3701
G1 X138.380 Y124.039 E8.3714
G1 X138.759 Y125.395 E8.4187
G1 X138.768 Y125.430 E8.4199
G1 X138.813 Y125.621 E8.4265
G1 X138.821 Y125.657 E8.4278
G1 X139.081 Y126.996 E8.4737
G1 X139.088 Y127.030 E8.4748
G1 X139.117 Y127.221 E8.4813
G1 X139.122 Y127.256 E8.4825
G1 X139.275 Y128.600 E8.5280
G1 X139.278 Y128.635 E8.5292
G1 X139.292 Y128.825 E8.5356
G1 X139.294 Y128.859 E8.5368
G1 X139.342 Y130.186 E8.5814
G1 X139.343 Y130.220 E8.5826
G1 X139.342 Y130.407 E8.5889
G1 X139.341 Y130.441 E8.5900
G1 X139.290 Y131.719 E8.6330
G1 X139.289 Y131.745 E8.6339
G1 X139.279 Y131.886 E8.6387
G1 X139.277 Y131.911 E8.6395
G1 X139.205 Y132.642 E8.6642
G1 X139.202 Y132.669 E8.6651
G1 X139.184 Y132.813 E8.6700
G1 X139.180 Y132.840 E8.6709
G1 X138.970 Y134.165 E8.7161
G1 X138.963 Y134.200 E8.7173
G1 X138.925 Y134.390 E8.7238
G1 X138.918 Y134.425 E8.7250
G1 X138.597 Y135.755 E8.7710
G1 X138.588 Y135.790 E8.7722
G1 X138.535 Y135.978 E8.7788
G1 X138.524 Y136.013 E8.7800
G1 X138.099 Y137.311 E8.8260
G1 X138.090 Y137.337 E8.8269
G1 X138.039 Y137.477 E8.8319
G1 X138.030 Y137.503 E8.8329
G1 X137.752 Y138.204 E8.8582
G1 X137.741 Y138.229 E8.8592
G1 X137.682 Y138.367 E8.8642
G1 X137.670 Y138.392 E8.8652
G1 X137.084 Y139.642 E8.9116
G1 X137.068 Y139.675 E8.9128
G1 X136.976 Y139.851 E8.9195
G1 X136.959 Y139.884 E8.9207
G1 X136.252 Y141.119 E8.9686
G1 X136.232 Y141.151 E8.9699
G1 X136.125 Y141.322 E8.9767
G1 X136.104 Y141.354 E8.9780
G1 X135.313 Y142.503 E9.0249
G1 X135.297 Y142.526 E9.0258
G1 X135.207 Y142.648 E9.0309
G1 X135.191 Y142.670 E9.0319
G1 X134.721 Y143.270 E9.0575
G1 X134.703 Y143.292 E9.0585
G1 X134.606 Y143.408 E9.0636
G1 X134.588 Y143.429 E9.0645
G1 X133.675 Y144.457 E9.1107
G1 X133.656 Y144.477 E9.1117
G1 X133.552 Y144.588 E9.1168
G1 X133.532 Y144.608 E9.1177
G1 X132.982 Y145.155 E9.1438
G1 X132.962 Y145.174 E9.1448
G1 X132.851 Y145.278 E9.1499
G1 X132.830 Y145.296 E9.1508
G1 X131.792 Y146.207 E9.1973
G1 X131.764 Y146.231 E9.1985
G1 X131.609 Y146.356 E9.2052
G1 X131.580 Y146.379 E9.2064
G1 X130.470 Y147.204 E9.2530
G1 X130.447 Y147.220 E9.2539
G1 X130.324 Y147.306 E9.2590
G1 X130.302 Y147.321 E9.2599
G1 X129.674 Y147.730 E9.2851
G1 X129.651 Y147.745 E9.2860
G1 X129.525 Y147.822 E9.2910
G1 X129.501 Y147.835 E9.2919
G1 X128.319 Y148.509 E9.3377
G1 X128.287 Y148.526 E9.3389
G1 X128.114 Y148.615 E9.3455
G1 X128.081 Y148.631 E9.3467
G1 X126.845 Y149.210 E9.3926
G1 X126.813 Y149.224 E9.3938
G1 X126.636 Y149.299 E9.4002
G1 X126.603 Y149.312 E9.4014
G1 X125.369 Y149.775 E9.4458
G1 X125.344 Y149.784 E9.4467
G1 X125.210 Y149.830 E9.4514
G1 X125.185 Y149.838 E9.4523
G1 X124.510 Y150.048 E9.4761
G1 X124.485 Y150.055 E9.4770
G1 X124.350 Y150.093 E9.4817
G1 X124.326 Y150.100 E9.4825
G1 X121.159 Y150.889 E9.5923
G1 X120.434 Y150.773 E9.6170
G1 X116.929 Y148.575 E9.7562
G1 X116.510 Y147.973 E9.7809
G1 X115.069 Y141.084 E10.0177
G1 X115.193 Y140.394 E10.0413
G1 X117.296 Y137.063 E10.1738
G1 X117.865 Y136.654 E10.1974
G1 X120.336 Y136.053 E10.2829
G1 X120.704 Y135.938 E10.2959
G1 X121.079 Y135.794 E10.3094
G1 X121.427 Y135.632 E10.3223
G1 X121.790 Y135.435 E10.3362
G1 X122.114 Y135.228 E10.3492
G1 X122.445 Y134.986 E10.3630
G1 X122.751 Y134.729 E10.3764
G1 X123.032 Y134.458 E10.3895
G1 X123.303 Y134.161 E10.4031
G1 X123.551 Y133.851 E10.4164
G1 X123.776 Y133.526 E10.4297
G1 X123.978 Y133.191 E10.4429
G1 X124.156 Y132.847 E10.4559
G1 X124.309 Y132.497 E10.4688
G1 X124.439 Y132.140 E10.4815
G1 X124.550 Y131.760 E10.4949
G1 X124.632 Y131.394 E10.5075
G1 X124.693 Y131.005 E10.5207
G1 X124.729 Y130.611 E10.5340
G1 X124.739 Y130.201 E10.5479
G1 X124.723 Y129.816 E10.5608
G1 X124.679 Y129.418 E10.5743
G1 X124.608 Y129.013 E10.5881
G1 X124.515 Y128.636 E10.6012
G1 X124.393 Y128.254 E10.6147
G1 X124.244 Y127.875 E10.6284
G1 X124.081 Y127.529 E10.6412
G1 X123.885 Y127.176 E10.6548
G1 X123.682 Y126.860 E10.6675
G1 X123.455 Y126.550 E10.6804
G1 X123.211 Y126.259 E10.6932
G1 X122.937 Y125.973 E10.7065
G1 X122.661 Y125.719 E10.7191
G1 X122.347 Y125.465 E10.7327
G1 X122.033 Y125.244 E10.7456
G1 X121.681 Y125.029 E10.7595
G1 X121.340 Y124.851 E10.7724
G1 X120.973 Y124.690 E10.7859
G1 X120.587 Y124.549 E10.7997
G1 X120.214 Y124.442 E10.8128
G1 X119.822 Y124.356 E10.8263
G1 X119.428 Y124.296 E10.8397
G1 X119.036 Y124.263 E10.8529
G1 X118.635 Y124.256 E10.8664
G1 X118.259 Y124.274 E10.8791
G1 X117.877 Y124.317 E10.8920
G1 X117.512 Y124.381 E10.9045
G1 X117.116 Y124.477 E10.9182
G1 X116.761 Y124.588 E10.9307
G1 X116.384 Y124.733 E10.9443
G1 X116.036 Y124.895 E10.9572
G1 X115.674 Y125.092 E10.9711
G1 X115.349 Y125.299 E10.9841
G1 X115.025 Y125.536 E10.9975
G1 X114.711 Y125.799 E11.0114
G1 X114.431 Y126.069 E11.0244
G1 X114.160 Y126.365 E11.0379
G1 X113.912 Y126.676 E11.0513
G1 X113.687 Y127.000 E11.0646
G1 X113.485 Y127.336 E11.0778
G1 X113.308 Y127.680 E11.0908
G1 X113.154 Y128.029 E11.1036
G1 X112.285 Y130.414 E11.1890
G1 X111.816 Y130.934 E11.2126
G1 X108.271 Y132.655 E11.3451
G1 X107.572 Y132.702 E11.3687
G1 X100.875 Y130.501 E11.6059
G1 X100.321 Y130.014 E11.6307
G1 X98.530 Y126.260 E11.7706
G1 X98.500 Y125.523 E11.7955
G1 X99.760 Y122.208 E11.9148
G1 X99.776 Y122.169 E11.9162
G1 X99.865 Y121.964 E11.9237
G1 X99.882 Y121.927 E11.9251
G1 X99.944 Y121.800 E11.9298
G1 X28.200 Y50.056 E15.3434
G1 X28.075 Y50.117 E15.3480
G1 X28.037 Y50.134 E15.3494
G1 X27.829 Y50.225 E15.3571
G1 X27.791 Y50.240 E15.3585
G1 X24.476 Y51.500 E15.4778
G1 X23.739 Y51.470 E15.5026
G1 X19.986 Y49.679 E15.6425
G1 X19.498 Y49.125 E15.6673
G1 X17.298 Y42.429 E15.9045
G1 X17.345 Y41.729 E15.9281
G1 X19.065 Y38.185 E16.0606
G1 X19.585 Y37.716 E16.0842
G1 X21.974 Y36.844 E16.1697
G1 X22.328 Y36.689 E16.1827
G1 X22.675 Y36.508 E16.1959
G1 X23.014 Y36.303 E16.2092
G1 X23.350 Y36.068 E16.2230
G1 X23.650 Y35.827 E16.2359
G1 X23.945 Y35.556 E16.2494
G1 X24.228 Y35.258 E16.2632
G1 X24.477 Y34.960 E16.2763
G1 X24.713 Y34.635 E16.2898
G1 X24.924 Y34.299 E16.3032
G1 X25.116 Y33.943 E16.3168
G1 X25.275 Y33.597 E16.3296
G1 X25.414 Y33.234 E16.3427
G1 X25.527 Y32.869 E16.3555
G1 X25.617 Y32.500 E16.3683
G1 X25.685 Y32.110 E16.3816
G1 X25.726 Y31.737 E16.3943
G1 X25.744 Y31.343 E16.4075
G1 X25.736 Y30.948 E16.4208
G1 X25.700 Y30.539 E16.4346
G1 X25.641 Y30.159 E16.4476
G1 X25.554 Y29.767 E16.4611
G1 X25.438 Y29.374 E16.4749
G1 X25.303 Y29.009 E16.4879
G1 X25.140 Y28.642 E16.5015
G1 X24.954 Y28.291 E16.5148
G1 X24.748 Y27.955 E16.5281
G1 X24.516 Y27.628 E16.5416
G1 X24.279 Y27.336 E16.5542
G1 X24.018 Y27.054 E16.5672
G1 X23.750 Y26.798 E16.5796
G1 X23.438 Y26.536 E16.5933
G1 X23.137 Y26.315 E16.6059
G1 X22.805 Y26.104 E16.6191
G1 X22.458 Y25.913 E16.6324
G1 X22.087 Y25.739 E16.6462
G1 X21.727 Y25.600 E16.6592
G1 X21.345 Y25.480 E16.6727
G1 X20.946 Y25.384 E16.6865
G1 X20.563 Y25.318 E16.6996
G1 X20.164 Y25.276 E16.7131
G1 X19.767 Y25.261 E16.7264
G1 X19.372 Y25.272 E16.7397
G1 X18.982 Y25.308 E16.7529
G1 X18.601 Y25.369 E16.7659
G1 X18.218 Y25.455 E16.7791
G1 X17.873 Y25.557 E16.7912
G1 X17.489 Y25.697 E16.8050
G1 X17.147 Y25.847 E16.8175
