; G-Code generated by Simplify3D(R) Version 3.0.2
; Oct 22, 2015 at 6:57:54 PM
; Settings Summary
;   processName,Process1
;   applyToModels,mm_pi_upper
;   profileName,PrinterBot Simple Metal Custom (modified)
;   profileVersion,2015-05-01 08:00:00
;   baseProfile,Default (modified)
;   printMaterial,PLA
;   printQuality,Medium
;   printExtruders,
;   extruderName,Primary Extruder
;   extruderToolheadNumber,0
;   extruderDiameter,0.4
;   extruderAutoWidth,0
;   extruderWidth,0.4
;   extrusionMultiplier,1
;   extruderUseRetract,1
;   extruderRetractionDistance,1.5
;   extruderExtraRestartDistance,0.1
;   extruderRetractionZLift,0
;   extruderRetractionSpeed,1800
;   extruderUseCoasting,0
;   extruderCoastingDistance,0.2
;   extruderUseWipe,0
;   extruderWipeDistance,5
;   primaryExtruder,0
;   layerHeight,0.2
;   topSolidLayers,3
;   bottomSolidLayers,3
;   perimeterOutlines,2
;   printPerimetersInsideOut,1
;   startPointOption,2
;   startPointOriginX,0
;   startPointOriginY,0
;   startPointOriginZ,300
;   sequentialIslands,0
;   spiralVaseMode,0
;   firstLayerHeightPercentage,60
;   firstLayerWidthPercentage,100
;   firstLayerUnderspeed,0.5
;   useRaft,0
;   raftExtruder,0
;   raftLayers,3
;   raftOffset,3
;   raftSeparationDistance,0.14
;   raftInfill,85
;   disableRaftBaseLayers,0
;   useSkirt,1
;   skirtExtruder,0
;   skirtLayers,1
;   skirtOutlines,5
;   skirtOffset,4
;   usePrimePillar,0
;   primePillarExtruder,999
;   primePillarWidth,12
;   primePillarLocation,7
;   primePillarSpeedMultiplier,1
;   useOozeShield,0
;   oozeShieldExtruder,999
;   oozeShieldOffset,2
;   oozeShieldOutlines,1
;   oozeShieldSidewallShape,1
;   oozeShieldSidewallAngle,30
;   oozeShieldSpeedMultiplier,1
;   infillExtruder,0
;   internalInfillPattern,Rectilinear
;   externalInfillPattern,Rectilinear
;   infillPercentage,25
;   outlineOverlapPercentage,15
;   infillExtrusionWidthPercentage,100
;   minInfillLength,5
;   infillLayerInterval,1
;   infillAngles,45,-45
;   overlapInfillAngles,0
;   generateSupport,0
;   supportExtruder,0
;   supportInfillPercentage,30
;   supportExtraInflation,0.4
;   denseSupportLayers,0
;   denseSupportInfillPercentage,70
;   supportLayerInterval,1
;   supportHorizontalPartOffset,0.3
;   supportUpperSeparationLayers,1
;   supportLowerSeparationLayers,1
;   supportType,0
;   supportGridSpacing,4
;   maxOverhangAngle,45
;   supportAngles,0
;   temperatureName,Primary Extruder,Heated Bed
;   temperatureNumber,0,1
;   temperatureSetpointCount,2,3
;   temperatureSetpointLayers,1,2,1,2,3
;   temperatureSetpointTemperatures,210,200,70,65,63
;   temperatureStabilizeAtStartup,1,1
;   temperatureHeatedBed,0,1
;   temperatureRelayBetweenLayers,0,0
;   temperatureRelayBetweenLoops,0,0
;   fanLayers,1,2,3
;   fanSpeeds,0,0,100
;   blipFanToFullPower,1
;   adjustSpeedForCooling,1
;   minSpeedLayerTime,15
;   minCoolingSpeedSlowdown,20
;   increaseFanForCooling,0
;   minFanLayerTime,45
;   maxCoolingFanSpeed,100
;   increaseFanForBridging,0
;   bridgingFanSpeed,100
;   use5D,1
;   relativeEdistances,0
;   allowEaxisZeroing,1
;   independentExtruderAxes,0
;   includeM10123,0
;   stickySupport,1
;   applyToolheadOffsets,0
;   gcodeXoffset,0
;   gcodeYoffset,0
;   gcodeZoffset,0
;   overrideMachineDefinition,1
;   machineTypeOverride,0
;   strokeXoverride,150
;   strokeYoverride,150
;   strokeZoverride,150
;   originOffsetXoverride,0
;   originOffsetYoverride,0
;   originOffsetZoverride,0
;   homeXdirOverride,-1
;   homeYdirOverride,-1
;   homeZdirOverride,-1
;   flipXoverride,1
;   flipYoverride,-1
;   flipZoverride,1
;   toolheadOffsets,0,0|0,0|0,0|0,0|0,0|0,0
;   overrideFirmwareConfiguration,1
;   firmwareTypeOverride,RepRap (Marlin/Repetier/Sprinter)
;   GPXconfigOverride,r2
;   baudRateOverride,250000
;   overridePrinterModels,1
;   printerModelsOverride
;   startingGcode,G28 X0 Y0 ; home X and Y axes,G29 ; probe z,M201 X1000 Y1000 ; acceleration settings
;   layerChangeGcode,
;   retractionGcode,
;   toolChangeGcode,
;   endingGcode,M104 S0 T0 ; turn off extruder,M140 S0 T1 ; turn off bed,G28 X0 Y0 ; home,M84 ; disable motors
;   createX3G,0
;   celebration,0
;   celebrationSong,Random Song
;   createMB5G,0
;   postProcessing,
;   defaultSpeed,3300
;   outlineUnderspeed,0.8
;   solidInfillUnderspeed,0.8
;   supportUnderspeed,0.8
;   rapidXYspeed,4200
;   rapidZspeed,1002
;   minBridgingArea,50
;   bridgingExtraInflation,0
;   bridgingExtrusionMultiplier,1
;   bridgingSpeedMultiplier,0.8
;   filamentDiameter,1.74
;   filamentPricePerKg,22
;   filamentDensity,1.25
;   useMinPrintHeight,0
;   minPrintHeight,0
;   useMaxPrintHeight,0
;   maxPrintHeight,0
;   useDiaphragm,0
;   diaphragmLayerInterval,20
;   robustSlicing,1
;   mergeAllIntoSolid,0
;   onlyRetractWhenCrossingOutline,1
;   retractBetweenLayers,1
;   useRetractionMinTravel,0
;   retractionMinTravel,3
;   retractWhileWiping,0
;   onlyWipeOutlines,1
;   avoidCrossingOutline,0
;   maxMovementDetourFactor,3
;   toolChangeRetractionDistance,12
;   toolChangeExtraRestartDistance,-0.5
;   toolChangeRetractionSpeed,600
;   allowThinWallGapFill,1
;   thinWallAllowedOverlapPercentage,10
;   horizontalSizeCompensation,0
G90
M82
M106 S0
M140 S70
M190 S70
M104 S210 T0
M109 S210 T0
G28 X0 Y0 ; home X and Y axes
G29 ; probe z
M201 X1000 Y1000 ; acceleration settings
G92 E0
G1 E-1.5000 F1800
G1 Z0.120 F1002
; layer 1, Z = 0.12
T0
; tool H0.200 W0.400
; skirt
G1 X10.886 Y10.971 F4200
G1 E0.1000 F540
G92 E0
G1 X11.609 Y10.293 E0.0334 F1650
G1 X11.629 Y10.276 E0.0342
G1 X11.734 Y10.183 E0.0390
G1 X11.754 Y10.166 E0.0398
G1 X12.530 Y9.518 E0.0739
G1 X12.551 Y9.501 E0.0747
G1 X12.663 Y9.413 E0.0796
G1 X12.684 Y9.397 E0.0805
G1 X13.494 Y8.798 E0.1143
G1 X13.515 Y8.782 E0.1152
G1 X13.632 Y8.701 E0.1200
G1 X13.654 Y8.686 E0.1209
G1 X14.490 Y8.140 E0.1545
G1 X14.511 Y8.126 E0.1554
G1 X14.632 Y8.052 E0.1601
G1 X14.654 Y8.039 E0.1610
G1 X15.512 Y7.546 E0.1943
G1 X15.535 Y7.534 E0.1951
G1 X15.659 Y7.467 E0.1999
G1 X15.682 Y7.455 E0.2008
G1 X16.575 Y7.009 E0.2343
G1 X16.598 Y6.998 E0.2352
G1 X16.725 Y6.939 E0.2399
G1 X16.748 Y6.928 E0.2408
G1 X17.639 Y6.545 E0.2734
G1 X17.662 Y6.535 E0.2743
G1 X17.791 Y6.484 E0.2789
G1 X17.815 Y6.475 E0.2798
G1 X18.734 Y6.139 E0.3127
G1 X18.759 Y6.130 E0.3136
G1 X18.891 Y6.086 E0.3183
G1 X18.916 Y6.078 E0.3191
G1 X19.862 Y5.792 E0.3524
G1 X19.887 Y5.785 E0.3533
G1 X20.023 Y5.749 E0.3580
G1 X20.048 Y5.742 E0.3589
G1 X21.018 Y5.509 E0.3924
G1 X21.043 Y5.504 E0.3933
G1 X21.182 Y5.474 E0.3981
G1 X21.208 Y5.469 E0.3990
G1 X22.197 Y5.292 E0.4328
G1 X22.223 Y5.288 E0.4336
G1 X22.364 Y5.266 E0.4385
G1 X22.390 Y5.263 E0.4393
G1 X23.411 Y5.141 E0.4739
G1 X23.438 Y5.138 E0.4748
G1 X23.583 Y5.125 E0.4798
G1 X23.610 Y5.123 E0.4807
G1 X24.604 Y5.063 E0.5142
G1 X24.630 Y5.062 E0.5150
G1 X24.771 Y5.058 E0.5198
G1 X24.797 Y5.057 E0.5207
G1 X25.811 Y5.055 E0.5548
G1 X25.837 Y5.056 E0.5557
G1 X25.981 Y5.060 E0.5605
G1 X26.008 Y5.061 E0.5614
G1 X27.040 Y5.120 E0.5962
G1 X27.067 Y5.121 E0.5971
G1 X27.213 Y5.134 E0.6020
G1 X27.240 Y5.137 E0.6029
G1 X28.229 Y5.253 E0.6364
G1 X28.255 Y5.256 E0.6373
G1 X28.394 Y5.277 E0.6420
G1 X28.420 Y5.281 E0.6429
G1 X29.413 Y5.456 E0.6769
G1 X29.439 Y5.461 E0.6777
G1 X29.580 Y5.490 E0.6826
G1 X29.606 Y5.495 E0.6835
G1 X30.591 Y5.729 E0.7175
G1 X30.617 Y5.736 E0.7184
G1 X30.755 Y5.773 E0.7233
G1 X30.780 Y5.780 E0.7241
G1 X31.745 Y6.069 E0.7580
G1 X31.770 Y6.077 E0.7589
G1 X31.905 Y6.122 E0.7637
G1 X31.930 Y6.131 E0.7646
G1 X32.868 Y6.473 E0.7982
G1 X32.892 Y6.482 E0.7990
G1 X33.024 Y6.534 E0.8038
G1 X33.047 Y6.544 E0.8047
G1 X33.956 Y6.936 E0.8379
G1 X33.980 Y6.946 E0.8388
G1 X34.108 Y7.006 E0.8436
G1 X34.131 Y7.017 E0.8444
G1 X35.023 Y7.464 E0.8780
G1 X35.046 Y7.476 E0.8789
G1 X35.169 Y7.542 E0.8836
G1 X35.192 Y7.555 E0.8845
G1 X36.033 Y8.038 E0.9171
G1 X36.054 Y8.051 E0.9179
G1 X36.172 Y8.123 E0.9226
G1 X36.194 Y8.137 E0.9234
G1 X37.014 Y8.672 E0.9564
G1 X37.035 Y8.686 E0.9572
G1 X37.150 Y8.766 E0.9619
G1 X37.171 Y8.781 E0.9628
G1 X37.967 Y9.368 E0.9961
G1 X37.987 Y9.383 E0.9970
G1 X38.098 Y9.470 E1.0017
G1 X38.118 Y9.486 E1.0026
G1 X38.886 Y10.123 E1.0361
G1 X38.906 Y10.140 E1.0370
G1 X39.013 Y10.234 E1.0418
G1 X39.032 Y10.252 E1.0427
G1 X39.766 Y10.937 E1.0764
G1 X39.785 Y10.955 E1.0773
G1 X39.887 Y11.055 E1.0821
G1 X39.905 Y11.074 E1.0830
G1 X40.602 Y11.805 E1.1170
G1 X40.620 Y11.824 E1.1179
G1 X40.716 Y11.931 E1.1227
G1 X40.733 Y11.951 E1.1236
G1 X41.401 Y12.738 E1.1583
G1 X41.418 Y12.759 E1.1592
G1 X41.509 Y12.873 E1.1642
G1 X41.526 Y12.895 E1.1651
G1 X42.135 Y13.708 E1.1993
G1 X42.151 Y13.729 E1.2001
G1 X42.234 Y13.847 E1.2050
G1 X42.249 Y13.869 E1.2059
G1 X42.809 Y14.716 E1.2400
G1 X42.823 Y14.738 E1.2409
G1 X42.899 Y14.860 E1.2458
G1 X42.913 Y14.883 E1.2467
G1 X43.421 Y15.760 E1.2808
G1 X43.434 Y15.783 E1.2817
G1 X43.503 Y15.909 E1.2865
G1 X43.515 Y15.932 E1.2874
G1 X43.961 Y16.818 E1.3207
G1 X43.972 Y16.841 E1.3216
G1 X44.032 Y16.968 E1.3263
G1 X44.043 Y16.992 E1.3272
G1 X44.446 Y17.920 E1.3612
G1 X44.456 Y17.944 E1.3621
G1 X44.509 Y18.077 E1.3669
G1 X44.518 Y18.102 E1.3678
G1 X44.865 Y19.047 E1.4017
G1 X44.873 Y19.072 E1.4026
G1 X44.918 Y19.207 E1.4074
G1 X44.926 Y19.232 E1.4082
G1 X45.215 Y20.188 E1.4418
G1 X45.222 Y20.213 E1.4427
G1 X45.259 Y20.349 E1.4475
G1 X45.265 Y20.374 E1.4483
G1 X45.496 Y21.337 E1.4816
G1 X45.502 Y21.362 E1.4825
G1 X45.530 Y21.500 E1.4873
G1 X45.535 Y21.526 E1.4881
G1 X45.712 Y22.508 E1.5217
G1 X45.716 Y22.533 E1.5226
G1 X45.737 Y22.671 E1.5273
G1 X45.740 Y22.697 E1.5281
G1 X45.857 Y23.660 E1.5608
G1 X45.860 Y23.685 E1.5616
G1 X45.873 Y23.823 E1.5663
G1 X45.875 Y23.848 E1.5671
G1 X45.938 Y24.825 E1.6001
G1 X45.939 Y24.851 E1.6009
G1 X45.944 Y24.990 E1.6056
G1 X45.944 Y25.016 E1.6065
G1 X45.952 Y26.005 E1.6398
G1 X45.951 Y26.031 E1.6406
G1 X45.948 Y26.172 E1.6454
G1 X45.947 Y26.197 E1.6462
G1 X45.897 Y27.193 E1.6798
G1 X45.896 Y27.220 E1.6807
G1 X45.884 Y27.361 E1.6855
G1 X45.882 Y27.387 E1.6863
G1 X45.774 Y28.386 E1.7201
G1 X45.770 Y28.412 E1.7210
G1 X45.751 Y28.553 E1.7258
G1 X45.747 Y28.579 E1.7267
G1 X45.579 Y29.575 E1.7607
G1 X45.575 Y29.601 E1.7616
G1 X45.547 Y29.742 E1.7664
G1 X45.541 Y29.767 E1.7673
G1 X45.311 Y30.773 E1.8020
G1 X45.304 Y30.800 E1.8029
G1 X45.267 Y30.942 E1.8078
G1 X45.260 Y30.968 E1.8087
G1 X44.974 Y31.943 E1.8429
G1 X44.966 Y31.968 E1.8438
G1 X44.922 Y32.105 E1.8487
G1 X44.913 Y32.130 E1.8496
G1 X44.571 Y33.086 E1.8837
G1 X44.562 Y33.111 E1.8846
G1 X44.509 Y33.245 E1.8895
G1 X44.499 Y33.269 E1.8903
G1 X44.109 Y34.184 E1.9238
G1 X44.099 Y34.208 E1.9247
G1 X44.040 Y34.336 E1.9294
G1 X44.029 Y34.359 E1.9303
G1 X43.581 Y35.263 E1.9642
G1 X43.569 Y35.286 E1.9651
G1 X43.501 Y35.413 E1.9699
G1 X43.488 Y35.436 E1.9708
G1 X43.223 Y35.900 E1.9888
G1 X52.015 Y46.592 E2.4545
G1 X56.897 Y41.710 E2.6868
G1 X57.969 Y41.496 E2.7236
G1 X63.916 Y43.960 E2.9402
G1 X64.523 Y44.868 E2.9769
G1 X64.523 Y54.360 E3.2962
G1 X76.910 Y66.747 E3.8856
G1 X77.184 Y67.409 E3.9097
G1 X77.184 Y71.438 E4.0453
G1 X77.173 Y71.465 E4.0462
G1 X78.535 Y72.827 E4.1110
G1 X78.561 Y72.816 E4.1120
G1 X82.591 Y72.816 E4.2476
G1 X83.252 Y73.090 E4.2716
G1 X95.639 Y85.477 E4.8610
G1 X105.131 Y85.477 E5.1804
G1 X106.040 Y86.084 E5.2171
G1 X108.503 Y92.031 E5.4337
G1 X108.290 Y93.102 E5.4704
G1 X103.407 Y97.985 E5.7027
G1 X114.099 Y106.776 E6.1684
G1 X114.449 Y106.573 E6.1820
G1 X114.472 Y106.560 E6.1829
G1 X114.598 Y106.492 E6.1877
G1 X114.621 Y106.480 E6.1886
G1 X115.523 Y106.026 E6.2226
G1 X115.546 Y106.014 E6.2235
G1 X115.677 Y105.954 E6.2283
G1 X115.701 Y105.943 E6.2292
G1 X116.631 Y105.541 E6.2633
G1 X116.655 Y105.531 E6.2642
G1 X116.789 Y105.478 E6.2690
G1 X116.814 Y105.468 E6.2699
G1 X117.785 Y105.114 E6.3047
G1 X117.811 Y105.106 E6.3056
G1 X117.950 Y105.059 E6.3105
G1 X117.976 Y105.051 E6.3114
G1 X118.950 Y104.762 E6.3456
G1 X118.976 Y104.754 E6.3465
G1 X119.115 Y104.717 E6.3514
G1 X119.140 Y104.711 E6.3523
G1 X120.109 Y104.484 E6.3857
G1 X120.134 Y104.478 E6.3866
G1 X120.272 Y104.450 E6.3913
G1 X120.297 Y104.445 E6.3922
G1 X121.291 Y104.272 E6.4261
G1 X121.317 Y104.268 E6.4270
G1 X121.459 Y104.247 E6.4319
G1 X121.485 Y104.244 E6.4327
G1 X122.492 Y104.128 E6.4668
G1 X122.518 Y104.125 E6.4677
G1 X122.661 Y104.113 E6.4725
G1 X122.687 Y104.111 E6.4734
G1 X123.693 Y104.055 E6.5073
G1 X123.719 Y104.054 E6.5082
G1 X123.861 Y104.050 E6.5130
G1 X123.887 Y104.050 E6.5139
G1 X124.886 Y104.052 E6.5475
G1 X124.912 Y104.053 E6.5483
G1 X125.053 Y104.057 E6.5531
G1 X125.079 Y104.058 E6.5539
G1 X126.066 Y104.118 E6.5872
G1 X126.092 Y104.119 E6.5881
G1 X126.233 Y104.132 E6.5929
G1 X126.259 Y104.135 E6.5937
G1 X127.250 Y104.252 E6.6273
G1 X127.275 Y104.255 E6.6282
G1 X127.414 Y104.275 E6.6329
G1 X127.439 Y104.279 E6.6337
G1 X128.394 Y104.448 E6.6664
G1 X128.419 Y104.453 E6.6672
G1 X128.554 Y104.480 E6.6719
G1 X128.579 Y104.486 E6.6727
G1 X129.532 Y104.710 E6.7057
G1 X129.557 Y104.716 E6.7065
G1 X129.692 Y104.752 E6.7112
G1 X129.717 Y104.759 E6.7121
G1 X130.665 Y105.040 E6.7454
G1 X130.690 Y105.048 E6.7462
G1 X130.824 Y105.091 E6.7510
G1 X130.848 Y105.100 E6.7518
G1 X131.787 Y105.438 E6.7854
G1 X131.811 Y105.447 E6.7863
G1 X131.943 Y105.499 E6.7911
G1 X131.968 Y105.509 E6.7919
G1 X132.891 Y105.903 E6.8257
G1 X132.915 Y105.914 E6.8266
G1 X133.045 Y105.974 E6.8314
G1 X133.069 Y105.985 E6.8323
G1 X133.972 Y106.435 E6.8663
G1 X133.996 Y106.447 E6.8672
G1 X134.122 Y106.515 E6.8720
G1 X134.146 Y106.528 E6.8729
G1 X135.041 Y107.041 E6.9076
G1 X135.064 Y107.054 E6.9085
G1 X135.189 Y107.131 E6.9134
G1 X135.212 Y107.146 E6.9143
G1 X136.062 Y107.703 E6.9485
G1 X136.084 Y107.718 E6.9494
G1 X136.202 Y107.800 E6.9543
G1 X136.223 Y107.816 E6.9552
G1 X137.023 Y108.410 E6.9887
G1 X137.043 Y108.426 E6.9896
G1 X137.154 Y108.513 E6.9943
G1 X137.174 Y108.530 E6.9952
G1 X137.951 Y109.179 E7.0292
G1 X137.970 Y109.196 E7.0301
G1 X138.078 Y109.292 E7.0349
G1 X138.097 Y109.310 E7.0358
G1 X138.833 Y110.002 E7.0698
G1 X138.852 Y110.021 E7.0707
G1 X138.953 Y110.122 E7.0755
G1 X138.972 Y110.141 E7.0764
G1 X139.680 Y110.891 E7.1111
G1 X139.698 Y110.911 E7.1120
G1 X139.795 Y111.020 E7.1170
G1 X139.813 Y111.041 E7.1179
G1 X140.448 Y111.799 E7.1512
G1 X140.465 Y111.819 E7.1520
G1 X140.551 Y111.929 E7.1567
G1 X140.567 Y111.949 E7.1576
G1 X141.162 Y112.749 E7.1911
G1 X141.178 Y112.770 E7.1920
G1 X141.258 Y112.885 E7.1968
G1 X141.273 Y112.907 E7.1976
G1 X141.817 Y113.733 E7.2309
G1 X141.831 Y113.755 E7.2318
G1 X141.906 Y113.875 E7.2365
G1 X141.919 Y113.897 E7.2374
G1 X142.419 Y114.761 E7.2710
G1 X142.432 Y114.784 E7.2719
G1 X142.498 Y114.906 E7.2766
G1 X142.510 Y114.929 E7.2774
G1 X142.948 Y115.795 E7.3100
G1 X142.959 Y115.818 E7.3109
G1 X143.018 Y115.943 E7.3156
G1 X143.028 Y115.966 E7.3164
G1 X143.420 Y116.863 E7.3494
G1 X143.430 Y116.887 E7.3502
G1 X143.482 Y117.016 E7.3549
G1 X143.491 Y117.040 E7.3558
G1 X143.834 Y117.968 E7.3890
G1 X143.843 Y117.992 E7.3899
G1 X143.888 Y118.126 E7.3947
G1 X143.896 Y118.150 E7.3955
G1 X144.188 Y119.104 E7.4291
G1 X144.195 Y119.129 E7.4300
G1 X144.233 Y119.266 E7.4347
G1 X144.239 Y119.291 E7.4356
G1 X144.477 Y120.267 E7.4694
G1 X144.483 Y120.293 E7.4703
G1 X144.512 Y120.433 E7.4751
G1 X144.518 Y120.458 E7.4760
G1 X144.699 Y121.451 E7.5099
G1 X144.703 Y121.477 E7.5108
G1 X144.725 Y121.619 E7.5157
G1 X144.728 Y121.646 E7.5166
G1 X144.854 Y122.670 E7.5513
G1 X144.857 Y122.697 E7.5522
G1 X144.870 Y122.843 E7.5571
G1 X144.872 Y122.870 E7.5580
G1 X144.935 Y123.884 E7.5922
G1 X144.937 Y123.911 E7.5931
G1 X144.941 Y124.055 E7.5980
G1 X144.942 Y124.081 E7.5989
G1 X144.945 Y125.096 E7.6330
G1 X144.945 Y125.123 E7.6339
G1 X144.941 Y125.267 E7.6387
G1 X144.940 Y125.293 E7.6396
G1 X144.884 Y126.305 E7.6737
G1 X144.882 Y126.331 E7.6746
G1 X144.870 Y126.474 E7.6794
G1 X144.867 Y126.501 E7.6803
G1 X144.754 Y127.486 E7.7137
G1 X144.751 Y127.511 E7.7146
G1 X144.731 Y127.650 E7.7193
G1 X144.727 Y127.676 E7.7202
G1 X144.554 Y128.673 E7.7542
G1 X144.549 Y128.698 E7.7551
G1 X144.521 Y128.839 E7.7599
G1 X144.515 Y128.865 E7.7608
G1 X144.285 Y129.845 E7.7947
G1 X144.279 Y129.871 E7.7956
G1 X144.242 Y130.008 E7.8003
