; G-Code generated by Simplify3D(R) Version 3.0.2
; Oct 22, 2015 at 2:25:11 PM
; Settings Summary
;   processName,Process1
;   applyToModels,mm_ramps1dot4_pi_lower
;   profileName,PrinterBot Simple Metal Custom (modified)
;   profileVersion,2015-05-01 08:00:00
;   baseProfile,Default (modified)
;   printMaterial,PLA
;   printQuality,Medium
;   printExtruders,
;   extruderName,Primary Extruder
;   extruderToolheadNumber,0
;   extruderDiameter,0.4
;   extruderAutoWidth,0
;   extruderWidth,0.4
;   extrusionMultiplier,1
;   extruderUseRetract,1
;   extruderRetractionDistance,1.5
;   extruderExtraRestartDistance,0.1
;   extruderRetractionZLift,0
;   extruderRetractionSpeed,1800
;   extruderUseCoasting,0
;   extruderCoastingDistance,0.2
;   extruderUseWipe,0
;   extruderWipeDistance,5
;   primaryExtruder,0
;   layerHeight,0.2
;   topSolidLayers,3
;   bottomSolidLayers,3
;   perimeterOutlines,2
;   printPerimetersInsideOut,1
;   startPointOption,2
;   startPointOriginX,0
;   startPointOriginY,0
;   startPointOriginZ,300
;   sequentialIslands,0
;   spiralVaseMode,0
;   firstLayerHeightPercentage,60
;   firstLayerWidthPercentage,100
;   firstLayerUnderspeed,0.5
;   useRaft,0
;   raftExtruder,0
;   raftLayers,3
;   raftOffset,3
;   raftSeparationDistance,0.14
;   raftInfill,85
;   disableRaftBaseLayers,0
;   useSkirt,1
;   skirtExtruder,0
;   skirtLayers,1
;   skirtOutlines,5
;   skirtOffset,4
;   usePrimePillar,0
;   primePillarExtruder,999
;   primePillarWidth,12
;   primePillarLocation,7
;   primePillarSpeedMultiplier,1
;   useOozeShield,0
;   oozeShieldExtruder,999
;   oozeShieldOffset,2
;   oozeShieldOutlines,1
;   oozeShieldSidewallShape,1
;   oozeShieldSidewallAngle,30
;   oozeShieldSpeedMultiplier,1
;   infillExtruder,0
;   internalInfillPattern,Rectilinear
;   externalInfillPattern,Rectilinear
;   infillPercentage,25
;   outlineOverlapPercentage,15
;   infillExtrusionWidthPercentage,100
;   minInfillLength,5
;   infillLayerInterval,1
;   infillAngles,45,-45
;   overlapInfillAngles,0
;   generateSupport,0
;   supportExtruder,0
;   supportInfillPercentage,30
;   supportExtraInflation,0.4
;   denseSupportLayers,0
;   denseSupportInfillPercentage,70
;   supportLayerInterval,1
;   supportHorizontalPartOffset,0.3
;   supportUpperSeparationLayers,1
;   supportLowerSeparationLayers,1
;   supportType,0
;   supportGridSpacing,4
;   maxOverhangAngle,45
;   supportAngles,0
;   temperatureName,Primary Extruder,Heated Bed
;   temperatureNumber,0,1
;   temperatureSetpointCount,2,3
;   temperatureSetpointLayers,1,2,1,2,3
;   temperatureSetpointTemperatures,210,200,70,65,63
;   temperatureStabilizeAtStartup,1,1
;   temperatureHeatedBed,0,1
;   temperatureRelayBetweenLayers,0,0
;   temperatureRelayBetweenLoops,0,0
;   fanLayers,1,2,3
;   fanSpeeds,0,0,100
;   blipFanToFullPower,1
;   adjustSpeedForCooling,1
;   minSpeedLayerTime,15
;   minCoolingSpeedSlowdown,20
;   increaseFanForCooling,0
;   minFanLayerTime,45
;   maxCoolingFanSpeed,100
;   increaseFanForBridging,0
;   bridgingFanSpeed,100
;   use5D,1
;   relativeEdistances,0
;   allowEaxisZeroing,1
;   independentExtruderAxes,0
;   includeM10123,0
;   stickySupport,1
;   applyToolheadOffsets,0
;   gcodeXoffset,0
;   gcodeYoffset,0
;   gcodeZoffset,0
;   overrideMachineDefinition,1
;   machineTypeOverride,0
;   strokeXoverride,150
;   strokeYoverride,150
;   strokeZoverride,150
;   originOffsetXoverride,0
;   originOffsetYoverride,0
;   originOffsetZoverride,0
;   homeXdirOverride,-1
;   homeYdirOverride,-1
;   homeZdirOverride,-1
;   flipXoverride,1
;   flipYoverride,-1
;   flipZoverride,1
;   toolheadOffsets,0,0|0,0|0,0|0,0|0,0|0,0
;   overrideFirmwareConfiguration,1
;   firmwareTypeOverride,RepRap (Marlin/Repetier/Sprinter)
;   GPXconfigOverride,r2
;   baudRateOverride,250000
;   overridePrinterModels,1
;   printerModelsOverride
;   startingGcode,G28 X0 Y0 ; home X and Y axes,G29 ; probe z,M201 X1000 Y1000 ; acceleration settings
;   layerChangeGcode,
;   retractionGcode,
;   toolChangeGcode,
;   endingGcode,M104 S0 T0 ; turn off extruder,M140 S0 T1 ; turn off bed,G28 X0 Y0 ; home,M84 ; disable motors
;   createX3G,0
;   celebration,0
;   celebrationSong,Random Song
;   createMB5G,0
;   postProcessing,
;   defaultSpeed,3300
;   outlineUnderspeed,0.8
;   solidInfillUnderspeed,0.8
;   supportUnderspeed,0.8
;   rapidXYspeed,4200
;   rapidZspeed,1002
;   minBridgingArea,50
;   bridgingExtraInflation,0
;   bridgingExtrusionMultiplier,1
;   bridgingSpeedMultiplier,0.8
;   filamentDiameter,1.74
;   filamentPricePerKg,22
;   filamentDensity,1.25
;   useMinPrintHeight,0
;   minPrintHeight,0
;   useMaxPrintHeight,0
;   maxPrintHeight,0
;   useDiaphragm,0
;   diaphragmLayerInterval,20
;   robustSlicing,1
;   mergeAllIntoSolid,0
;   onlyRetractWhenCrossingOutline,1
;   retractBetweenLayers,1
;   useRetractionMinTravel,0
;   retractionMinTravel,3
;   retractWhileWiping,0
;   onlyWipeOutlines,1
;   avoidCrossingOutline,0
;   maxMovementDetourFactor,3
;   toolChangeRetractionDistance,12
;   toolChangeExtraRestartDistance,-0.5
;   toolChangeRetractionSpeed,600
;   allowThinWallGapFill,1
;   thinWallAllowedOverlapPercentage,10
;   horizontalSizeCompensation,0
G90
M82
M106 S0
M140 S70
M190 S70
M104 S210 T0
M109 S210 T0
G28 X0 Y0 ; home X and Y axes
G29 ; probe z
M201 X1000 Y1000 ; acceleration settings
G92 E0
G1 E-1.5000 F1800
G1 Z0.120 F1002
; layer 1, Z = 0.12
T0
; tool H0.200 W0.400
; skirt
G1 X10.166 Y11.909 F4200
G1 E0.1000 F540
G92 E0
G1 X10.186 Y11.893 E0.0008 F1650
G1 X10.292 Y11.811 E0.0054
G1 X10.312 Y11.796 E0.0062
G1 X11.082 Y11.233 E0.0383
G1 X11.102 Y11.219 E0.0391
G1 X11.212 Y11.143 E0.0436
G1 X11.233 Y11.129 E0.0444
G1 X12.000 Y10.631 E0.0752
G1 X12.020 Y10.618 E0.0760
G1 X12.130 Y10.550 E0.0804
G1 X12.151 Y10.538 E0.0812
G1 X12.969 Y10.065 E0.1130
G1 X13.000 Y10.048 E0.1142
G1 X13.170 Y9.959 E0.1206
G1 X13.202 Y9.943 E0.1218
G1 X14.758 Y9.200 E0.1798
G1 X14.790 Y9.185 E0.1810
G1 X14.967 Y9.109 E0.1875
G1 X15.000 Y9.096 E0.1887
G1 X15.923 Y8.741 E0.2220
G1 X15.956 Y8.729 E0.2232
G1 X16.138 Y8.667 E0.2296
G1 X16.171 Y8.657 E0.2308
G1 X17.799 Y8.173 E0.2879
G1 X17.832 Y8.164 E0.2891
G1 X18.014 Y8.117 E0.2954
G1 X18.048 Y8.109 E0.2966
G1 X18.937 Y7.918 E0.3272
G1 X18.960 Y7.913 E0.3280
G1 X19.083 Y7.890 E0.3322
G1 X19.106 Y7.886 E0.3330
G1 X19.990 Y7.742 E0.3631
G1 X20.014 Y7.739 E0.3639
G1 X20.141 Y7.721 E0.3682
G1 X20.164 Y7.718 E0.3690
G1 X21.069 Y7.620 E0.3996
G1 X21.093 Y7.617 E0.4004
G1 X21.223 Y7.607 E0.4048
G1 X21.247 Y7.605 E0.4056
G1 X22.169 Y7.554 E0.4367
G1 X22.193 Y7.553 E0.4375
G1 X22.325 Y7.549 E0.4420
G1 X22.349 Y7.549 E0.4428
G1 X23.285 Y7.547 E0.4742
G1 X23.309 Y7.547 E0.4751
G1 X23.443 Y7.551 E0.4796
G1 X23.468 Y7.552 E0.4804
G1 X24.413 Y7.602 E0.5123
G1 X24.438 Y7.603 E0.5131
G1 X24.573 Y7.614 E0.5177
G1 X24.598 Y7.617 E0.5185
G1 X25.562 Y7.721 E0.5511
G1 X25.587 Y7.724 E0.5520
G1 X25.722 Y7.743 E0.5565
G1 X25.747 Y7.747 E0.5574
G1 X26.666 Y7.898 E0.5887
G1 X26.691 Y7.903 E0.5896
G1 X26.821 Y7.928 E0.5941
G1 X26.845 Y7.933 E0.5949
G1 X27.783 Y8.141 E0.6272
G1 X27.807 Y8.147 E0.6280
G1 X27.939 Y8.180 E0.6326
G1 X27.963 Y8.186 E0.6334
G1 X28.867 Y8.440 E0.6650
G1 X28.890 Y8.447 E0.6658
G1 X29.018 Y8.486 E0.6703
G1 X29.042 Y8.494 E0.6712
G1 X29.946 Y8.802 E0.7033
G1 X29.970 Y8.810 E0.7042
G1 X30.097 Y8.858 E0.7087
G1 X30.120 Y8.867 E0.7096
G1 X31.009 Y9.226 E0.7418
G1 X31.033 Y9.235 E0.7427
G1 X31.158 Y9.290 E0.7473
G1 X31.181 Y9.300 E0.7481
G1 X32.062 Y9.715 E0.7809
G1 X32.084 Y9.726 E0.7817
G1 X32.207 Y9.787 E0.7863
G1 X32.229 Y9.799 E0.7872
G1 X33.061 Y10.249 E0.8190
G1 X33.083 Y10.261 E0.8198
G1 X33.199 Y10.328 E0.8244
G1 X33.220 Y10.340 E0.8252
G1 X34.035 Y10.840 E0.8574
G1 X34.056 Y10.854 E0.8582
G1 X34.170 Y10.928 E0.8628
G1 X34.191 Y10.942 E0.8636
G1 X34.975 Y11.485 E0.8957
G1 X34.995 Y11.499 E0.8965
G1 X35.104 Y11.579 E0.9011
G1 X35.124 Y11.595 E0.9019
G1 X35.884 Y12.185 E0.9343
G1 X35.903 Y12.201 E0.9351
G1 X36.008 Y12.287 E0.9397
G1 X36.027 Y12.303 E0.9405
G1 X36.728 Y12.913 E0.9718
G1 X36.746 Y12.929 E0.9726
G1 X36.843 Y13.018 E0.9770
G1 X36.860 Y13.035 E0.9778
G1 X37.531 Y13.685 E1.0093
G1 X37.548 Y13.702 E1.0101
G1 X37.640 Y13.797 E1.0145
G1 X37.657 Y13.814 E1.0153
G1 X38.286 Y14.494 E1.0465
G1 X38.302 Y14.511 E1.0473
G1 X38.388 Y14.610 E1.0517
G1 X38.404 Y14.628 E1.0525
G1 X38.990 Y15.332 E1.0833
G1 X39.005 Y15.351 E1.0841
G1 X39.085 Y15.452 E1.0885
G1 X39.099 Y15.471 E1.0893
G1 X39.578 Y16.114 E1.1162
G1 X90.678 Y2.422 E2.8961
G1 X91.152 Y2.422 E2.9120
G1 X93.680 Y3.099 E3.0001
G1 X94.091 Y3.336 E3.0160
G1 X146.664 Y55.909 E5.5174
G1 X146.901 Y56.320 E5.5333
G1 X147.578 Y58.848 E5.6214
G1 X147.578 Y59.322 E5.6374
G1 X133.887 Y110.419 E7.4171
G1 X133.971 Y110.480 E7.4206
G1 X133.990 Y110.495 E7.4214
G1 X134.730 Y111.060 E7.4527
G1 X134.749 Y111.075 E7.4535
G1 X134.853 Y111.159 E7.4580
G1 X134.871 Y111.174 E7.4588
G1 X135.588 Y111.787 E7.4906
G1 X135.607 Y111.803 E7.4914
G1 X135.707 Y111.894 E7.4959
G1 X135.726 Y111.911 E7.4968
G1 X136.425 Y112.578 E7.5293
G1 X136.443 Y112.595 E7.5301
G1 X136.538 Y112.692 E7.5347
G1 X136.556 Y112.710 E7.5356
G1 X137.197 Y113.394 E7.5671
G1 X137.214 Y113.412 E7.5679
G1 X137.302 Y113.512 E7.5724
G1 X137.318 Y113.530 E7.5732
G1 X137.926 Y114.253 E7.6050
G1 X137.941 Y114.273 E7.6058
G1 X138.025 Y114.378 E7.6104
G1 X138.041 Y114.398 E7.6112
G1 X138.619 Y115.169 E7.6437
G1 X138.634 Y115.189 E7.6445
G1 X138.713 Y115.301 E7.6491
G1 X138.727 Y115.321 E7.6499
G1 X139.249 Y116.104 E7.6816
G1 X139.262 Y116.125 E7.6824
G1 X139.334 Y116.239 E7.6869
G1 X139.347 Y116.260 E7.6878
G1 X139.833 Y117.084 E7.7200
G1 X139.846 Y117.106 E7.7208
G1 X139.912 Y117.225 E7.7254
G1 X139.923 Y117.247 E7.7262
G1 X140.365 Y118.099 E7.7585
G1 X140.376 Y118.121 E7.7594
G1 X140.435 Y118.245 E7.7640
G1 X140.446 Y118.267 E7.7648
G1 X140.845 Y119.155 E7.7976
G1 X140.855 Y119.178 E7.7984
G1 X140.907 Y119.305 E7.8030
G1 X140.917 Y119.328 E7.8039
G1 X141.255 Y120.210 E7.8356
G1 X141.263 Y120.233 E7.8365
G1 X141.308 Y120.360 E7.8410
G1 X141.316 Y120.383 E7.8418
G1 X141.608 Y121.292 E7.8739
G1 X141.615 Y121.316 E7.8748
G1 X141.653 Y121.447 E7.8793
G1 X141.660 Y121.470 E7.8802
G1 X141.904 Y122.404 E7.9126
G1 X141.910 Y122.428 E7.9135
G1 X141.941 Y122.560 E7.9180
G1 X141.946 Y122.584 E7.9189
G1 X142.132 Y123.498 E7.9502
G1 X142.136 Y123.521 E7.9510
G1 X142.159 Y123.651 E7.9555
G1 X142.163 Y123.675 E7.9563
G1 X142.300 Y124.602 E7.9878
G1 X142.303 Y124.627 E7.9886
G1 X142.319 Y124.758 E7.9931
G1 X142.321 Y124.782 E7.9939
G1 X142.407 Y125.708 E8.0252
G1 X142.409 Y125.732 E8.0260
G1 X142.418 Y125.863 E8.0304
G1 X142.419 Y125.887 E8.0312
G1 X142.455 Y126.806 E8.0622
G1 X142.455 Y126.830 E8.0630
G1 X142.457 Y126.960 E8.0674
G1 X142.457 Y126.984 E8.0682
G1 X142.444 Y127.893 E8.0988
G1 X142.443 Y127.917 E8.0996
G1 X142.438 Y128.045 E8.1039
G1 X142.437 Y128.069 E8.1047
G1 X142.377 Y128.964 E8.1349
G1 X142.376 Y128.987 E8.1356
G1 X142.364 Y129.113 E8.1399
G1 X142.361 Y129.136 E8.1407
G1 X142.257 Y130.017 E8.1705
G1 X142.254 Y130.040 E8.1713
G1 X142.235 Y130.168 E8.1756
G1 X142.232 Y130.191 E8.1764
G1 X142.074 Y131.108 E8.2078
G1 X142.069 Y131.132 E8.2086
G1 X142.043 Y131.261 E8.2130
G1 X142.038 Y131.285 E8.2138
G1 X141.830 Y132.197 E8.2453
G1 X141.822 Y132.229 E8.2464
G1 X141.776 Y132.402 E8.2524
G1 X141.767 Y132.434 E8.2535
G1 X141.309 Y133.928 E8.3061
G1 X141.299 Y133.959 E8.3072
G1 X141.240 Y134.129 E8.3132
G1 X141.229 Y134.160 E8.3144
G1 X140.887 Y135.041 E8.3462
G1 X140.878 Y135.063 E8.3470
G1 X140.827 Y135.183 E8.3513
G1 X140.818 Y135.205 E8.3521
G1 X140.445 Y136.031 E8.3826
G1 X140.435 Y136.052 E8.3834
G1 X140.379 Y136.169 E8.3878
G1 X140.368 Y136.190 E8.3886
G1 X139.946 Y137.008 E8.4195
G1 X139.935 Y137.029 E8.4203
G1 X139.872 Y137.144 E8.4248
G1 X139.860 Y137.165 E8.4256
G1 X139.394 Y137.960 E8.4566
G1 X139.382 Y137.980 E8.4574
G1 X139.312 Y138.093 E8.4618
G1 X139.298 Y138.114 E8.4627
G1 X138.769 Y138.914 E8.4949
G1 X138.756 Y138.934 E8.4957
G1 X138.680 Y139.042 E8.5002
G1 X138.666 Y139.062 E8.5010
G1 X138.135 Y139.778 E8.5310
G1 X138.121 Y139.796 E8.5318
G1 X138.042 Y139.896 E8.5361
G1 X138.028 Y139.914 E8.5368
G1 X137.445 Y140.620 E8.5676
G1 X137.430 Y140.638 E8.5684
G1 X137.345 Y140.736 E8.5728
G1 X137.329 Y140.754 E8.5736
G1 X136.721 Y141.416 E8.6038
G1 X136.705 Y141.433 E8.6046
G1 X136.616 Y141.525 E8.6089
G1 X136.599 Y141.542 E8.6097
G1 X135.944 Y142.184 E8.6406
G1 X135.926 Y142.201 E8.6414
G1 X135.830 Y142.290 E8.6458
G1 X135.812 Y142.306 E8.6466
G1 X135.108 Y142.926 E8.6782
G1 X135.089 Y142.942 E8.6790
G1 X134.988 Y143.027 E8.6835
G1 X134.969 Y143.042 E8.6843
G1 X134.249 Y143.610 E8.7151
G1 X134.230 Y143.624 E8.7159
G1 X134.125 Y143.702 E8.7203
G1 X134.106 Y143.717 E8.7211
G1 X133.344 Y144.254 E8.7525
G1 X133.324 Y144.268 E8.7533
G1 X133.214 Y144.341 E8.7578
G1 X133.193 Y144.354 E8.7586
G1 X132.401 Y144.852 E8.7901
G1 X132.380 Y144.864 E8.7909
G1 X132.265 Y144.932 E8.7954
G1 X132.244 Y144.944 E8.7962
G1 X131.413 Y145.405 E8.8282
G1 X131.391 Y145.416 E8.8290
G1 X131.272 Y145.478 E8.8335
G1 X131.250 Y145.489 E8.8343
G1 X130.420 Y145.891 E8.8654
G1 X130.398 Y145.901 E8.8662
G1 X130.278 Y145.956 E8.8706
G1 X130.256 Y145.965 E8.8714
G1 X129.383 Y146.332 E8.9033
G1 X129.360 Y146.341 E8.9041
G1 X129.235 Y146.389 E8.9086
G1 X129.212 Y146.398 E8.9094
G1 X128.335 Y146.711 E8.9408
G1 X128.313 Y146.719 E8.9416
G1 X128.188 Y146.760 E8.9460
G1 X128.165 Y146.767 E8.9468
G1 X127.290 Y147.027 E8.9775
G1 X127.267 Y147.034 E8.9783
G1 X127.141 Y147.067 E8.9827
G1 X127.118 Y147.073 E8.9835
G1 X124.279 Y147.757 E9.0818
G1 X123.560 Y147.638 E9.1063
G1 X120.087 Y145.447 E9.2444
G1 X119.670 Y144.849 E9.2690
G1 X118.219 Y138.005 E9.5043
G1 X118.337 Y137.323 E9.5276
G1 X120.369 Y134.013 E9.6583
G1 X120.924 Y133.599 E9.6816
G1 X123.767 Y132.841 E9.7805
G1 X123.912 Y132.790 E9.7857
G1 X124.569 Y132.498 E9.8099
G1 X125.178 Y132.147 E9.8335
G1 X125.311 Y132.056 E9.8390
G1 X125.846 Y131.626 E9.8621
G1 X126.320 Y131.159 E9.8845
G1 X126.432 Y131.030 E9.8902
G1 X126.869 Y130.446 E9.9148
G1 X126.955 Y130.310 E9.9201
G1 X127.319 Y129.626 E9.9462
G1 X127.386 Y129.473 E9.9518
G1 X127.619 Y128.794 E9.9760
G1 X127.778 Y128.099 E10.0000
G1 X127.802 Y127.934 E10.0056
G1 X127.849 Y127.213 E10.0299
G1 X127.821 Y126.567 E10.0516
G1 X127.725 Y125.932 E10.0733
G1 X127.564 Y125.318 E10.0946
G1 X127.343 Y124.733 E10.1157
G1 X127.069 Y124.186 E10.1363
G1 X126.715 Y123.628 E10.1585
G1 X126.567 Y123.429 E10.1668
G1 X126.408 Y123.238 E10.1752
G1 X126.019 Y122.830 E10.1942
G1 X125.543 Y122.417 E10.2153
G1 X124.992 Y122.030 E10.2380
G1 X124.855 Y121.948 E10.2434
G1 X124.225 Y121.637 E10.2670
G1 X123.610 Y121.410 E10.2891
G1 X122.932 Y121.240 E10.3126
G1 X122.766 Y121.212 E10.3183
G1 X121.969 Y121.142 E10.3451
G1 X121.791 Y121.141 E10.3511
G1 X121.082 Y121.194 E10.3751
G1 X120.374 Y121.324 E10.3993
G1 X120.215 Y121.367 E10.4048
G1 X119.482 Y121.626 E10.4310
G1 X119.326 Y121.695 E10.4367
G1 X118.739 Y122.012 E10.4592
G1 X118.169 Y122.398 E10.4823
G1 X118.028 Y122.510 E10.4884
G1 X117.575 Y122.925 E10.5090
G1 X117.356 Y123.157 E10.5198
G1 X117.113 Y123.447 E10.5325
G1 X116.908 Y123.726 E10.5442
G1 X116.715 Y124.024 E10.5561
G1 X116.536 Y124.338 E10.5683
G1 X116.375 Y124.668 E10.5806
G1 X116.228 Y125.019 E10.5934
G1 X115.407 Y127.410 E10.6785
G1 X114.946 Y127.939 E10.7021
G1 X111.432 Y129.724 E10.8347
G1 X110.733 Y129.784 E10.8583
G1 X103.999 Y127.703 E11.0954
G1 X103.437 Y127.226 E11.1202
G1 X101.579 Y123.509 E11.2600
G1 X101.535 Y122.774 E11.2848
G1 X102.334 Y120.546 E11.3644
G1 X86.386 Y107.433 E12.0591
G1 X86.353 Y107.404 E12.0605
G1 X86.176 Y107.244 E12.0686
G1 X86.144 Y107.214 E12.0700
G1 X42.786 Y63.856 E14.1330
G1 X42.756 Y63.824 E14.1345
G1 X42.596 Y63.647 E14.1425
G1 X42.567 Y63.614 E14.1440
G1 X29.455 Y47.667 E14.8386
G1 X27.213 Y48.463 E14.9186
G1 X26.479 Y48.418 E14.9433
G1 X22.771 Y46.559 E15.0829
G1 X22.296 Y45.998 E15.1076
G1 X20.224 Y39.293 E15.3437
G1 X20.279 Y38.602 E15.3670
G1 X22.007 Y35.119 E15.4978
G1 X22.523 Y34.657 E15.5211
G1 X25.264 Y33.655 E15.6193
