; G-Code generated by Simplify3D(R) Version 3.0.2
; Oct 22, 2015 at 5:05:06 PM
; Settings Summary
;   processName,Process1
;   applyToModels,mm_ramps1dot4_pi_upper
;   profileName,PrinterBot Simple Metal Custom (modified)
;   profileVersion,2015-05-01 08:00:00
;   baseProfile,Default (modified)
;   printMaterial,PLA
;   printQuality,Medium
;   printExtruders,
;   extruderName,Primary Extruder
;   extruderToolheadNumber,0
;   extruderDiameter,0.4
;   extruderAutoWidth,0
;   extruderWidth,0.4
;   extrusionMultiplier,1
;   extruderUseRetract,1
;   extruderRetractionDistance,1.5
;   extruderExtraRestartDistance,0.1
;   extruderRetractionZLift,0
;   extruderRetractionSpeed,1800
;   extruderUseCoasting,0
;   extruderCoastingDistance,0.2
;   extruderUseWipe,0
;   extruderWipeDistance,5
;   primaryExtruder,0
;   layerHeight,0.2
;   topSolidLayers,3
;   bottomSolidLayers,3
;   perimeterOutlines,2
;   printPerimetersInsideOut,1
;   startPointOption,2
;   startPointOriginX,0
;   startPointOriginY,0
;   startPointOriginZ,300
;   sequentialIslands,0
;   spiralVaseMode,0
;   firstLayerHeightPercentage,60
;   firstLayerWidthPercentage,100
;   firstLayerUnderspeed,0.5
;   useRaft,0
;   raftExtruder,0
;   raftLayers,3
;   raftOffset,3
;   raftSeparationDistance,0.14
;   raftInfill,85
;   disableRaftBaseLayers,0
;   useSkirt,1
;   skirtExtruder,0
;   skirtLayers,1
;   skirtOutlines,5
;   skirtOffset,4
;   usePrimePillar,0
;   primePillarExtruder,999
;   primePillarWidth,12
;   primePillarLocation,7
;   primePillarSpeedMultiplier,1
;   useOozeShield,0
;   oozeShieldExtruder,999
;   oozeShieldOffset,2
;   oozeShieldOutlines,1
;   oozeShieldSidewallShape,1
;   oozeShieldSidewallAngle,30
;   oozeShieldSpeedMultiplier,1
;   infillExtruder,0
;   internalInfillPattern,Rectilinear
;   externalInfillPattern,Rectilinear
;   infillPercentage,25
;   outlineOverlapPercentage,15
;   infillExtrusionWidthPercentage,100
;   minInfillLength,5
;   infillLayerInterval,1
;   infillAngles,45,-45
;   overlapInfillAngles,0
;   generateSupport,0
;   supportExtruder,0
;   supportInfillPercentage,30
;   supportExtraInflation,0.4
;   denseSupportLayers,0
;   denseSupportInfillPercentage,70
;   supportLayerInterval,1
;   supportHorizontalPartOffset,0.3
;   supportUpperSeparationLayers,1
;   supportLowerSeparationLayers,1
;   supportType,0
;   supportGridSpacing,4
;   maxOverhangAngle,45
;   supportAngles,0
;   temperatureName,Primary Extruder,Heated Bed
;   temperatureNumber,0,1
;   temperatureSetpointCount,2,3
;   temperatureSetpointLayers,1,2,1,2,3
;   temperatureSetpointTemperatures,210,200,70,65,63
;   temperatureStabilizeAtStartup,1,1
;   temperatureHeatedBed,0,1
;   temperatureRelayBetweenLayers,0,0
;   temperatureRelayBetweenLoops,0,0
;   fanLayers,1,2,3
;   fanSpeeds,0,0,100
;   blipFanToFullPower,1
;   adjustSpeedForCooling,1
;   minSpeedLayerTime,15
;   minCoolingSpeedSlowdown,20
;   increaseFanForCooling,0
;   minFanLayerTime,45
;   maxCoolingFanSpeed,100
;   increaseFanForBridging,0
;   bridgingFanSpeed,100
;   use5D,1
;   relativeEdistances,0
;   allowEaxisZeroing,1
;   independentExtruderAxes,0
;   includeM10123,0
;   stickySupport,1
;   applyToolheadOffsets,0
;   gcodeXoffset,0
;   gcodeYoffset,0
;   gcodeZoffset,0
;   overrideMachineDefinition,1
;   machineTypeOverride,0
;   strokeXoverride,150
;   strokeYoverride,150
;   strokeZoverride,150
;   originOffsetXoverride,0
;   originOffsetYoverride,0
;   originOffsetZoverride,0
;   homeXdirOverride,-1
;   homeYdirOverride,-1
;   homeZdirOverride,-1
;   flipXoverride,1
;   flipYoverride,-1
;   flipZoverride,1
;   toolheadOffsets,0,0|0,0|0,0|0,0|0,0|0,0
;   overrideFirmwareConfiguration,1
;   firmwareTypeOverride,RepRap (Marlin/Repetier/Sprinter)
;   GPXconfigOverride,r2
;   baudRateOverride,250000
;   overridePrinterModels,1
;   printerModelsOverride
;   startingGcode,G28 X0 Y0 ; home X and Y axes,G29 ; probe z,M201 X1000 Y1000 ; acceleration settings
;   layerChangeGcode,
;   retractionGcode,
;   toolChangeGcode,
;   endingGcode,M104 S0 T0 ; turn off extruder,M140 S0 T1 ; turn off bed,G28 X0 Y0 ; home,M84 ; disable motors
;   createX3G,0
;   celebration,0
;   celebrationSong,Random Song
;   createMB5G,0
;   postProcessing,
;   defaultSpeed,3300
;   outlineUnderspeed,0.8
;   solidInfillUnderspeed,0.8
;   supportUnderspeed,0.8
;   rapidXYspeed,4200
;   rapidZspeed,1002
;   minBridgingArea,50
;   bridgingExtraInflation,0
;   bridgingExtrusionMultiplier,1
;   bridgingSpeedMultiplier,0.8
;   filamentDiameter,1.74
;   filamentPricePerKg,22
;   filamentDensity,1.25
;   useMinPrintHeight,0
;   minPrintHeight,0
;   useMaxPrintHeight,0
;   maxPrintHeight,0
;   useDiaphragm,0
;   diaphragmLayerInterval,20
;   robustSlicing,1
;   mergeAllIntoSolid,0
;   onlyRetractWhenCrossingOutline,1
;   retractBetweenLayers,1
;   useRetractionMinTravel,0
;   retractionMinTravel,3
;   retractWhileWiping,0
;   onlyWipeOutlines,1
;   avoidCrossingOutline,0
;   maxMovementDetourFactor,3
;   toolChangeRetractionDistance,12
;   toolChangeExtraRestartDistance,-0.5
;   toolChangeRetractionSpeed,600
;   allowThinWallGapFill,1
;   thinWallAllowedOverlapPercentage,10
;   horizontalSizeCompensation,0
G90
M82
M106 S0
M140 S70
M190 S70
M104 S210 T0
M109 S210 T0
G28 X0 Y0 ; home X and Y axes
G29 ; probe z
M201 X1000 Y1000 ; acceleration settings
G92 E0
G1 E-1.5000 F1800
G1 Z0.120 F1002
; layer 1, Z = 0.12
T0
; tool H0.200 W0.400
; skirt
G1 X9.739 Y12.252 F4200
G1 E0.1000 F540
G92 E0
G1 X9.856 Y12.155 E0.0051 F1650
G1 X9.877 Y12.138 E0.0060
G1 X10.478 Y11.670 E0.0317
G1 X10.500 Y11.653 E0.0326
G1 X10.622 Y11.564 E0.0377
G1 X10.645 Y11.548 E0.0386
G1 X11.793 Y10.761 E0.0854
G1 X11.824 Y10.741 E0.0867
G1 X11.993 Y10.635 E0.0934
G1 X12.024 Y10.616 E0.0946
G1 X13.215 Y9.935 E0.1408
G1 X13.240 Y9.921 E0.1417
G1 X13.373 Y9.850 E0.1468
G1 X13.398 Y9.838 E0.1477
G1 X14.090 Y9.497 E0.1737
G1 X14.115 Y9.485 E0.1746
G1 X14.253 Y9.423 E0.1797
G1 X14.278 Y9.411 E0.1806
G1 X15.557 Y8.877 E0.2273
G1 X15.591 Y8.863 E0.2285
G1 X15.777 Y8.794 E0.2352
G1 X15.812 Y8.782 E0.2364
G1 X17.134 Y8.352 E0.2832
G1 X17.168 Y8.341 E0.2844
G1 X17.356 Y8.288 E0.2910
G1 X17.391 Y8.279 E0.2922
G1 X18.720 Y7.961 E0.3382
G1 X18.755 Y7.953 E0.3394
G1 X18.945 Y7.916 E0.3459
G1 X18.980 Y7.909 E0.3471
G1 X20.325 Y7.698 E0.3929
G1 X20.359 Y7.693 E0.3941
G1 X20.546 Y7.671 E0.4004
G1 X20.580 Y7.668 E0.4015
G1 X21.843 Y7.568 E0.4442
G1 X21.869 Y7.566 E0.4450
G1 X22.010 Y7.559 E0.4498
G1 X22.036 Y7.558 E0.4507
G1 X22.781 Y7.542 E0.4757
G1 X22.807 Y7.542 E0.4766
G1 X22.951 Y7.543 E0.4814
G1 X22.977 Y7.544 E0.4823
G1 X24.281 Y7.592 E0.5262
G1 X24.316 Y7.594 E0.5274
G1 X24.505 Y7.609 E0.5338
G1 X24.540 Y7.612 E0.5350
G1 X25.883 Y7.767 E0.5805
G1 X25.919 Y7.771 E0.5817
G1 X26.110 Y7.801 E0.5882
G1 X26.145 Y7.807 E0.5894
G1 X27.469 Y8.067 E0.6348
G1 X27.496 Y8.073 E0.6357
G1 X27.639 Y8.105 E0.6406
G1 X27.665 Y8.112 E0.6415
G1 X28.386 Y8.299 E0.6666
G1 X28.412 Y8.306 E0.6675
G1 X28.555 Y8.348 E0.6725
G1 X28.581 Y8.356 E0.6734
G1 X29.890 Y8.781 E0.7197
G1 X29.924 Y8.793 E0.7209
G1 X30.111 Y8.863 E0.7277
G1 X30.146 Y8.876 E0.7289
G1 X31.449 Y9.421 E0.7764
G1 X31.483 Y9.436 E0.7777
G1 X31.665 Y9.521 E0.7844
G1 X31.698 Y9.538 E0.7857
G1 X32.960 Y10.191 E0.8335
G1 X32.992 Y10.209 E0.8347
G1 X33.167 Y10.309 E0.8415
G1 X33.199 Y10.328 E0.8428
G1 X34.404 Y11.085 E0.8906
G1 X34.435 Y11.105 E0.8919
G1 X34.602 Y11.219 E0.8987
G1 X34.632 Y11.241 E0.8999
G1 X35.769 Y12.093 E0.9477
G1 X35.798 Y12.116 E0.9490
G1 X35.954 Y12.243 E0.9558
G1 X35.983 Y12.267 E0.9570
G1 X37.041 Y13.205 E1.0046
G1 X37.068 Y13.230 E1.0058
G1 X37.213 Y13.369 E1.0126
G1 X37.239 Y13.395 E1.0138
G1 X38.216 Y14.415 E1.0613
G1 X38.241 Y14.442 E1.0626
G1 X38.373 Y14.592 E1.0693
G1 X38.397 Y14.620 E1.0705
G1 X39.286 Y15.715 E1.1180
G1 X39.309 Y15.744 E1.1192
G1 X39.428 Y15.903 E1.1259
G1 X39.449 Y15.933 E1.1271
G1 X39.574 Y16.115 E1.1346
G1 X90.678 Y2.422 E2.9145
G1 X91.152 Y2.422 E2.9305
G1 X93.680 Y3.099 E3.0186
G1 X94.091 Y3.336 E3.0345
G1 X146.664 Y55.909 E5.5359
G1 X146.901 Y56.320 E5.5518
G1 X147.578 Y58.848 E5.6399
G1 X147.578 Y59.322 E5.6558
G1 X133.886 Y110.422 E7.4357
G1 X133.951 Y110.466 E7.4383
G1 X133.980 Y110.487 E7.4395
G1 X134.137 Y110.602 E7.4461
G1 X134.166 Y110.624 E7.4473
G1 X135.247 Y111.488 E7.4939
G1 X135.275 Y111.512 E7.4951
G1 X135.424 Y111.641 E7.5017
G1 X135.451 Y111.666 E7.5030
G1 X136.472 Y112.625 E7.5501
G1 X136.498 Y112.651 E7.5513
G1 X136.638 Y112.794 E7.5580
G1 X136.663 Y112.820 E7.5593
G1 X137.610 Y113.869 E7.6068
G1 X137.634 Y113.897 E7.6080
G1 X137.762 Y114.052 E7.6148
G1 X137.785 Y114.081 E7.6161
G1 X138.648 Y115.210 E7.6638
G1 X138.670 Y115.239 E7.6651
G1 X138.785 Y115.405 E7.6719
G1 X138.806 Y115.436 E7.6731
G1 X139.574 Y116.634 E7.7210
G1 X139.593 Y116.665 E7.7223
G1 X139.695 Y116.840 E7.7291
G1 X139.713 Y116.872 E7.7303
G1 X140.367 Y118.105 E7.7773
G1 X140.379 Y118.130 E7.7782
G1 X140.446 Y118.266 E7.7833
G1 X140.458 Y118.291 E7.7842
G1 X140.771 Y118.981 E7.8097
G1 X140.782 Y119.006 E7.8106
G1 X140.839 Y119.144 E7.8157
G1 X140.849 Y119.169 E7.8166
G1 X141.339 Y120.451 E7.8627
G1 X141.352 Y120.486 E7.8640
G1 X141.416 Y120.676 E7.8707
G1 X141.427 Y120.712 E7.8720
G1 X141.825 Y122.084 E7.9201
G1 X141.835 Y122.119 E7.9213
G1 X141.883 Y122.314 E7.9281
G1 X141.891 Y122.350 E7.9293
G1 X142.171 Y123.724 E7.9764
G1 X142.177 Y123.759 E7.9777
G1 X142.209 Y123.954 E7.9843
G1 X142.214 Y123.990 E7.9855
G1 X142.379 Y125.358 E8.0319
G1 X142.383 Y125.393 E8.0331
G1 X142.399 Y125.585 E8.0396
G1 X142.401 Y125.620 E8.0407
G1 X142.457 Y126.961 E8.0859
G1 X142.458 Y126.997 E8.0871
G1 X142.458 Y127.191 E8.0936
G1 X142.457 Y127.227 E8.0948
G1 X142.405 Y128.614 E8.1415
G1 X142.403 Y128.649 E8.1427
G1 X142.389 Y128.839 E8.1491
G1 X142.385 Y128.874 E8.1503
G1 X142.238 Y130.144 E8.1933
G1 X142.235 Y130.170 E8.1942
G1 X142.215 Y130.307 E8.1989
G1 X142.211 Y130.332 E8.1997
G1 X142.089 Y131.029 E8.2235
G1 X142.085 Y131.054 E8.2244
G1 X142.056 Y131.193 E8.2291
G1 X142.051 Y131.219 E8.2300
G1 X141.750 Y132.500 E8.2743
G1 X141.742 Y132.535 E8.2755
G1 X141.691 Y132.720 E8.2820
G1 X141.681 Y132.753 E8.2831
G1 X141.266 Y134.053 E8.3290
G1 X141.255 Y134.087 E8.3302
G1 X141.188 Y134.270 E8.3368
G1 X141.175 Y134.304 E8.3380
G1 X140.651 Y135.585 E8.3846
G1 X140.637 Y135.618 E8.3858
G1 X140.555 Y135.798 E8.3925
G1 X140.539 Y135.831 E8.3937
G1 X139.906 Y137.081 E8.4408
G1 X139.889 Y137.113 E8.4420
G1 X139.792 Y137.287 E8.4488
G1 X139.773 Y137.319 E8.4500
G1 X139.034 Y138.523 E8.4975
G1 X139.014 Y138.555 E8.4988
G1 X138.902 Y138.722 E8.5055
G1 X138.881 Y138.752 E8.5068
G1 X138.056 Y139.876 E8.5537
G1 X138.040 Y139.898 E8.5546
G1 X137.948 Y140.017 E8.5597
G1 X137.930 Y140.038 E8.5606
G1 X137.451 Y140.614 E8.5858
G1 X137.433 Y140.635 E8.5867
G1 X137.332 Y140.749 E8.5919
G1 X137.313 Y140.770 E8.5928
G1 X136.346 Y141.796 E8.6403
G1 X136.320 Y141.823 E8.6415
G1 X136.175 Y141.964 E8.6483
G1 X136.148 Y141.990 E8.6496
G1 X135.094 Y142.938 E8.6973
G1 X135.066 Y142.962 E8.6985
G1 X134.912 Y143.089 E8.7052
G1 X134.884 Y143.112 E8.7064
G1 X133.792 Y143.943 E8.7526
G1 X133.770 Y143.960 E8.7535
G1 X133.647 Y144.048 E8.7586
G1 X133.624 Y144.063 E8.7596
G1 X132.982 Y144.492 E8.7855
G1 X132.959 Y144.507 E8.7865
G1 X132.831 Y144.587 E8.7915
G1 X132.807 Y144.602 E8.7925
G1 X131.631 Y145.287 E8.8383
G1 X131.607 Y145.301 E8.8392
G1 X131.476 Y145.372 E8.8442
G1 X131.451 Y145.385 E8.8452
G1 X130.783 Y145.721 E8.8703
G1 X130.759 Y145.733 E8.8712
G1 X130.625 Y145.795 E8.8762
G1 X130.601 Y145.806 E8.8771
G1 X129.358 Y146.341 E8.9226
G1 X129.325 Y146.355 E8.9238
G1 X129.146 Y146.424 E8.9303
G1 X129.112 Y146.436 E8.9315
G1 X127.842 Y146.868 E8.9766
G1 X127.808 Y146.878 E8.9778
G1 X127.623 Y146.933 E8.9843
G1 X127.589 Y146.943 E8.9855
G1 X124.339 Y147.769 E9.0983
G1 X123.613 Y147.656 E9.1230
G1 X120.096 Y145.468 E9.2624
G1 X119.674 Y144.866 E9.2871
G1 X118.220 Y138.009 E9.5229
G1 X118.337 Y137.328 E9.5462
G1 X120.360 Y134.022 E9.6766
G1 X120.913 Y133.608 E9.6998
G1 X123.728 Y132.848 E9.7979
G1 X124.392 Y132.589 E9.8219
G1 X124.539 Y132.518 E9.8274
G1 X125.132 Y132.173 E9.8505
G1 X125.641 Y131.800 E9.8717
G1 X126.107 Y131.379 E9.8929
G1 X126.505 Y130.943 E9.9127
G1 X126.610 Y130.809 E9.9184
G1 X127.000 Y130.227 E9.9420
G1 X127.288 Y129.684 E9.9627
G1 X127.524 Y129.097 E9.9840
G1 X127.700 Y128.476 E10.0057
G1 X127.823 Y127.754 E10.0303
G1 X127.838 Y127.585 E10.0360
G1 X127.842 Y126.769 E10.0635
G1 X127.829 Y126.599 E10.0692
G1 X127.713 Y125.874 E10.0939
G1 X127.526 Y125.189 E10.1178
G1 X127.462 Y125.015 E10.1240
G1 X127.130 Y124.288 E10.1509
G1 X127.050 Y124.145 E10.1564
G1 X126.623 Y123.504 E10.1824
G1 X126.532 Y123.388 E10.1873
G1 X126.087 Y122.897 E10.2096
G1 X125.611 Y122.466 E10.2312
G1 X125.424 Y122.320 E10.2392
G1 X125.217 Y122.175 E10.2477
G1 X124.633 Y121.831 E10.2705
G1 X123.992 Y121.537 E10.2942
G1 X123.837 Y121.480 E10.2998
G1 X123.065 Y121.266 E10.3267
G1 X122.821 Y121.219 E10.3351
G1 X122.574 Y121.185 E10.3435
G1 X121.771 Y121.142 E10.3705
G1 X121.590 Y121.147 E10.3766
G1 X120.783 Y121.236 E10.4040
G1 X120.616 Y121.269 E10.4097
G1 X119.855 Y121.481 E10.4363
G1 X119.681 Y121.545 E10.4425
G1 X118.957 Y121.882 E10.4693
G1 X118.814 Y121.962 E10.4749
G1 X118.242 Y122.348 E10.4981
G1 X117.711 Y122.791 E10.5214
G1 X117.595 Y122.904 E10.5268
G1 X117.096 Y123.471 E10.5522
G1 X116.997 Y123.603 E10.5578
G1 X116.576 Y124.267 E10.5842
G1 X116.450 Y124.507 E10.5933
G1 X116.354 Y124.716 E10.6011
G1 X115.337 Y127.483 E10.7003
G1 X114.875 Y127.998 E10.7235
G1 X111.394 Y129.720 E10.8542
G1 X110.705 Y129.775 E10.8775
G1 X104.005 Y127.705 E11.1134
G1 X103.444 Y127.230 E11.1381
G1 X101.584 Y123.528 E11.2775
G1 X101.537 Y122.795 E11.3022
G1 X102.648 Y119.654 E11.4143
G1 X102.658 Y119.627 E11.4153
G1 X102.713 Y119.484 E11.4204
G1 X102.724 Y119.458 E11.4214
G1 X103.047 Y118.698 E11.4491
G1 X103.059 Y118.671 E11.4501
G1 X103.127 Y118.526 E11.4555
G1 X103.139 Y118.500 E11.4565
G1 X103.784 Y117.225 E11.5046
G1 X103.797 Y117.199 E11.5055
G1 X103.873 Y117.060 E11.5109
G1 X103.887 Y117.034 E11.5119
G1 X104.297 Y116.340 E11.5390
G1 X104.312 Y116.315 E11.5400
G1 X104.399 Y116.178 E11.5454
G1 X104.415 Y116.153 E11.5464
G1 X105.261 Y114.913 E11.5969
G1 X105.284 Y114.880 E11.5983
G1 X105.415 Y114.705 E11.6056
G1 X105.440 Y114.673 E11.6070
G1 X106.426 Y113.473 E11.6593
G1 X106.453 Y113.442 E11.6606
G1 X106.602 Y113.277 E11.6681
G1 X106.630 Y113.247 E11.6695
G1 X107.715 Y112.147 E11.7215
G1 X107.737 Y112.125 E11.7225
G1 X107.859 Y112.010 E11.7282
G1 X107.881 Y111.989 E11.7292
G1 X108.517 Y111.427 E11.7578
G1 X108.541 Y111.407 E11.7588
G1 X108.672 Y111.299 E11.7645
G1 X108.696 Y111.280 E11.7655
G1 X109.232 Y110.868 E11.7883
G1 X102.493 Y88.842 E12.5632
G1 X61.158 Y47.507 E14.5299
G1 X39.135 Y40.769 E15.3047
G1 X38.903 Y41.081 E15.3178
G1 X38.883 Y41.105 E15.3189
G1 X38.778 Y41.238 E15.3246
G1 X38.758 Y41.262 E15.3256
G1 X38.204 Y41.906 E15.3542
G1 X38.184 Y41.929 E15.3552
G1 X38.071 Y42.052 E15.3609
G1 X38.049 Y42.074 E15.3619
G1 X36.970 Y43.169 E15.4136
G1 X36.940 Y43.198 E15.4150
G1 X36.775 Y43.351 E15.4226
G1 X36.744 Y43.378 E15.4240
G1 X35.544 Y44.391 E15.4768
G1 X35.520 Y44.410 E15.4778
G1 X35.387 Y44.515 E15.4835
G1 X35.362 Y44.533 E15.4846
G1 X34.682 Y45.031 E15.5129
G1 X34.657 Y45.049 E15.5140
G1 X34.520 Y45.142 E15.5195
G1 X34.495 Y45.159 E15.5206
G1 X33.230 Y45.959 E15.5709
G1 X33.205 Y45.974 E15.5719
G1 X33.063 Y46.058 E15.5774
G1 X33.037 Y46.072 E15.5785
G1 X32.319 Y46.462 E15.6059
G1 X32.293 Y46.475 E15.6069
G1 X32.151 Y46.547 E15.6123
G1 X32.124 Y46.559 E15.6133
G1 X30.797 Y47.171 E15.6624
G1 X30.760 Y47.187 E15.6638
G1 X30.562 Y47.268 E15.6710
G1 X30.525 Y47.282 E15.6723
G1 X27.227 Y48.465 E15.7902
G1 X26.491 Y48.421 E15.8150
G1 X22.774 Y46.563 E15.9548
G1 X22.297 Y46.001 E15.9796
G1 X20.215 Y39.262 E16.2169
G1 X20.275 Y38.562 E16.2405
G1 X22.070 Y35.042 E16.3735
G1 X22.602 Y34.582 E16.3971
G1 X24.869 Y33.811 E16.4777
G1 X25.599 Y33.495 E16.5045
G1 X25.744 Y33.419 E16.5100
G1 X26.324 Y33.050 E16.5331
G1 X26.878 Y32.612 E16.5569
