; G-Code generated by Simplify3D(R) Version 3.0.2
; Oct 23, 2015 at 6:46:34 PM
; Settings Summary
;   processName,Process1
;   applyToModels,mm_va_meters
;   profileName,PrinterBot Simple Metal Custom (modified)
;   profileVersion,2015-05-01 08:00:00
;   baseProfile,Default (modified)
;   printMaterial,PLA
;   printQuality,Medium
;   printExtruders,
;   extruderName,Primary Extruder
;   extruderToolheadNumber,0
;   extruderDiameter,0.4
;   extruderAutoWidth,0
;   extruderWidth,0.4
;   extrusionMultiplier,1
;   extruderUseRetract,1
;   extruderRetractionDistance,1.5
;   extruderExtraRestartDistance,0.1
;   extruderRetractionZLift,0
;   extruderRetractionSpeed,1800
;   extruderUseCoasting,0
;   extruderCoastingDistance,0.2
;   extruderUseWipe,0
;   extruderWipeDistance,5
;   primaryExtruder,0
;   layerHeight,0.2
;   topSolidLayers,3
;   bottomSolidLayers,3
;   perimeterOutlines,2
;   printPerimetersInsideOut,1
;   startPointOption,2
;   startPointOriginX,0
;   startPointOriginY,0
;   startPointOriginZ,300
;   sequentialIslands,0
;   spiralVaseMode,0
;   firstLayerHeightPercentage,60
;   firstLayerWidthPercentage,100
;   firstLayerUnderspeed,0.5
;   useRaft,0
;   raftExtruder,0
;   raftLayers,3
;   raftOffset,3
;   raftSeparationDistance,0.14
;   raftInfill,85
;   disableRaftBaseLayers,0
;   useSkirt,1
;   skirtExtruder,0
;   skirtLayers,1
;   skirtOutlines,5
;   skirtOffset,4
;   usePrimePillar,0
;   primePillarExtruder,999
;   primePillarWidth,12
;   primePillarLocation,7
;   primePillarSpeedMultiplier,1
;   useOozeShield,0
;   oozeShieldExtruder,999
;   oozeShieldOffset,2
;   oozeShieldOutlines,1
;   oozeShieldSidewallShape,1
;   oozeShieldSidewallAngle,30
;   oozeShieldSpeedMultiplier,1
;   infillExtruder,0
;   internalInfillPattern,Rectilinear
;   externalInfillPattern,Rectilinear
;   infillPercentage,25
;   outlineOverlapPercentage,15
;   infillExtrusionWidthPercentage,100
;   minInfillLength,5
;   infillLayerInterval,1
;   infillAngles,45,-45
;   overlapInfillAngles,0
;   generateSupport,0
;   supportExtruder,0
;   supportInfillPercentage,30
;   supportExtraInflation,0.4
;   denseSupportLayers,0
;   denseSupportInfillPercentage,70
;   supportLayerInterval,1
;   supportHorizontalPartOffset,0.3
;   supportUpperSeparationLayers,1
;   supportLowerSeparationLayers,1
;   supportType,0
;   supportGridSpacing,4
;   maxOverhangAngle,45
;   supportAngles,0
;   temperatureName,Primary Extruder,Heated Bed
;   temperatureNumber,0,1
;   temperatureSetpointCount,2,3
;   temperatureSetpointLayers,1,2,1,2,3
;   temperatureSetpointTemperatures,210,200,70,65,63
;   temperatureStabilizeAtStartup,1,1
;   temperatureHeatedBed,0,1
;   temperatureRelayBetweenLayers,0,0
;   temperatureRelayBetweenLoops,0,0
;   fanLayers,1,2,3
;   fanSpeeds,0,0,100
;   blipFanToFullPower,1
;   adjustSpeedForCooling,1
;   minSpeedLayerTime,15
;   minCoolingSpeedSlowdown,20
;   increaseFanForCooling,0
;   minFanLayerTime,45
;   maxCoolingFanSpeed,100
;   increaseFanForBridging,0
;   bridgingFanSpeed,100
;   use5D,1
;   relativeEdistances,0
;   allowEaxisZeroing,1
;   independentExtruderAxes,0
;   includeM10123,0
;   stickySupport,1
;   applyToolheadOffsets,0
;   gcodeXoffset,0
;   gcodeYoffset,0
;   gcodeZoffset,0
;   overrideMachineDefinition,1
;   machineTypeOverride,0
;   strokeXoverride,150
;   strokeYoverride,150
;   strokeZoverride,150
;   originOffsetXoverride,0
;   originOffsetYoverride,0
;   originOffsetZoverride,0
;   homeXdirOverride,-1
;   homeYdirOverride,-1
;   homeZdirOverride,-1
;   flipXoverride,1
;   flipYoverride,-1
;   flipZoverride,1
;   toolheadOffsets,0,0|0,0|0,0|0,0|0,0|0,0
;   overrideFirmwareConfiguration,1
;   firmwareTypeOverride,RepRap (Marlin/Repetier/Sprinter)
;   GPXconfigOverride,r2
;   baudRateOverride,250000
;   overridePrinterModels,1
;   printerModelsOverride
;   startingGcode,G28 X0 Y0 ; home X and Y axes,G29 ; probe z,M201 X1000 Y1000 ; acceleration settings
;   layerChangeGcode,
;   retractionGcode,
;   toolChangeGcode,
;   endingGcode,M104 S0 T0 ; turn off extruder,M140 S0 T1 ; turn off bed,G28 X0 Y0 ; home,M84 ; disable motors
;   createX3G,0
;   celebration,0
;   celebrationSong,Random Song
;   createMB5G,0
;   postProcessing,
;   defaultSpeed,3300
;   outlineUnderspeed,0.8
;   solidInfillUnderspeed,0.8
;   supportUnderspeed,0.8
;   rapidXYspeed,4200
;   rapidZspeed,1002
;   minBridgingArea,50
;   bridgingExtraInflation,0
;   bridgingExtrusionMultiplier,1
;   bridgingSpeedMultiplier,0.8
;   filamentDiameter,1.74
;   filamentPricePerKg,22
;   filamentDensity,1.25
;   useMinPrintHeight,0
;   minPrintHeight,0
;   useMaxPrintHeight,0
;   maxPrintHeight,0
;   useDiaphragm,0
;   diaphragmLayerInterval,20
;   robustSlicing,1
;   mergeAllIntoSolid,0
;   onlyRetractWhenCrossingOutline,1
;   retractBetweenLayers,1
;   useRetractionMinTravel,0
;   retractionMinTravel,3
;   retractWhileWiping,0
;   onlyWipeOutlines,1
;   avoidCrossingOutline,0
;   maxMovementDetourFactor,3
;   toolChangeRetractionDistance,12
;   toolChangeExtraRestartDistance,-0.5
;   toolChangeRetractionSpeed,600
;   allowThinWallGapFill,1
;   thinWallAllowedOverlapPercentage,10
;   horizontalSizeCompensation,0
G90
M82
M106 S0
M140 S70
M190 S70
M104 S210 T0
M109 S210 T0
G28 X0 Y0 ; home X and Y axes
G29 ; probe z
M201 X1000 Y1000 ; acceleration settings
G92 E0
G1 E-1.5000 F1800
G1 Z0.120 F1002
; layer 1, Z = 0.12
T0
; tool H0.200 W0.400
; skirt
G1 X9.912 Y12.110 F4200
G1 E0.1000 F540
G92 E0
G1 X11.060 Y11.248 E0.0483 F1650
G1 X11.090 Y11.226 E0.0495
G1 X11.256 Y11.112 E0.0563
G1 X11.287 Y11.091 E0.0576
G1 X12.466 Y10.350 E0.1044
G1 X12.490 Y10.335 E0.1054
G1 X12.622 Y10.258 E0.1105
G1 X12.646 Y10.244 E0.1115
G1 X13.297 Y9.889 E0.1364
G1 X13.313 Y9.881 E0.1370
G1 X13.400 Y9.836 E0.1403
G1 X13.415 Y9.828 E0.1409
G1 X14.061 Y9.508 E0.1651
G1 X14.086 Y9.496 E0.1661
G1 X14.223 Y9.434 E0.1711
G1 X14.248 Y9.423 E0.1720
G1 X15.515 Y8.890 E0.2183
G1 X15.549 Y8.876 E0.2195
G1 X15.736 Y8.807 E0.2263
G1 X15.771 Y8.794 E0.2275
G1 X17.106 Y8.357 E0.2747
G1 X17.140 Y8.346 E0.2760
G1 X17.329 Y8.293 E0.2826
G1 X17.364 Y8.284 E0.2838
G1 X18.694 Y7.963 E0.3298
G1 X18.729 Y7.955 E0.3310
G1 X18.919 Y7.917 E0.3375
G1 X18.954 Y7.911 E0.3387
G1 X20.280 Y7.701 E0.3839
G1 X20.306 Y7.697 E0.3848
G1 X20.451 Y7.679 E0.3897
G1 X20.477 Y7.676 E0.3906
G1 X21.208 Y7.604 E0.4153
G1 X21.234 Y7.602 E0.4162
G1 X21.375 Y7.592 E0.4209
G1 X21.401 Y7.590 E0.4218
G1 X22.678 Y7.539 E0.4648
G1 X22.712 Y7.538 E0.4659
G1 X22.897 Y7.538 E0.4722
G1 X22.931 Y7.539 E0.4733
G1 X24.245 Y7.585 E0.5175
G1 X24.280 Y7.587 E0.5187
G1 X24.469 Y7.601 E0.5251
G1 X24.504 Y7.604 E0.5263
G1 X25.848 Y7.757 E0.5718
G1 X25.883 Y7.761 E0.5730
G1 X26.075 Y7.791 E0.5795
G1 X26.110 Y7.797 E0.5807
G1 X27.437 Y8.055 E0.6262
G1 X27.464 Y8.060 E0.6271
G1 X27.609 Y8.093 E0.6321
G1 X27.635 Y8.099 E0.6330
G1 X28.369 Y8.289 E0.6585
G1 X28.395 Y8.296 E0.6594
G1 X28.538 Y8.338 E0.6644
G1 X28.565 Y8.346 E0.6654
G1 X29.876 Y8.771 E0.7117
G1 X29.910 Y8.783 E0.7130
G1 X30.098 Y8.852 E0.7197
G1 X30.132 Y8.866 E0.7209
G1 X31.438 Y9.410 E0.7685
G1 X31.471 Y9.425 E0.7698
G1 X31.654 Y9.510 E0.7765
G1 X31.687 Y9.526 E0.7778
G1 X32.950 Y10.179 E0.8256
G1 X32.983 Y10.197 E0.8269
G1 X33.158 Y10.297 E0.8337
G1 X33.190 Y10.316 E0.8349
G1 X34.397 Y11.073 E0.8829
G1 X34.428 Y11.093 E0.8841
G1 X34.595 Y11.208 E0.8909
G1 X34.625 Y11.229 E0.8922
G1 X35.764 Y12.081 E0.9400
G1 X35.794 Y12.104 E0.9413
G1 X35.950 Y12.231 E0.9480
G1 X35.978 Y12.255 E0.9493
G1 X37.038 Y13.194 E0.9969
G1 X37.065 Y13.219 E0.9982
G1 X37.210 Y13.358 E1.0049
G1 X37.236 Y13.384 E1.0062
G1 X38.214 Y14.404 E1.0537
G1 X38.239 Y14.431 E1.0549
G1 X38.371 Y14.581 E1.0616
G1 X38.395 Y14.608 E1.0629
G1 X39.278 Y15.694 E1.1100
G1 X39.301 Y15.723 E1.1112
G1 X39.420 Y15.883 E1.1179
G1 X39.442 Y15.913 E1.1192
G1 X39.577 Y16.111 E1.1272
G1 X58.197 Y11.122 E1.7758
G1 X66.361 Y2.958 E2.1642
G1 X67.023 Y2.684 E2.1883
G1 X71.053 Y2.684 E2.3239
G1 X71.714 Y2.958 E2.3480
G1 X75.297 Y6.540 E2.5184
G1 X90.682 Y2.418 E3.0543
G1 X91.156 Y2.418 E3.0702
G1 X93.684 Y3.095 E3.1583
G1 X94.095 Y3.332 E3.1742
G1 X146.668 Y55.905 E5.6756
G1 X146.905 Y56.316 E5.6916
G1 X147.582 Y58.844 E5.7796
G1 X147.582 Y59.318 E5.7956
G1 X143.460 Y74.703 E6.3315
G1 X147.042 Y78.286 E6.5019
G1 X147.316 Y78.947 E6.5260
G1 X147.316 Y82.977 E6.6616
G1 X147.042 Y83.639 E6.6857
G1 X138.878 Y91.803 E7.0741
G1 X133.890 Y110.418 E7.7225
G1 X133.948 Y110.456 E7.7248
G1 X133.977 Y110.477 E7.7260
G1 X134.135 Y110.593 E7.7326
G1 X134.163 Y110.615 E7.7338
G1 X135.256 Y111.488 E7.7809
G1 X135.284 Y111.511 E7.7821
G1 X135.434 Y111.641 E7.7888
G1 X135.461 Y111.666 E7.7900
G1 X136.482 Y112.627 E7.8372
G1 X136.508 Y112.653 E7.8384
G1 X136.647 Y112.795 E7.8451
G1 X136.672 Y112.821 E7.8463
G1 X137.611 Y113.862 E7.8935
G1 X137.636 Y113.890 E7.8947
G1 X137.764 Y114.045 E7.9015
G1 X137.788 Y114.074 E7.9028
G1 X138.658 Y115.214 E7.9510
G1 X138.680 Y115.245 E7.9523
G1 X138.797 Y115.411 E7.9591
G1 X138.817 Y115.442 E7.9604
G1 X139.585 Y116.642 E8.0083
G1 X139.605 Y116.674 E8.0096
G1 X139.706 Y116.848 E8.0164
G1 X139.725 Y116.881 E8.0176
G1 X140.390 Y118.138 E8.0655
G1 X140.406 Y118.171 E8.0667
G1 X140.493 Y118.353 E8.0735
G1 X140.509 Y118.387 E8.0747
G1 X141.066 Y119.688 E8.1223
G1 X141.079 Y119.722 E8.1236
G1 X141.150 Y119.908 E8.1303
G1 X141.163 Y119.943 E8.1315
G1 X141.599 Y121.247 E8.1778
G1 X141.608 Y121.274 E8.1787
G1 X141.651 Y121.417 E8.1838
G1 X141.658 Y121.444 E8.1847
G1 X141.855 Y122.177 E8.2102
G1 X141.862 Y122.204 E8.2112
G1 X141.896 Y122.351 E8.2163
G1 X141.902 Y122.378 E8.2172
G1 X142.179 Y123.741 E8.2640
G1 X142.185 Y123.777 E8.2652
G1 X142.217 Y123.972 E8.2719
G1 X142.222 Y124.008 E8.2731
G1 X142.386 Y125.380 E8.3196
G1 X142.389 Y125.415 E8.3208
G1 X142.405 Y125.611 E8.3274
G1 X142.407 Y125.647 E8.3286
G1 X142.461 Y127.013 E8.3746
G1 X142.462 Y127.048 E8.3758
G1 X142.462 Y127.241 E8.3822
G1 X142.461 Y127.276 E8.3834
G1 X142.407 Y128.640 E8.4293
G1 X142.405 Y128.674 E8.4305
G1 X142.390 Y128.864 E8.4369
G1 X142.387 Y128.899 E8.4381
G1 X142.238 Y130.169 E8.4811
G1 X142.234 Y130.195 E8.4820
G1 X142.214 Y130.332 E8.4867
G1 X142.210 Y130.357 E8.4875
G1 X142.088 Y131.054 E8.5113
G1 X142.083 Y131.079 E8.5122
G1 X142.054 Y131.219 E8.5170
G1 X142.049 Y131.244 E8.5179
G1 X141.746 Y132.527 E8.5622
G1 X141.737 Y132.561 E8.5634
G1 X141.686 Y132.746 E8.5698
G1 X141.676 Y132.780 E8.5710
G1 X141.259 Y134.080 E8.6170
G1 X141.248 Y134.114 E8.6182
G1 X141.181 Y134.297 E8.6247
G1 X141.168 Y134.331 E8.6259
G1 X140.651 Y135.589 E8.6717
G1 X140.640 Y135.614 E8.6726
G1 X140.581 Y135.748 E8.6775
G1 X140.569 Y135.772 E8.6784
G1 X140.249 Y136.435 E8.7032
G1 X140.237 Y136.459 E8.7041
G1 X140.168 Y136.592 E8.7091
G1 X140.155 Y136.616 E8.7101
G1 X139.479 Y137.824 E8.7566
G1 X139.460 Y137.856 E8.7579
G1 X139.354 Y138.028 E8.7647
G1 X139.334 Y138.059 E8.7659
G1 X138.548 Y139.226 E8.8133
G1 X138.532 Y139.249 E8.8142
G1 X138.443 Y139.372 E8.8193
G1 X138.427 Y139.394 E8.8203
G1 X137.962 Y139.999 E8.8459
G1 X137.945 Y140.021 E8.8469
G1 X137.849 Y140.138 E8.8520
G1 X137.831 Y140.160 E8.8529
G1 X136.928 Y141.196 E8.8991
G1 X136.909 Y141.216 E8.9001
G1 X136.806 Y141.328 E8.9052
G1 X136.787 Y141.348 E8.9061
G1 X136.251 Y141.890 E8.9318
G1 X136.231 Y141.910 E8.9327
G1 X136.122 Y142.014 E8.9378
G1 X136.101 Y142.033 E8.9387
G1 X135.062 Y142.964 E8.9857
G1 X135.034 Y142.988 E8.9869
G1 X134.877 Y143.117 E8.9937
G1 X134.848 Y143.140 E8.9950
G1 X133.713 Y143.999 E9.0429
G1 X133.683 Y144.020 E9.0441
G1 X133.519 Y144.134 E9.0508
G1 X133.489 Y144.154 E9.0520
G1 X132.303 Y144.908 E9.0993
G1 X132.272 Y144.927 E9.1005
G1 X132.099 Y145.027 E9.1073
G1 X132.067 Y145.045 E9.1085
G1 X130.825 Y145.698 E9.1557
G1 X130.793 Y145.714 E9.1569
G1 X130.615 Y145.799 E9.1636
G1 X130.582 Y145.814 E9.1648
G1 X129.312 Y146.357 E9.2112
G1 X129.279 Y146.370 E9.2124
G1 X129.096 Y146.440 E9.2190
G1 X129.062 Y146.452 E9.2202
G1 X127.766 Y146.887 E9.2662
G1 X127.732 Y146.898 E9.2674
G1 X127.549 Y146.952 E9.2739
G1 X127.515 Y146.961 E9.2750
G1 X124.286 Y147.771 E9.3870
G1 X123.560 Y147.656 E9.4118
G1 X120.050 Y145.458 E9.5511
G1 X119.630 Y144.856 E9.5758
G1 X118.188 Y137.964 E9.8127
G1 X118.313 Y137.274 E9.8363
G1 X120.416 Y133.943 E9.9688
G1 X120.986 Y133.534 E9.9924
G1 X123.452 Y132.935 E10.0778
G1 X123.816 Y132.821 E10.0906
G1 X124.180 Y132.682 E10.1037
G1 X124.525 Y132.524 E10.1165
G1 X124.881 Y132.331 E10.1301
G1 X125.217 Y132.120 E10.1435
G1 X125.542 Y131.884 E10.1570
G1 X125.841 Y131.636 E10.1701
G1 X126.138 Y131.352 E10.1839
G1 X126.409 Y131.057 E10.1974
G1 X126.651 Y130.757 E10.2103
G1 X126.886 Y130.421 E10.2241
G1 X127.091 Y130.083 E10.2374
G1 X127.272 Y129.733 E10.2507
G1 X127.422 Y129.392 E10.2632
G1 X127.562 Y129.009 E10.2769
G1 X127.666 Y128.654 E10.2894
G1 X127.750 Y128.281 E10.3023
G1 X127.811 Y127.898 E10.3153
G1 X127.848 Y127.509 E10.3285
G1 X127.859 Y127.112 E10.3418
G1 X127.844 Y126.726 E10.3548
G1 X127.801 Y126.316 E10.3687
G1 X127.736 Y125.935 E10.3817
G1 X127.639 Y125.535 E10.3955
G1 X127.519 Y125.153 E10.4090
G1 X127.380 Y124.794 E10.4219
G1 X127.207 Y124.422 E10.4358
G1 X127.016 Y124.076 E10.4490
G1 X126.804 Y123.743 E10.4623
G1 X126.583 Y123.443 E10.4749
G1 X126.322 Y123.131 E10.4886
G1 X126.066 Y122.863 E10.5010
G1 X125.785 Y122.603 E10.5139
G1 X125.484 Y122.359 E10.5269
G1 X125.165 Y122.133 E10.5401
G1 X124.829 Y121.926 E10.5534
G1 X124.477 Y121.741 E10.5667
G1 X124.110 Y121.577 E10.5803
G1 X123.746 Y121.443 E10.5933
G1 X123.352 Y121.327 E10.6071
G1 X122.961 Y121.240 E10.6206
G1 X122.580 Y121.181 E10.6336
G1 X122.172 Y121.145 E10.6474
G1 X121.776 Y121.137 E10.6607
G1 X121.383 Y121.154 E10.6739
G1 X121.012 Y121.195 E10.6865
G1 X120.611 Y121.266 E10.7002
G1 X120.251 Y121.353 E10.7126
G1 X119.886 Y121.467 E10.7255
G1 X119.524 Y121.605 E10.7385
G1 X119.169 Y121.768 E10.7517
G1 X118.821 Y121.956 E10.7650
G1 X118.485 Y122.168 E10.7784
G1 X118.160 Y122.404 E10.7919
G1 X117.861 Y122.652 E10.8049
G1 X117.564 Y122.935 E10.8188
G1 X117.293 Y123.231 E10.8322
G1 X117.051 Y123.531 E10.8452
G1 X116.816 Y123.867 E10.8590
G1 X116.611 Y124.205 E10.8723
G1 X116.431 Y124.553 E10.8855
G1 X116.275 Y124.907 E10.8985
G1 X115.404 Y127.295 E10.9840
G1 X114.934 Y127.816 E11.0076
G1 X111.390 Y129.535 E11.1401
G1 X110.691 Y129.582 E11.1637
G1 X103.993 Y127.382 E11.4009
G1 X103.440 Y126.895 E11.4257
G1 X101.649 Y123.139 E11.5657
G1 X101.619 Y122.402 E11.5905
G1 X102.884 Y119.078 E11.7102
G1 X102.900 Y119.039 E11.7116
G1 X102.990 Y118.831 E11.7192
G1 X103.008 Y118.794 E11.7206
G1 X103.063 Y118.680 E11.7248
G1 X31.319 Y46.936 E15.1384
G1 X31.180 Y47.004 E15.1436
G1 X31.143 Y47.021 E15.1449
G1 X30.938 Y47.109 E15.1525
G1 X30.900 Y47.125 E15.1538
G1 X27.595 Y48.380 E15.2728
G1 X26.858 Y48.350 E15.2976
G1 X23.105 Y46.559 E15.4375
G1 X22.618 Y46.006 E15.4623
G1 X20.418 Y39.309 E15.6995
G1 X20.465 Y38.609 E15.7231
G1 X22.185 Y35.065 E15.8556
G1 X22.706 Y34.595 E15.8792
G1 X25.090 Y33.726 E15.9646
G1 X25.439 Y33.573 E15.9774
G1 X25.784 Y33.395 E15.9904
G1 X26.119 Y33.193 E16.0036
G1 X26.443 Y32.968 E16.0169
G1 X26.754 Y32.720 E16.0303
G1 X27.051 Y32.450 E16.0438
G1 X27.320 Y32.170 E16.0568
G1 X27.584 Y31.855 E16.0707
G1 X27.821 Y31.532 E16.0841
G1 X28.027 Y31.207 E16.0971
G1 X28.225 Y30.845 E16.1110
G1 X28.386 Y30.496 E16.1239
G1 X28.532 Y30.119 E16.1375
G1 X28.643 Y29.764 E16.1500
G1 X28.739 Y29.366 E16.1638
G1 X28.802 Y29.012 E16.1759
G1 X28.845 Y28.621 E16.1891
G1 X28.863 Y28.246 E16.2018
G1 X28.856 Y27.845 E16.2153
G1 X28.823 Y27.450 E16.2286
G1 X28.766 Y27.068 E16.2416
G1 X28.678 Y26.666 E16.2554
G1 X28.570 Y26.294 E16.2685
G1 X28.430 Y25.908 E16.2823
G1 X28.268 Y25.541 E16.2958
G1 X28.089 Y25.198 E16.3088
G1 X27.882 Y24.857 E16.3222
G1 X27.648 Y24.525 E16.3359
G1 X27.401 Y24.220 E16.3491
G1 X27.148 Y23.945 E16.3616
G1 X26.854 Y23.664 E16.3753
G1 X26.570 Y23.426 E16.3878
G1 X26.260 Y23.198 E16.4007
G1 X25.944 Y22.995 E16.4134
G1 X25.592 Y22.801 E16.4269
G1 X25.236 Y22.633 E16.4401
G1 X24.866 Y22.488 E16.4535
G1 X24.483 Y22.366 E16.4670
G1 X24.106 Y22.273 E16.4801
G1 X23.702 Y22.201 E16.4939
