; G-Code generated by Simplify3D(R) Version 3.0.2
; Oct 23, 2015 at 2:27:31 PM
; Settings Summary
;   processName,Process1
;   applyToModels,powerSwitch
;   profileName,PrinterBot Simple Metal Custom (modified)
;   profileVersion,2015-05-01 08:00:00
;   baseProfile,Default (modified)
;   printMaterial,PLA
;   printQuality,Medium
;   printExtruders,
;   extruderName,Primary Extruder
;   extruderToolheadNumber,0
;   extruderDiameter,0.4
;   extruderAutoWidth,0
;   extruderWidth,0.4
;   extrusionMultiplier,1
;   extruderUseRetract,1
;   extruderRetractionDistance,1.5
;   extruderExtraRestartDistance,0.1
;   extruderRetractionZLift,0
;   extruderRetractionSpeed,1800
;   extruderUseCoasting,0
;   extruderCoastingDistance,0.2
;   extruderUseWipe,0
;   extruderWipeDistance,5
;   primaryExtruder,0
;   layerHeight,0.2
;   topSolidLayers,3
;   bottomSolidLayers,3
;   perimeterOutlines,2
;   printPerimetersInsideOut,1
;   startPointOption,2
;   startPointOriginX,0
;   startPointOriginY,0
;   startPointOriginZ,300
;   sequentialIslands,0
;   spiralVaseMode,0
;   firstLayerHeightPercentage,60
;   firstLayerWidthPercentage,100
;   firstLayerUnderspeed,0.5
;   useRaft,0
;   raftExtruder,0
;   raftLayers,3
;   raftOffset,3
;   raftSeparationDistance,0.14
;   raftInfill,85
;   disableRaftBaseLayers,0
;   useSkirt,1
;   skirtExtruder,0
;   skirtLayers,1
;   skirtOutlines,5
;   skirtOffset,4
;   usePrimePillar,0
;   primePillarExtruder,999
;   primePillarWidth,12
;   primePillarLocation,7
;   primePillarSpeedMultiplier,1
;   useOozeShield,0
;   oozeShieldExtruder,999
;   oozeShieldOffset,2
;   oozeShieldOutlines,1
;   oozeShieldSidewallShape,1
;   oozeShieldSidewallAngle,30
;   oozeShieldSpeedMultiplier,1
;   infillExtruder,0
;   internalInfillPattern,Rectilinear
;   externalInfillPattern,Rectilinear
;   infillPercentage,25
;   outlineOverlapPercentage,15
;   infillExtrusionWidthPercentage,100
;   minInfillLength,5
;   infillLayerInterval,1
;   infillAngles,45,-45
;   overlapInfillAngles,0
;   generateSupport,0
;   supportExtruder,0
;   supportInfillPercentage,30
;   supportExtraInflation,0.4
;   denseSupportLayers,0
;   denseSupportInfillPercentage,70
;   supportLayerInterval,1
;   supportHorizontalPartOffset,0.3
;   supportUpperSeparationLayers,1
;   supportLowerSeparationLayers,1
;   supportType,0
;   supportGridSpacing,4
;   maxOverhangAngle,45
;   supportAngles,0
;   temperatureName,Primary Extruder,Heated Bed
;   temperatureNumber,0,1
;   temperatureSetpointCount,2,3
;   temperatureSetpointLayers,1,2,1,2,3
;   temperatureSetpointTemperatures,210,200,70,65,63
;   temperatureStabilizeAtStartup,1,1
;   temperatureHeatedBed,0,1
;   temperatureRelayBetweenLayers,0,0
;   temperatureRelayBetweenLoops,0,0
;   fanLayers,1,2,3
;   fanSpeeds,0,0,100
;   blipFanToFullPower,1
;   adjustSpeedForCooling,1
;   minSpeedLayerTime,15
;   minCoolingSpeedSlowdown,20
;   increaseFanForCooling,0
;   minFanLayerTime,45
;   maxCoolingFanSpeed,100
;   increaseFanForBridging,0
;   bridgingFanSpeed,100
;   use5D,1
;   relativeEdistances,0
;   allowEaxisZeroing,1
;   independentExtruderAxes,0
;   includeM10123,0
;   stickySupport,1
;   applyToolheadOffsets,0
;   gcodeXoffset,0
;   gcodeYoffset,0
;   gcodeZoffset,0
;   overrideMachineDefinition,1
;   machineTypeOverride,0
;   strokeXoverride,150
;   strokeYoverride,150
;   strokeZoverride,150
;   originOffsetXoverride,0
;   originOffsetYoverride,0
;   originOffsetZoverride,0
;   homeXdirOverride,-1
;   homeYdirOverride,-1
;   homeZdirOverride,-1
;   flipXoverride,1
;   flipYoverride,-1
;   flipZoverride,1
;   toolheadOffsets,0,0|0,0|0,0|0,0|0,0|0,0
;   overrideFirmwareConfiguration,1
;   firmwareTypeOverride,RepRap (Marlin/Repetier/Sprinter)
;   GPXconfigOverride,r2
;   baudRateOverride,250000
;   overridePrinterModels,1
;   printerModelsOverride
;   startingGcode,G28 X0 Y0 ; home X and Y axes,G29 ; probe z,M201 X1000 Y1000 ; acceleration settings
;   layerChangeGcode,
;   retractionGcode,
;   toolChangeGcode,
;   endingGcode,M104 S0 T0 ; turn off extruder,M140 S0 T1 ; turn off bed,G28 X0 Y0 ; home,M84 ; disable motors
;   createX3G,0
;   celebration,0
;   celebrationSong,Random Song
;   createMB5G,0
;   postProcessing,
;   defaultSpeed,3300
;   outlineUnderspeed,0.8
;   solidInfillUnderspeed,0.8
;   supportUnderspeed,0.8
;   rapidXYspeed,4200
;   rapidZspeed,1002
;   minBridgingArea,50
;   bridgingExtraInflation,0
;   bridgingExtrusionMultiplier,1
;   bridgingSpeedMultiplier,0.8
;   filamentDiameter,1.74
;   filamentPricePerKg,22
;   filamentDensity,1.25
;   useMinPrintHeight,0
;   minPrintHeight,0
;   useMaxPrintHeight,0
;   maxPrintHeight,0
;   useDiaphragm,0
;   diaphragmLayerInterval,20
;   robustSlicing,1
;   mergeAllIntoSolid,0
;   onlyRetractWhenCrossingOutline,1
;   retractBetweenLayers,1
;   useRetractionMinTravel,0
;   retractionMinTravel,3
;   retractWhileWiping,0
;   onlyWipeOutlines,1
;   avoidCrossingOutline,0
;   maxMovementDetourFactor,3
;   toolChangeRetractionDistance,12
;   toolChangeExtraRestartDistance,-0.5
;   toolChangeRetractionSpeed,600
;   allowThinWallGapFill,1
;   thinWallAllowedOverlapPercentage,10
;   horizontalSizeCompensation,0
G90
M82
M106 S0
M140 S70
M190 S70
M104 S210 T0
M109 S210 T0
G28 X0 Y0 ; home X and Y axes
G29 ; probe z
M201 X1000 Y1000 ; acceleration settings
G92 E0
G1 E-1.5000 F1800
G1 Z0.120 F1002
; layer 1, Z = 0.12
T0
; tool H0.200 W0.400
; skirt
G1 X49.164 Y55.814 F4200
G1 E0.1000 F540
G92 E0
G1 X49.825 Y55.540 E0.0241 F1650
G1 X100.175 Y55.540 E1.7180
G1 X100.836 Y55.814 E1.7421
G1 X103.686 Y58.664 E1.8777
G1 X103.960 Y59.325 E1.9018
G1 X103.960 Y90.675 E2.9565
G1 X103.686 Y91.336 E2.9806
G1 X100.836 Y94.186 E3.1162
G1 X100.175 Y94.460 E3.1403
G1 X49.825 Y94.460 E4.8342
G1 X49.164 Y94.186 E4.8583
G1 X46.314 Y91.336 E4.9939
G1 X46.040 Y90.675 E5.0180
G1 X46.040 Y59.325 E6.0727
G1 X46.314 Y58.664 E6.0968
G1 X49.164 Y55.814 E6.2324
G1 X49.390 Y56.153 F4200
G92 E0
G1 X49.905 Y55.940 E0.0187 F1650
G1 X100.095 Y55.940 E1.7073
G1 X100.610 Y56.153 E1.7261
G1 X103.347 Y58.890 E1.8563
G1 X103.560 Y59.405 E1.8750
G1 X103.560 Y90.595 E2.9244
G1 X103.347 Y91.110 E2.9431
G1 X100.610 Y93.847 E3.0734
G1 X100.095 Y94.060 E3.0921
G1 X49.905 Y94.060 E4.7807
G1 X49.390 Y93.847 E4.7994
G1 X46.653 Y91.110 E4.9296
G1 X46.440 Y90.595 E4.9484
G1 X46.440 Y59.405 E5.9977
G1 X46.653 Y58.890 E6.0165
G1 X49.390 Y56.153 E6.1467
G1 X49.617 Y56.492 F4200
G92 E0
G1 X49.984 Y56.340 E0.0134 F1650
G1 X100.016 Y56.340 E1.6966
G1 X100.383 Y56.492 E1.7100
G1 X103.008 Y59.117 E1.8349
G1 X103.160 Y59.484 E1.8483
G1 X103.160 Y90.516 E2.8923
G1 X103.008 Y90.883 E2.9057
G1 X100.383 Y93.508 E3.0305
G1 X100.016 Y93.660 E3.0439
G1 X49.984 Y93.660 E4.7271
G1 X49.617 Y93.508 E4.7405
G1 X46.992 Y90.883 E4.8654
G1 X46.840 Y90.516 E4.8788
G1 X46.840 Y59.484 E5.9228
G1 X46.992 Y59.117 E5.9362
G1 X49.617 Y56.492 E6.0610
G1 X49.843 Y56.831 F4200
G92 E0
G1 X50.064 Y56.740 E0.0080 F1650
G1 X99.936 Y56.740 E1.6859
G1 X100.157 Y56.831 E1.6939
G1 X102.669 Y59.343 E1.8135
G1 X102.760 Y59.564 E1.8215
G1 X102.760 Y90.436 E2.8601
G1 X102.669 Y90.657 E2.8682
G1 X100.157 Y93.169 E2.9877
G1 X99.936 Y93.260 E2.9957
G1 X50.064 Y93.260 E4.6736
G1 X49.843 Y93.169 E4.6816
G1 X47.331 Y90.657 E4.8012
G1 X47.240 Y90.436 E4.8092
G1 X47.240 Y59.564 E5.8478
G1 X47.331 Y59.343 E5.8559
G1 X49.843 Y56.831 E5.9754
G1 X50.070 Y57.170 F4200
G92 E0
G1 X50.143 Y57.140 E0.0027 F1650
G1 X99.857 Y57.140 E1.6752
G1 X99.930 Y57.170 E1.6779
G1 X102.330 Y59.570 E1.7920
G1 X102.360 Y59.643 E1.7947
G1 X102.360 Y90.357 E2.8280
G1 X102.330 Y90.430 E2.8307
G1 X99.930 Y92.830 E2.9449
G1 X99.857 Y92.860 E2.9475
G1 X50.143 Y92.860 E4.6201
G1 X50.070 Y92.830 E4.6227
G1 X47.670 Y90.430 E4.7369
G1 X47.640 Y90.357 E4.7396
G1 X47.640 Y59.643 E5.7729
G1 X47.670 Y59.570 E5.7756
G1 X50.070 Y57.170 E5.8897
G92 E0
G1 E-1.5000 F1800
; inner perimeter
G1 X52.440 Y61.940 F4200
G1 E0.1000 F1800
G92 E0
G1 X97.560 Y61.940 E1.5180 F1485
G1 X97.560 Y88.060 E2.3968
G1 X52.440 Y88.060 E3.9148
G1 X52.440 Y61.940 E4.7935
; outer perimeter
G1 X52.040 Y61.540 F4200
G92 E0
G1 X97.960 Y61.540 E1.5449 F1320
G1 X97.960 Y88.460 E2.4506
G1 X52.040 Y88.460 E3.9955
G1 X52.040 Y61.540 E4.9012
; inner perimeter
G1 X69.565 Y70.829 F4200
G92 E0
G1 X69.067 Y71.574 E0.0302 F1485
G1 X68.670 Y72.378 E0.0603
G1 X68.382 Y73.227 E0.0905
G1 X68.207 Y74.106 E0.1206
G1 X68.149 Y75.000 E0.1508
G1 X68.207 Y75.894 E0.1809
G1 X68.382 Y76.773 E0.2111
G1 X68.670 Y77.622 E0.2412
G1 X69.067 Y78.426 E0.2714
G1 X69.565 Y79.171 E0.3015
G1 X70.155 Y79.845 E0.3317
G1 X70.829 Y80.435 E0.3618
G1 X71.574 Y80.933 E0.3920
G1 X72.378 Y81.330 E0.4221
G1 X73.227 Y81.618 E0.4523
G1 X74.106 Y81.793 E0.4824
G1 X75.000 Y81.851 E0.5126
G1 X75.894 Y81.793 E0.5427
G1 X76.773 Y81.618 E0.5729
G1 X77.622 Y81.330 E0.6030
G1 X78.426 Y80.933 E0.6332
G1 X79.171 Y80.435 E0.6633
G1 X79.845 Y79.845 E0.6935
G1 X80.435 Y79.171 E0.7236
G1 X80.933 Y78.426 E0.7538
G1 X81.330 Y77.622 E0.7839
G1 X81.618 Y76.773 E0.8141
G1 X81.793 Y75.894 E0.8442
G1 X81.851 Y75.000 E0.8744
G1 X81.793 Y74.106 E0.9045
G1 X81.618 Y73.227 E0.9347
G1 X81.330 Y72.378 E0.9648
G1 X80.933 Y71.574 E0.9950
G1 X80.435 Y70.829 E1.0251
G1 X79.845 Y70.155 E1.0553
G1 X79.171 Y69.565 E1.0854
G1 X78.426 Y69.067 E1.1156
G1 X77.622 Y68.670 E1.1457
G1 X76.773 Y68.382 E1.1759
G1 X75.894 Y68.207 E1.2060
G1 X75.000 Y68.149 E1.2362
G1 X74.106 Y68.207 E1.2663
G1 X73.227 Y68.382 E1.2965
G1 X72.378 Y68.670 E1.3266
G1 X71.574 Y69.067 E1.3568
G1 X70.829 Y69.565 E1.3869
G1 X70.155 Y70.155 E1.4171
G1 X69.565 Y70.829 E1.4472
; outer perimeter
G1 X69.883 Y71.073 F4200
G92 E0
G1 X69.414 Y71.775 E0.0284 F1320
G1 X69.041 Y72.532 E0.0568
G1 X68.769 Y73.331 E0.0852
G1 X68.605 Y74.158 E0.1135
G1 X68.550 Y75.000 E0.1419
G1 X68.605 Y75.842 E0.1703
G1 X68.769 Y76.669 E0.1987
G1 X69.041 Y77.468 E0.2271
G1 X69.414 Y78.225 E0.2555
G1 X69.883 Y78.927 E0.2839
G1 X70.439 Y79.561 E0.3123
G1 X71.073 Y80.117 E0.3406
G1 X71.775 Y80.586 E0.3690
G1 X72.532 Y80.959 E0.3974
G1 X73.331 Y81.231 E0.4258
G1 X74.158 Y81.395 E0.4542
G1 X75.000 Y81.450 E0.4826
G1 X75.842 Y81.395 E0.5110
G1 X76.669 Y81.231 E0.5394
G1 X77.468 Y80.959 E0.5677
G1 X78.225 Y80.586 E0.5961
G1 X78.927 Y80.117 E0.6245
G1 X79.561 Y79.561 E0.6529
G1 X80.117 Y78.927 E0.6813
G1 X80.586 Y78.225 E0.7097
G1 X80.959 Y77.468 E0.7381
G1 X81.231 Y76.669 E0.7664
G1 X81.395 Y75.842 E0.7948
G1 X81.450 Y75.000 E0.8232
G1 X81.395 Y74.158 E0.8516
G1 X81.231 Y73.331 E0.8800
G1 X80.959 Y72.532 E0.9084
G1 X80.586 Y71.775 E0.9368
G1 X80.117 Y71.073 E0.9652
G1 X79.561 Y70.439 E0.9935
G1 X78.927 Y69.883 E1.0219
G1 X78.225 Y69.414 E1.0503
G1 X77.468 Y69.041 E1.0787
G1 X76.669 Y68.769 E1.1071
G1 X75.842 Y68.605 E1.1355
G1 X75.000 Y68.550 E1.1639
G1 X74.158 Y68.605 E1.1923
G1 X73.331 Y68.769 E1.2206
G1 X72.532 Y69.041 E1.2490
G1 X71.775 Y69.414 E1.2774
G1 X71.073 Y69.883 E1.3058
G1 X70.439 Y70.439 E1.3342
G1 X69.883 Y71.073 E1.3626
; solid layer
G1 X71.814 Y68.569 F4200
G92 E0
G1 X78.103 Y62.280 E0.2992 F1320
G1 X78.669 Y62.280 E0.3183
G1 X72.771 Y68.178 E0.5989
G1 X73.139 Y68.053 E0.6119
G1 X73.542 Y67.973 E0.6258
G1 X79.235 Y62.280 E0.8966
G1 X79.800 Y62.280 E0.9157
G1 X74.221 Y67.859 E1.1811
G1 X74.827 Y67.819 E1.2015
G1 X80.366 Y62.280 E1.4651
G1 X80.932 Y62.280 E1.4841
G1 X75.379 Y67.833 E1.7483
G1 X75.910 Y67.868 E1.7662
G1 X81.497 Y62.280 E2.0320
G1 X82.063 Y62.280 E2.0511
G1 X76.385 Y67.958 E2.3212
G1 X76.857 Y68.052 E2.3374
G1 X82.629 Y62.280 E2.6121
G1 X83.195 Y62.280 E2.6311
G1 X77.280 Y68.195 E2.9125
G1 X77.702 Y68.338 E2.9275
G1 X83.760 Y62.280 E3.2158
G1 X84.326 Y62.280 E3.2348
G1 X78.086 Y68.520 E3.5317
G1 X78.465 Y68.707 E3.5459
G1 X84.892 Y62.280 E3.8517
G1 X85.457 Y62.280 E3.8707
G1 X78.818 Y68.920 E4.1866
G1 X79.157 Y69.146 E4.2004
G1 X86.023 Y62.280 E4.5270
G1 X86.589 Y62.280 E4.5461
G1 X79.483 Y69.386 E4.8842
G1 X79.784 Y69.650 E4.8977
G1 X87.154 Y62.280 E5.2483
G1 X87.720 Y62.280 E5.2674
G1 X80.086 Y69.915 E5.6306
G1 X80.350 Y70.216 E5.6441
G1 X88.286 Y62.280 E6.0217
G1 X88.851 Y62.280 E6.0407
G1 X80.614 Y70.517 E6.4326
G1 X80.706 Y70.622 E6.4373
G1 X80.854 Y70.843 E6.4463
G1 X89.417 Y62.280 E6.8537
G1 X89.983 Y62.280 E6.8727
G1 X81.080 Y71.182 E7.2963
G1 X81.228 Y71.404 E7.3053
G1 X81.293 Y71.535 E7.3102
G1 X90.548 Y62.280 E7.7505
G1 X91.114 Y62.280 E7.7696
G1 X81.480 Y71.914 E8.2280
G1 X81.645 Y72.248 E8.2405
G1 X81.662 Y72.298 E8.2423
G1 X91.680 Y62.280 E8.7189
G1 X92.246 Y62.280 E8.7380
G1 X81.805 Y72.720 E9.2347
G1 X81.947 Y73.139 E9.2496
G1 X81.948 Y73.143 E9.2497
G1 X92.811 Y62.280 E9.7666
G1 X93.377 Y62.280 E9.7856
G1 X82.042 Y73.615 E10.3249
G1 X82.130 Y74.061 E10.3402
G1 X82.132 Y74.090 E10.3412
G1 X93.943 Y62.280 E10.9031
G1 X94.508 Y62.280 E10.9222
G1 X82.167 Y74.621 E11.5093
G1 X82.192 Y75.000 E11.5221
G1 X82.181 Y75.173 E11.5280
G1 X95.074 Y62.280 E12.1414
G1 X95.640 Y62.280 E12.1604
G1 X82.141 Y75.779 E12.8027
G1 X82.130 Y75.939 E12.8081
G1 X82.027 Y76.458 E12.8259
G1 X96.205 Y62.280 E13.5005
G1 X96.771 Y62.280 E13.5195
G1 X81.822 Y77.229 E14.2308
G1 X97.220 Y87.287 F4200
G92 E0
G1 X96.787 Y87.720 E0.0206 F1320
G1 X96.221 Y87.720 E0.0396
G1 X97.220 Y86.721 E0.0872
G1 X97.220 Y86.155 E0.1062
G1 X95.655 Y87.720 E0.1806
G1 X95.090 Y87.720 E0.1997
G1 X97.220 Y85.590 E0.3010
G1 X97.220 Y85.024 E0.3200
G1 X94.524 Y87.720 E0.4483
G1 X93.958 Y87.720 E0.4673
G1 X97.220 Y84.458 E0.6225
G1 X97.220 Y83.893 E0.6416
G1 X93.393 Y87.720 E0.8237
G1 X92.827 Y87.720 E0.8427
G1 X97.220 Y83.327 E1.0517
G1 X97.220 Y82.761 E1.0707
G1 X92.261 Y87.720 E1.3067
G1 X91.696 Y87.720 E1.3257
G1 X97.220 Y82.196 E1.5885
G1 X97.220 Y81.630 E1.6076
G1 X91.130 Y87.720 E1.8973
G1 X90.564 Y87.720 E1.9164
G1 X97.220 Y81.064 E2.2330
G1 X97.220 Y80.499 E2.2521
G1 X89.999 Y87.720 E2.5956
G1 X89.433 Y87.720 E2.6147
G1 X97.220 Y79.933 E2.9852
G1 X97.220 Y79.367 E3.0042
G1 X88.867 Y87.720 E3.4016
G1 X88.302 Y87.720 E3.4207
G1 X97.220 Y78.802 E3.8450
G1 X97.220 Y78.236 E3.8640
G1 X87.736 Y87.720 E4.3153
G1 X87.170 Y87.720 E4.3343
G1 X97.220 Y77.670 E4.8125
G1 X97.220 Y77.105 E4.8315
G1 X86.605 Y87.720 E5.3366
G1 X86.039 Y87.720 E5.3556
G1 X97.220 Y76.539 E5.8876
G1 X97.220 Y75.973 E5.9066
G1 X85.473 Y87.720 E6.4655
G1 X84.907 Y87.720 E6.4845
G1 X97.220 Y75.407 E7.0704
G1 X97.220 Y74.842 E7.0894
G1 X84.342 Y87.720 E7.7021
G1 X83.776 Y87.720 E7.7212
G1 X97.220 Y74.276 E8.3608
G1 X97.220 Y73.710 E8.3798
G1 X83.210 Y87.720 E9.0464
G1 X82.645 Y87.720 E9.0654
G1 X97.220 Y73.145 E9.7589
G1 X97.220 Y72.579 E9.7780
G1 X82.079 Y87.720 E10.4983
G1 X81.513 Y87.720 E10.5174
G1 X97.220 Y72.013 E11.2647
G1 X97.220 Y71.448 E11.2837
G1 X80.948 Y87.720 E12.0579
G1 X80.382 Y87.720 E12.0770
G1 X97.220 Y70.882 E12.8781
G1 X97.220 Y70.316 E12.8971
G1 X79.816 Y87.720 E13.7252
G1 X79.251 Y87.720 E13.7442
G1 X97.220 Y69.751 E14.5992
G1 X97.220 Y69.185 E14.6182
G1 X78.685 Y87.720 E15.5001
G1 X78.119 Y87.720 E15.5191
G1 X97.220 Y68.619 E16.4279
G1 X97.220 Y68.054 E16.4470
G1 X77.554 Y87.720 E17.3827
G1 X76.988 Y87.720 E17.4017
G1 X97.220 Y67.488 E18.3643
G1 X97.220 Y66.922 E18.3834
G1 X76.422 Y87.720 E19.3729
G1 X75.856 Y87.720 E19.3919
G1 X97.220 Y66.356 E20.4084
G1 X97.220 Y65.791 E20.4274
G1 X75.291 Y87.720 E21.4708
G1 X74.725 Y87.720 E21.4898
G1 X97.220 Y65.225 E22.5601
G1 X97.220 Y64.659 E22.5792
G1 X74.159 Y87.720 E23.6764
G1 X73.594 Y87.720 E23.6954
G1 X97.220 Y64.094 E24.8195
G1 X97.220 Y63.528 E24.8385
G1 X73.028 Y87.720 E25.9896
G1 X72.462 Y87.720 E26.0086
G1 X97.220 Y62.962 E27.1865
G1 X97.220 Y62.397 E27.2056
G1 X81.431 Y78.186 E27.9568
G1 X81.228 Y78.596 E27.9722
G1 X80.706 Y79.378 E28.0038
G1 X80.085 Y80.085 E28.0355
G1 X79.378 Y80.706 E28.0672
G1 X78.596 Y81.228 E28.0988
G1 X78.186 Y81.431 E28.1142
G1 X71.897 Y87.720 E28.4134
G1 X71.331 Y87.720 E28.4325
G1 X77.229 Y81.822 E28.7131
G1 X76.861 Y81.947 E28.7261
G1 X76.458 Y82.027 E28.7399
G1 X70.765 Y87.720 E29.0108
G1 X70.200 Y87.720 E29.0298
G1 X75.779 Y82.141 E29.2953
G1 X75.173 Y82.181 E29.3157
G1 X69.634 Y87.720 E29.5792
G1 X69.068 Y87.720 E29.5983
G1 X74.621 Y82.167 E29.8625
G1 X74.090 Y82.132 E29.8804
