; G-Code generated by Simplify3D(R) Version 3.0.1
; Oct 24, 2015 at 7:52:41 PM
; Settings Summary
;   processName,Process1
;   applyToModels,ramps_fan_80mm,ramps_fan_80mm(2)
;   profileName,PrinterBot Simple Metal Custom (modified)
;   profileVersion,2015-05-01 08:00:00
;   baseProfile,Default (modified)
;   printMaterial,PLA
;   printQuality,Medium
;   printExtruders,
;   extruderName,Primary Extruder
;   extruderToolheadNumber,0
;   extruderDiameter,0.4
;   extruderAutoWidth,0
;   extruderWidth,0.4
;   extrusionMultiplier,1
;   extruderUseRetract,1
;   extruderRetractionDistance,1.5
;   extruderExtraRestartDistance,0.1
;   extruderRetractionZLift,0
;   extruderRetractionSpeed,1800
;   extruderUseCoasting,0
;   extruderCoastingDistance,0.2
;   extruderUseWipe,0
;   extruderWipeDistance,5
;   primaryExtruder,0
;   layerHeight,0.2
;   topSolidLayers,3
;   bottomSolidLayers,3
;   perimeterOutlines,2
;   printPerimetersInsideOut,1
;   startPointOption,2
;   startPointOriginX,0
;   startPointOriginY,0
;   startPointOriginZ,300
;   sequentialIslands,0
;   spiralVaseMode,0
;   firstLayerHeightPercentage,60
;   firstLayerWidthPercentage,100
;   firstLayerUnderspeed,0.5
;   useRaft,0
;   raftExtruder,0
;   raftLayers,3
;   raftOffset,3
;   raftSeparationDistance,0.14
;   raftInfill,85
;   disableRaftBaseLayers,0
;   useSkirt,1
;   skirtExtruder,0
;   skirtLayers,1
;   skirtOutlines,5
;   skirtOffset,4
;   usePrimePillar,0
;   primePillarExtruder,999
;   primePillarWidth,12
;   primePillarLocation,7
;   primePillarSpeedMultiplier,1
;   useOozeShield,0
;   oozeShieldExtruder,999
;   oozeShieldOffset,2
;   oozeShieldOutlines,1
;   oozeShieldSidewallShape,1
;   oozeShieldSidewallAngle,30
;   oozeShieldSpeedMultiplier,1
;   infillExtruder,0
;   internalInfillPattern,Rectilinear
;   externalInfillPattern,Rectilinear
;   infillPercentage,25
;   outlineOverlapPercentage,15
;   infillExtrusionWidthPercentage,100
;   minInfillLength,5
;   infillLayerInterval,1
;   infillAngles,45,-45
;   overlapInfillAngles,0
;   generateSupport,0
;   supportExtruder,0
;   supportInfillPercentage,30
;   supportExtraInflation,0.4
;   denseSupportLayers,0
;   denseSupportInfillPercentage,70
;   supportLayerInterval,1
;   supportHorizontalPartOffset,0.3
;   supportUpperSeparationLayers,1
;   supportLowerSeparationLayers,1
;   supportType,0
;   supportGridSpacing,4
;   maxOverhangAngle,45
;   supportAngles,0
;   temperatureName,Primary Extruder,Heated Bed
;   temperatureNumber,0,1
;   temperatureSetpointCount,2,3
;   temperatureSetpointLayers,1,2,1,2,3
;   temperatureSetpointTemperatures,210,200,70,65,63
;   temperatureStabilizeAtStartup,1,1
;   temperatureHeatedBed,0,1
;   temperatureRelayBetweenLayers,0,0
;   temperatureRelayBetweenLoops,0,0
;   fanLayers,1,2,3
;   fanSpeeds,0,0,100
;   blipFanToFullPower,1
;   adjustSpeedForCooling,1
;   minSpeedLayerTime,15
;   minCoolingSpeedSlowdown,20
;   increaseFanForCooling,0
;   minFanLayerTime,45
;   maxCoolingFanSpeed,100
;   increaseFanForBridging,0
;   bridgingFanSpeed,100
;   use5D,1
;   relativeEdistances,0
;   allowEaxisZeroing,1
;   independentExtruderAxes,0
;   includeM10123,0
;   stickySupport,1
;   applyToolheadOffsets,0
;   gcodeXoffset,0
;   gcodeYoffset,0
;   gcodeZoffset,0
;   overrideMachineDefinition,1
;   machineTypeOverride,0
;   strokeXoverride,150
;   strokeYoverride,150
;   strokeZoverride,150
;   originOffsetXoverride,0
;   originOffsetYoverride,0
;   originOffsetZoverride,0
;   homeXdirOverride,-1
;   homeYdirOverride,-1
;   homeZdirOverride,-1
;   flipXoverride,1
;   flipYoverride,-1
;   flipZoverride,1
;   toolheadOffsets,0,0|0,0|0,0|0,0|0,0|0,0
;   overrideFirmwareConfiguration,1
;   firmwareTypeOverride,RepRap (Marlin/Repetier/Sprinter)
;   GPXconfigOverride,r2
;   baudRateOverride,250000
;   overridePrinterModels,1
;   printerModelsOverride
;   startingGcode,G28 X0 Y0 ; home X and Y axes,G29 ; probe z,M201 X1000 Y1000 ; acceleration settings
;   layerChangeGcode,
;   retractionGcode,
;   toolChangeGcode,
;   endingGcode,M104 S0 T0 ; turn off extruder,M140 S0 T1 ; turn off bed,G28 X0 Y0 ; home,M84 ; disable motors
;   createX3G,0
;   celebration,0
;   celebrationSong,Random Song
;   createMB5G,0
;   postProcessing,
;   defaultSpeed,3300
;   outlineUnderspeed,0.8
;   solidInfillUnderspeed,0.8
;   supportUnderspeed,0.8
;   rapidXYspeed,4200
;   rapidZspeed,1002
;   minBridgingArea,50
;   bridgingExtraInflation,0
;   bridgingExtrusionMultiplier,1
;   bridgingSpeedMultiplier,0.8
;   filamentDiameter,1.74
;   filamentPricePerKg,22
;   filamentDensity,1.25
;   useMinPrintHeight,0
;   minPrintHeight,0
;   useMaxPrintHeight,0
;   maxPrintHeight,0
;   useDiaphragm,0
;   diaphragmLayerInterval,20
;   robustSlicing,1
;   mergeAllIntoSolid,0
;   onlyRetractWhenCrossingOutline,1
;   retractBetweenLayers,1
;   useRetractionMinTravel,0
;   retractionMinTravel,3
;   retractWhileWiping,0
;   onlyWipeOutlines,1
;   avoidCrossingOutline,0
;   maxMovementDetourFactor,3
;   toolChangeRetractionDistance,12
;   toolChangeExtraRestartDistance,-0.5
;   toolChangeRetractionSpeed,600
;   allowThinWallGapFill,1
;   thinWallAllowedOverlapPercentage,10
;   horizontalSizeCompensation,0
G90
M82
M106 S0
M140 S70
M190 S70
M104 S210 T0
M109 S210 T0
G28 X0 Y0 ; home X and Y axes
G29 ; probe z
M201 X1000 Y1000 ; acceleration settings
G92 E0
G1 E-1.5000 F1800
G1 Z0.120 F1002
; layer 1, Z = 0.12
T0
; tool H0.200 W0.400
; skirt
G1 X36.474 Y33.824 F4200
G1 E0.1000 F540
G92 E0
G1 X39.324 Y30.974 E0.1356 F1650
G1 X39.981 Y30.702 E0.1595
G1 X40.217 Y30.466 E0.1707
G1 X42.483 Y29.158 E0.2588
G1 X42.941 Y29.035 E0.2747
G1 X48.765 Y29.035 E0.4707
G1 X49.426 Y29.309 E0.4948
G1 X52.276 Y32.158 E0.6303
G1 X52.550 Y32.820 E0.6544
G1 X52.550 Y41.180 E0.9357
G1 X52.276 Y41.842 E0.9598
G1 X50.800 Y43.318 E1.0300
G1 X50.800 Y55.200 E1.4298
G1 X99.200 Y55.200 E3.0581
G1 X99.200 Y43.318 E3.4579
G1 X97.724 Y41.842 E3.5281
G1 X97.450 Y41.180 E3.5522
G1 X97.450 Y32.820 E3.8335
G1 X97.724 Y32.158 E3.8575
G1 X100.574 Y29.309 E3.9931
G1 X101.235 Y29.035 E4.0172
G1 X107.059 Y29.035 E4.2131
G1 X107.517 Y29.158 E4.2291
G1 X109.784 Y30.466 E4.3172
G1 X110.019 Y30.702 E4.3283
G1 X110.676 Y30.974 E4.3523
G1 X113.526 Y33.824 E4.4879
G1 X113.800 Y34.485 E4.5120
G1 X113.800 Y63.700 E5.4949
G1 X118.015 Y63.700 E5.6367
G1 X118.676 Y63.974 E5.6608
G1 X121.526 Y66.824 E5.7963
G1 X121.800 Y67.485 E5.8204
G1 X121.800 Y74.515 E6.0569
G1 X121.526 Y75.176 E6.0810
G1 X118.676 Y78.026 E6.2166
G1 X118.015 Y78.300 E6.2407
G1 X113.800 Y78.300 E6.3825
G1 X113.800 Y106.365 E7.3267
G1 X118.015 Y106.365 E7.4685
G1 X118.676 Y106.639 E7.4926
G1 X121.526 Y109.489 E7.6282
G1 X121.800 Y110.150 E7.6523
G1 X121.800 Y117.180 E7.8888
G1 X121.526 Y117.842 E7.9129
G1 X118.676 Y120.691 E8.0484
G1 X118.015 Y120.965 E8.0725
G1 X31.985 Y120.965 E10.9669
G1 X31.324 Y120.691 E10.9910
G1 X28.474 Y117.842 E11.1266
G1 X28.200 Y117.180 E11.1506
G1 X28.200 Y110.150 E11.3871
G1 X28.474 Y109.489 E11.4112
G1 X31.324 Y106.639 E11.5468
G1 X31.985 Y106.365 E11.5709
G1 X36.200 Y106.365 E11.7127
G1 X36.200 Y78.300 E12.6569
G1 X31.985 Y78.300 E12.7987
G1 X31.324 Y78.026 E12.8228
G1 X28.474 Y75.176 E12.9584
G1 X28.200 Y74.515 E12.9825
G1 X28.200 Y67.485 E13.2190
G1 X28.474 Y66.824 E13.2431
G1 X31.324 Y63.974 E13.3787
G1 X31.985 Y63.700 E13.4028
G1 X36.200 Y63.700 E13.5446
G1 X36.200 Y34.485 E14.5274
G1 X36.474 Y33.824 E14.5515
G1 X36.813 Y34.050 F4200
G92 E0
G1 X39.550 Y31.313 E0.1302 F1650
G1 X40.065 Y31.100 E0.1490
G1 X40.171 Y31.100 E0.1525
G1 X40.201 Y31.047 E0.1546
G1 X40.462 Y30.786 E0.1670
G1 X42.638 Y29.530 E0.2515
G1 X42.994 Y29.435 E0.2639
G1 X48.685 Y29.435 E0.4554
G1 X49.200 Y29.648 E0.4741
G1 X51.937 Y32.385 E0.6044
G1 X52.150 Y32.900 E0.6231
G1 X52.150 Y41.100 E0.8990
G1 X51.937 Y41.615 E0.9177
G1 X50.400 Y43.152 E0.9909
G1 X50.400 Y55.600 E1.4097
G1 X99.600 Y55.600 E3.0649
G1 X99.600 Y43.152 E3.4837
G1 X98.063 Y41.615 E3.5568
G1 X97.850 Y41.100 E3.5756
G1 X97.850 Y32.900 E3.8515
G1 X98.063 Y32.385 E3.8702
G1 X100.800 Y29.648 E4.0005
G1 X101.315 Y29.435 E4.0192
G1 X107.006 Y29.435 E4.2107
G1 X107.362 Y29.530 E4.2231
G1 X109.538 Y30.786 E4.3076
G1 X109.799 Y31.047 E4.3200
G1 X109.829 Y31.100 E4.3220
G1 X109.935 Y31.100 E4.3256
G1 X110.450 Y31.313 E4.3444
G1 X113.187 Y34.050 E4.4746
G1 X113.400 Y34.565 E4.4933
G1 X113.400 Y64.100 E5.4870
G1 X117.935 Y64.100 E5.6396
G1 X118.450 Y64.313 E5.6583
G1 X121.187 Y67.050 E5.7885
G1 X121.400 Y67.565 E5.8073
G1 X121.400 Y74.435 E6.0384
G1 X121.187 Y74.950 E6.0572
G1 X118.450 Y77.687 E6.1874
G1 X117.935 Y77.900 E6.2061
G1 X113.400 Y77.900 E6.3587
G1 X113.400 Y106.765 E7.3298
G1 X117.935 Y106.765 E7.4824
G1 X118.450 Y106.978 E7.5012
G1 X121.187 Y109.715 E7.6314
G1 X121.400 Y110.230 E7.6501
G1 X121.400 Y117.100 E7.8813
G1 X121.187 Y117.615 E7.9000
G1 X118.450 Y120.352 E8.0302
G1 X117.935 Y120.565 E8.0490
G1 X32.065 Y120.565 E10.9380
G1 X31.550 Y120.352 E10.9567
G1 X28.813 Y117.615 E11.0869
G1 X28.600 Y117.100 E11.1057
G1 X28.600 Y110.230 E11.3368
G1 X28.813 Y109.715 E11.3556
G1 X31.550 Y106.978 E11.4858
G1 X32.065 Y106.765 E11.5045
G1 X36.600 Y106.765 E11.6571
G1 X36.600 Y77.900 E12.6282
G1 X32.065 Y77.900 E12.7808
G1 X31.550 Y77.687 E12.7995
G1 X28.813 Y74.950 E12.9298
G1 X28.600 Y74.435 E12.9485
G1 X28.600 Y67.565 E13.1797
G1 X28.813 Y67.050 E13.1984
G1 X31.550 Y64.313 E13.3286
G1 X32.065 Y64.100 E13.3474
G1 X36.600 Y64.100 E13.4999
G1 X36.600 Y34.565 E14.4936
G1 X36.813 Y34.050 E14.5124
G1 X37.152 Y34.277 F4200
G92 E0
G1 X39.777 Y31.652 E0.1249 F1650
G1 X40.144 Y31.500 E0.1383
G1 X40.402 Y31.500 E0.1469
G1 X40.522 Y31.293 E0.1550
G1 X40.708 Y31.107 E0.1638
G1 X42.792 Y29.903 E0.2448
G1 X43.047 Y29.835 E0.2537
G1 X48.606 Y29.835 E0.4407
G1 X48.973 Y29.987 E0.4541
G1 X51.598 Y32.612 E0.5790
G1 X51.750 Y32.979 E0.5923
G1 X51.750 Y41.021 E0.8629
G1 X51.598 Y41.388 E0.8763
G1 X50.000 Y42.986 E0.9523
G1 X50.000 Y56.000 E1.3901
G1 X100.000 Y56.000 E3.0723
G1 X100.000 Y42.986 E3.5101
G1 X98.402 Y41.388 E3.5862
G1 X98.250 Y41.021 E3.5995
G1 X98.250 Y32.979 E3.8701
G1 X98.402 Y32.612 E3.8835
G1 X101.027 Y29.987 E4.0083
G1 X101.394 Y29.835 E4.0217
G1 X106.953 Y29.835 E4.2088
G1 X107.208 Y29.903 E4.2176
G1 X109.292 Y31.107 E4.2986
G1 X109.478 Y31.293 E4.3075
G1 X109.598 Y31.500 E4.3155
G1 X109.856 Y31.500 E4.3242
G1 X110.223 Y31.652 E4.3376
G1 X112.848 Y34.277 E4.4624
G1 X113.000 Y34.644 E4.4758
G1 X113.000 Y64.500 E5.4803
G1 X117.856 Y64.500 E5.6436
G1 X118.223 Y64.652 E5.6570
G1 X120.848 Y67.277 E5.7819
G1 X121.000 Y67.644 E5.7953
G1 X121.000 Y74.356 E6.0211
G1 X120.848 Y74.723 E6.0345
G1 X118.223 Y77.348 E6.1593
G1 X117.856 Y77.500 E6.1727
G1 X113.000 Y77.500 E6.3361
G1 X113.000 Y107.165 E7.3341
G1 X117.856 Y107.165 E7.4975
G1 X118.223 Y107.317 E7.5109
G1 X120.848 Y109.942 E7.6357
G1 X121.000 Y110.309 E7.6491
G1 X121.000 Y117.021 E7.8749
G1 X120.848 Y117.388 E7.8883
G1 X118.223 Y120.013 E8.0132
G1 X117.856 Y120.165 E8.0266
G1 X32.144 Y120.165 E10.9102
G1 X31.777 Y120.013 E10.9236
G1 X29.152 Y117.388 E11.0484
G1 X29.000 Y117.021 E11.0618
G1 X29.000 Y110.309 E11.2876
G1 X29.152 Y109.942 E11.3010
G1 X31.777 Y107.317 E11.4259
G1 X32.144 Y107.165 E11.4393
G1 X37.000 Y107.165 E11.6026
G1 X37.000 Y77.500 E12.6007
G1 X32.144 Y77.500 E12.7640
G1 X31.777 Y77.348 E12.7774
G1 X29.152 Y74.723 E12.9023
G1 X29.000 Y74.356 E12.9157
G1 X29.000 Y67.644 E13.1415
G1 X29.152 Y67.277 E13.1549
G1 X31.777 Y64.652 E13.2797
G1 X32.144 Y64.500 E13.2931
G1 X37.000 Y64.500 E13.4565
G1 X37.000 Y34.644 E14.4609
G1 X37.152 Y34.277 E14.4743
G1 X37.491 Y34.503 F4200
G92 E0
G1 X40.003 Y31.991 E0.1195 F1650
G1 X40.224 Y31.900 E0.1275
G1 X40.633 Y31.900 E0.1413
G1 X40.842 Y31.538 E0.1554
G1 X40.953 Y31.427 E0.1607
G1 X42.947 Y30.276 E0.2381
G1 X43.099 Y30.235 E0.2434
G1 X48.526 Y30.235 E0.4260
G1 X48.747 Y30.326 E0.4340
G1 X51.259 Y32.838 E0.5536
G1 X51.350 Y33.059 E0.5616
G1 X51.350 Y40.941 E0.8268
G1 X51.259 Y41.162 E0.8348
G1 X49.600 Y42.820 E0.9137
G1 X49.600 Y56.400 E1.3706
G1 X100.400 Y56.400 E3.0797
G1 X100.400 Y42.820 E3.5365
G1 X98.741 Y41.162 E3.6155
G1 X98.650 Y40.941 E3.6235
G1 X98.650 Y33.059 E3.8887
G1 X98.741 Y32.838 E3.8967
G1 X101.253 Y30.326 E4.0162
G1 X101.474 Y30.235 E4.0243
G1 X106.901 Y30.235 E4.2069
G1 X107.053 Y30.276 E4.2122
G1 X109.047 Y31.427 E4.2896
G1 X109.158 Y31.538 E4.2949
G1 X109.367 Y31.900 E4.3090
G1 X109.776 Y31.900 E4.3227
G1 X109.997 Y31.991 E4.3308
G1 X112.509 Y34.503 E4.4503
G1 X112.600 Y34.724 E4.4583
G1 X112.600 Y64.900 E5.4735
G1 X117.776 Y64.900 E5.6477
G1 X117.997 Y64.991 E5.6557
G1 X120.509 Y67.503 E5.7752
G1 X120.600 Y67.724 E5.7833
G1 X120.600 Y74.276 E6.0037
G1 X120.509 Y74.497 E6.0117
G1 X117.997 Y77.009 E6.1313
G1 X117.776 Y77.100 E6.1393
G1 X112.440 Y77.100 E6.3188
G1 X112.509 Y77.168 E6.3221
G1 X112.600 Y77.389 E6.3301
G1 X112.600 Y107.565 E7.3453
G1 X117.776 Y107.565 E7.5195
G1 X117.997 Y107.656 E7.5275
G1 X120.509 Y110.168 E7.6470
G1 X120.600 Y110.389 E7.6550
G1 X120.600 Y116.941 E7.8755
G1 X120.509 Y117.162 E7.8835
G1 X117.997 Y119.674 E8.0030
G1 X117.776 Y119.765 E8.0111
G1 X32.224 Y119.765 E10.8894
G1 X32.003 Y119.674 E10.8974
G1 X29.491 Y117.162 E11.0169
G1 X29.400 Y116.941 E11.0249
G1 X29.400 Y110.389 E11.2454
G1 X29.491 Y110.168 E11.2534
G1 X32.003 Y107.656 E11.3729
G1 X32.224 Y107.565 E11.3810
G1 X37.400 Y107.565 E11.5551
G1 X37.400 Y77.389 E12.5703
G1 X37.491 Y77.168 E12.5784
G1 X37.560 Y77.100 E12.5816
G1 X32.224 Y77.100 E12.7611
G1 X32.003 Y77.009 E12.7692
G1 X29.491 Y74.497 E12.8887
G1 X29.400 Y74.276 E12.8967
G1 X29.400 Y67.724 E13.1172
G1 X29.491 Y67.503 E13.1252
G1 X32.003 Y64.991 E13.2447
G1 X32.224 Y64.900 E13.2527
G1 X37.400 Y64.900 E13.4269
G1 X37.400 Y34.724 E14.4421
G1 X37.491 Y34.503 E14.4501
G1 X37.830 Y34.730 F4200
G92 E0
G1 X40.230 Y32.330 E0.1142 F1650
G1 X40.303 Y32.300 E0.1168
G1 X40.864 Y32.300 E0.1357
G1 X41.162 Y31.784 E0.1557
G1 X41.199 Y31.747 E0.1575
G1 X43.101 Y30.649 E0.2314
G1 X43.152 Y30.635 E0.2332
G1 X48.447 Y30.635 E0.4113
G1 X48.520 Y30.665 E0.4140
G1 X50.920 Y33.065 E0.5281
G1 X50.950 Y33.138 E0.5308
G1 X50.950 Y40.862 E0.7907
G1 X50.920 Y40.935 E0.7933
G1 X49.200 Y42.655 E0.8752
G1 X49.200 Y56.800 E1.3511
G1 X100.800 Y56.800 E3.0871
G1 X100.800 Y42.655 E3.5630
G1 X99.080 Y40.935 E3.6448
G1 X99.050 Y40.862 E3.6475
G1 X99.050 Y33.138 E3.9073
G1 X99.080 Y33.065 E3.9100
G1 X101.480 Y30.665 E4.0241
G1 X101.553 Y30.635 E4.0268
G1 X106.848 Y30.635 E4.2049
G1 X106.899 Y30.649 E4.2067
G1 X108.801 Y31.747 E4.2806
G1 X108.838 Y31.784 E4.2824
G1 X109.136 Y32.300 E4.3024
G1 X109.697 Y32.300 E4.3213
G1 X109.770 Y32.330 E4.3240
G1 X112.170 Y34.730 E4.4381
G1 X112.200 Y34.803 E4.4408
G1 X112.200 Y65.300 E5.4668
G1 X117.697 Y65.300 E5.6517
G1 X117.770 Y65.330 E5.6544
G1 X120.170 Y67.730 E5.7686
G1 X120.200 Y67.803 E5.7713
G1 X120.200 Y74.197 E5.9863
G1 X120.170 Y74.270 E5.9890
G1 X117.770 Y76.670 E6.1032
G1 X117.697 Y76.700 E6.1059
G1 X111.475 Y76.700 E6.3152
G1 X112.170 Y77.395 E6.3483
G1 X112.200 Y77.468 E6.3509
G1 X112.200 Y107.965 E7.3770
G1 X117.697 Y107.965 E7.5619
G1 X117.770 Y107.996 E7.5646
G1 X120.170 Y110.395 E7.6787
G1 X120.200 Y110.468 E7.6814
G1 X120.200 Y116.862 E7.8965
G1 X120.170 Y116.935 E7.8992
G1 X117.770 Y119.335 E8.0133
G1 X117.697 Y119.365 E8.0160
G1 X32.303 Y119.365 E10.8889
G1 X32.230 Y119.335 E10.8916
G1 X29.830 Y116.935 E11.0058
G1 X29.800 Y116.862 E11.0084
G1 X29.800 Y110.468 E11.2235
G1 X29.830 Y110.395 E11.2262
G1 X32.230 Y107.996 E11.3404
G1 X32.303 Y107.965 E11.3431
G1 X37.800 Y107.965 E11.5280
G1 X37.800 Y77.468 E12.5540
G1 X37.830 Y77.395 E12.5567
G1 X38.525 Y76.700 E12.5897
G1 X32.303 Y76.700 E12.7991
G1 X32.230 Y76.670 E12.8017
G1 X29.830 Y74.270 E12.9159
G1 X29.800 Y74.197 E12.9186
G1 X29.800 Y67.803 E13.1337
G1 X29.830 Y67.730 E13.1364
G1 X32.230 Y65.330 E13.2505
G1 X32.303 Y65.300 E13.2532
G1 X37.800 Y65.300 E13.4381
G1 X37.800 Y34.803 E14.4641
G1 X37.830 Y34.730 E14.4668
G92 E0
G1 E-1.5000 F1800
; inner perimeter
G1 X42.600 Y37.100 F4200
G1 E0.1000 F1800
G92 E0
G1 X43.635 Y37.100 E0.0348 F1485
G1 X43.751 Y36.899 E0.0426
G1 X44.703 Y38.565 E0.1072
