; G-Code generated by Simplify3D(R) Version 3.0.2
; Oct 6, 2015 at 5:42:19 PM
; Settings Summary
;   processName,Process1
;   applyToModels,Top
;   profileName,PrinterBot Simple Metal Custom (modified)
;   profileVersion,2015-05-01 08:00:00
;   baseProfile,Default (modified)
;   printMaterial,PLA
;   printQuality,Medium
;   printExtruders,
;   extruderName,Primary Extruder
;   extruderToolheadNumber,0
;   extruderDiameter,0.4
;   extruderAutoWidth,0
;   extruderWidth,0.4
;   extrusionMultiplier,1
;   extruderUseRetract,1
;   extruderRetractionDistance,1.5
;   extruderExtraRestartDistance,0.1
;   extruderRetractionZLift,0
;   extruderRetractionSpeed,1800
;   extruderUseCoasting,0
;   extruderCoastingDistance,0.2
;   extruderUseWipe,0
;   extruderWipeDistance,5
;   primaryExtruder,0
;   layerHeight,0.2
;   topSolidLayers,3
;   bottomSolidLayers,3
;   perimeterOutlines,2
;   printPerimetersInsideOut,1
;   startPointOption,2
;   startPointOriginX,0
;   startPointOriginY,0
;   startPointOriginZ,300
;   sequentialIslands,0
;   spiralVaseMode,0
;   firstLayerHeightPercentage,60
;   firstLayerWidthPercentage,100
;   firstLayerUnderspeed,0.5
;   useRaft,0
;   raftExtruder,0
;   raftLayers,3
;   raftOffset,3
;   raftSeparationDistance,0.14
;   raftInfill,85
;   disableRaftBaseLayers,0
;   useSkirt,1
;   skirtExtruder,0
;   skirtLayers,1
;   skirtOutlines,5
;   skirtOffset,4
;   usePrimePillar,0
;   primePillarExtruder,999
;   primePillarWidth,12
;   primePillarLocation,7
;   primePillarSpeedMultiplier,1
;   useOozeShield,0
;   oozeShieldExtruder,999
;   oozeShieldOffset,2
;   oozeShieldOutlines,1
;   oozeShieldSidewallShape,1
;   oozeShieldSidewallAngle,30
;   oozeShieldSpeedMultiplier,1
;   infillExtruder,0
;   internalInfillPattern,Rectilinear
;   externalInfillPattern,Rectilinear
;   infillPercentage,20
;   outlineOverlapPercentage,15
;   infillExtrusionWidthPercentage,100
;   minInfillLength,5
;   infillLayerInterval,1
;   infillAngles,45,-45
;   overlapInfillAngles,0
;   generateSupport,0
;   supportExtruder,0
;   supportInfillPercentage,30
;   supportExtraInflation,0.4
;   denseSupportLayers,0
;   denseSupportInfillPercentage,70
;   supportLayerInterval,1
;   supportHorizontalPartOffset,0.3
;   supportUpperSeparationLayers,1
;   supportLowerSeparationLayers,1
;   supportType,0
;   supportGridSpacing,4
;   maxOverhangAngle,45
;   supportAngles,0
;   temperatureName,Primary Extruder,Heated Bed
;   temperatureNumber,0,1
;   temperatureSetpointCount,2,3
;   temperatureSetpointLayers,1,2,1,2,3
;   temperatureSetpointTemperatures,210,200,70,65,63
;   temperatureStabilizeAtStartup,1,1
;   temperatureHeatedBed,0,1
;   temperatureRelayBetweenLayers,0,0
;   temperatureRelayBetweenLoops,0,0
;   fanLayers,1,2,3
;   fanSpeeds,0,0,100
;   blipFanToFullPower,1
;   adjustSpeedForCooling,1
;   minSpeedLayerTime,15
;   minCoolingSpeedSlowdown,20
;   increaseFanForCooling,0
;   minFanLayerTime,45
;   maxCoolingFanSpeed,100
;   increaseFanForBridging,0
;   bridgingFanSpeed,100
;   use5D,1
;   relativeEdistances,0
;   allowEaxisZeroing,1
;   independentExtruderAxes,0
;   includeM10123,0
;   stickySupport,1
;   applyToolheadOffsets,0
;   gcodeXoffset,0
;   gcodeYoffset,0
;   gcodeZoffset,0
;   overrideMachineDefinition,1
;   machineTypeOverride,0
;   strokeXoverride,150
;   strokeYoverride,150
;   strokeZoverride,150
;   originOffsetXoverride,0
;   originOffsetYoverride,0
;   originOffsetZoverride,0
;   homeXdirOverride,-1
;   homeYdirOverride,-1
;   homeZdirOverride,-1
;   flipXoverride,1
;   flipYoverride,-1
;   flipZoverride,1
;   toolheadOffsets,0,0|0,0|0,0|0,0|0,0|0,0
;   overrideFirmwareConfiguration,1
;   firmwareTypeOverride,RepRap (Marlin/Repetier/Sprinter)
;   GPXconfigOverride,r2
;   baudRateOverride,250000
;   overridePrinterModels,1
;   printerModelsOverride
;   startingGcode,G28 X0 Y0 ; home X and Y axes,G29 ; probe z,M201 X1000 Y1000 ; acceleration settings
;   layerChangeGcode,
;   retractionGcode,
;   toolChangeGcode,
;   endingGcode,M104 S0 T0 ; turn off extruder,M140 S0 T1 ; turn off bed,G28 X0 Y0 ; home,M84 ; disable motors
;   createX3G,0
;   celebration,0
;   celebrationSong,Random Song
;   createMB5G,0
;   postProcessing,
;   defaultSpeed,2700
;   outlineUnderspeed,0.8
;   solidInfillUnderspeed,0.8
;   supportUnderspeed,0.8
;   rapidXYspeed,4200
;   rapidZspeed,1002
;   minBridgingArea,50
;   bridgingExtraInflation,0
;   bridgingExtrusionMultiplier,1
;   bridgingSpeedMultiplier,0.8
;   filamentDiameter,1.74
;   filamentPricePerKg,22
;   filamentDensity,1.25
;   useMinPrintHeight,0
;   minPrintHeight,0
;   useMaxPrintHeight,0
;   maxPrintHeight,0
;   useDiaphragm,0
;   diaphragmLayerInterval,20
;   robustSlicing,1
;   mergeAllIntoSolid,0
;   onlyRetractWhenCrossingOutline,1
;   retractBetweenLayers,1
;   useRetractionMinTravel,0
;   retractionMinTravel,3
;   retractWhileWiping,0
;   onlyWipeOutlines,1
;   avoidCrossingOutline,0
;   maxMovementDetourFactor,3
;   toolChangeRetractionDistance,12
;   toolChangeExtraRestartDistance,-0.5
;   toolChangeRetractionSpeed,600
;   allowThinWallGapFill,1
;   thinWallAllowedOverlapPercentage,10
;   horizontalSizeCompensation,0
G90
M82
M106 S0
M140 S70
M190 S70
M104 S210 T0
M109 S210 T0
G28 X0 Y0 ; home X and Y axes
G29 ; probe z
M201 X1000 Y1000 ; acceleration settings
G92 E0
G1 E-1.5000 F1800
G1 Z0.120 F1002
; layer 1, Z = 0.12
T0
; tool H0.200 W0.400
; skirt
G1 X23.536 Y22.576 F4200
G1 E0.1000 F540
G92 E0
G1 X23.685 Y22.423 E0.0072 F1350
G1 X23.713 Y22.395 E0.0085
G1 X24.444 Y21.705 E0.0423
G1 X24.483 Y21.671 E0.0441
G1 X24.701 Y21.487 E0.0537
G1 X24.743 Y21.455 E0.0554
G1 X25.578 Y20.833 E0.0905
G1 X25.620 Y20.803 E0.0922
G1 X25.859 Y20.646 E0.1018
G1 X25.903 Y20.619 E0.1036
G1 X26.774 Y20.116 E0.1374
G1 X26.809 Y20.097 E0.1388
G1 X26.999 Y19.998 E0.1460
G1 X27.035 Y19.980 E0.1473
G1 X27.574 Y19.729 E0.1673
G1 X27.610 Y19.713 E0.1686
G1 X27.807 Y19.631 E0.1758
G1 X27.843 Y19.617 E0.1771
G1 X28.785 Y19.274 E0.2109
G1 X28.835 Y19.258 E0.2126
G1 X29.108 Y19.176 E0.2222
G1 X29.158 Y19.163 E0.2240
G1 X30.136 Y18.931 E0.2578
G1 X30.175 Y18.923 E0.2591
G1 X30.385 Y18.882 E0.2663
G1 X30.423 Y18.876 E0.2676
G1 X31.009 Y18.790 E0.2875
G1 X31.048 Y18.785 E0.2889
G1 X31.261 Y18.763 E0.2960
G1 X31.300 Y18.760 E0.2974
G1 X32.233 Y18.706 E0.3288
G1 X32.259 Y18.705 E0.3297
G1 X32.402 Y18.700 E0.3345
G1 X32.428 Y18.700 E0.3354
G1 X117.536 Y18.700 E3.1987
G1 X117.549 Y18.700 E3.1991
G1 X117.620 Y18.701 E3.2015
G1 X117.633 Y18.701 E3.2020
G1 X118.116 Y18.715 E3.2182
G1 X118.142 Y18.717 E3.2191
G1 X118.284 Y18.725 E3.2239
G1 X118.310 Y18.727 E3.2248
G1 X118.864 Y18.775 E3.2435
G1 X118.903 Y18.779 E3.2448
G1 X119.115 Y18.807 E3.2520
G1 X119.154 Y18.813 E3.2533
G1 X120.144 Y18.988 E3.2871
G1 X120.196 Y18.998 E3.2889
G1 X120.473 Y19.064 E3.2985
G1 X120.524 Y19.077 E3.3003
G1 X121.487 Y19.366 E3.3341
G1 X121.524 Y19.378 E3.3354
G1 X121.726 Y19.448 E3.3426
G1 X121.763 Y19.462 E3.3439
G1 X122.313 Y19.680 E3.3638
G1 X122.349 Y19.695 E3.3652
G1 X122.545 Y19.783 E3.3724
G1 X122.580 Y19.800 E3.3737
G1 X123.447 Y20.235 E3.4063
G1 X123.481 Y20.253 E3.4076
G1 X123.668 Y20.357 E3.4148
G1 X123.702 Y20.377 E3.4161
G1 X124.206 Y20.688 E3.4361
G1 X124.239 Y20.709 E3.4374
G1 X124.416 Y20.829 E3.4446
G1 X124.448 Y20.852 E3.4459
G1 X125.226 Y21.431 E3.4785
G1 X125.257 Y21.455 E3.4798
G1 X125.423 Y21.590 E3.4870
G1 X125.453 Y21.616 E3.4884
G1 X125.895 Y22.009 E3.5083
G1 X125.924 Y22.036 E3.5096
G1 X126.077 Y22.185 E3.5168
G1 X126.105 Y22.213 E3.5181
G1 X126.795 Y22.944 E3.5519
G1 X126.829 Y22.983 E3.5537
G1 X127.013 Y23.201 E3.5633
G1 X127.045 Y23.243 E3.5651
G1 X127.646 Y24.049 E3.5989
G1 X127.669 Y24.081 E3.6002
G1 X127.789 Y24.258 E3.6074
G1 X127.810 Y24.291 E3.6087
G1 X128.121 Y24.795 E3.6286
G1 X128.141 Y24.828 E3.6300
G1 X128.245 Y25.015 E3.6372
G1 X128.263 Y25.050 E3.6385
G1 X128.699 Y25.917 E3.6711
G1 X128.716 Y25.952 E3.6724
G1 X128.803 Y26.147 E3.6796
G1 X128.818 Y26.183 E3.6809
G1 X129.037 Y26.733 E3.7009
G1 X129.051 Y26.770 E3.7022
G1 X129.121 Y26.972 E3.7094
G1 X129.133 Y27.010 E3.7107
G1 X129.411 Y27.939 E3.7433
G1 X129.422 Y27.976 E3.7446
G1 X129.474 Y28.184 E3.7518
G1 X129.483 Y28.222 E3.7532
G1 X129.603 Y28.802 E3.7731
G1 X129.610 Y28.840 E3.7744
G1 X129.644 Y29.051 E3.7816
G1 X129.649 Y29.090 E3.7829
G1 X129.766 Y30.089 E3.8167
G1 X129.771 Y30.141 E3.8185
G1 X129.787 Y30.426 E3.8281
G1 X129.789 Y30.478 E3.8298
G1 X129.800 Y119.071 E6.8104
G1 X129.800 Y119.097 E6.8113
G1 X129.795 Y119.240 E6.8161
G1 X129.794 Y119.266 E6.8170
G1 X129.738 Y120.232 E6.8496
G1 X129.734 Y120.284 E6.8513
G1 X129.701 Y120.567 E6.8609
G1 X129.693 Y120.619 E6.8627
G1 X129.512 Y121.644 E6.8977
G1 X129.502 Y121.695 E6.8994
G1 X129.436 Y121.973 E6.9090
G1 X129.423 Y122.024 E6.9108
G1 X129.134 Y122.987 E6.9446
G1 X129.122 Y123.024 E6.9459
G1 X129.052 Y123.226 E6.9531
G1 X129.038 Y123.263 E6.9545
G1 X128.820 Y123.813 E6.9744
G1 X128.805 Y123.849 E6.9757
G1 X128.717 Y124.044 E6.9829
G1 X128.700 Y124.080 E6.9842
G1 X128.265 Y124.947 E7.0168
G1 X128.247 Y124.981 E7.0182
G1 X128.143 Y125.168 E7.0254
G1 X128.123 Y125.202 E7.0267
G1 X127.812 Y125.706 E7.0466
G1 X127.791 Y125.739 E7.0479
G1 X127.671 Y125.916 E7.0551
G1 X127.648 Y125.948 E7.0564
G1 X127.069 Y126.726 E7.0891
G1 X127.045 Y126.757 E7.0904
G1 X126.910 Y126.922 E7.0976
G1 X126.885 Y126.952 E7.0989
G1 X126.491 Y127.395 E7.1188
G1 X126.464 Y127.423 E7.1201
G1 X126.315 Y127.577 E7.1273
G1 X126.287 Y127.605 E7.1286
G1 X125.556 Y128.295 E7.1625
G1 X125.517 Y128.330 E7.1642
G1 X125.298 Y128.513 E7.1738
G1 X125.257 Y128.545 E7.1756
G1 X124.451 Y129.146 E7.2094
G1 X124.419 Y129.169 E7.2107
G1 X124.242 Y129.289 E7.2179
G1 X124.209 Y129.310 E7.2193
G1 X123.705 Y129.621 E7.2392
G1 X123.671 Y129.641 E7.2405
G1 X123.485 Y129.745 E7.2477
G1 X123.450 Y129.764 E7.2490
G1 X122.551 Y130.215 E7.2828
G1 X122.504 Y130.237 E7.2846
G1 X122.242 Y130.350 E7.2942
G1 X122.194 Y130.369 E7.2960
G1 X121.215 Y130.725 E7.3310
G1 X121.166 Y130.742 E7.3327
G1 X120.893 Y130.824 E7.3423
G1 X120.842 Y130.837 E7.3441
G1 X119.829 Y131.077 E7.3791
G1 X119.778 Y131.088 E7.3809
G1 X119.497 Y131.138 E7.3905
G1 X119.445 Y131.145 E7.3922
G1 X118.446 Y131.262 E7.4261
G1 X118.407 Y131.266 E7.4274
G1 X118.194 Y131.281 E7.4346
G1 X118.155 Y131.283 E7.4359
G1 X117.634 Y131.299 E7.4534
G1 X117.621 Y131.299 E7.4539
G1 X117.550 Y131.300 E7.4563
G1 X117.536 Y131.300 E7.4567
G1 X32.464 Y131.300 E10.3188
G1 X32.451 Y131.300 E10.3193
G1 X32.380 Y131.299 E10.3217
G1 X32.367 Y131.299 E10.3221
G1 X31.848 Y131.283 E10.3396
G1 X31.809 Y131.281 E10.3409
G1 X31.597 Y131.266 E10.3481
G1 X31.558 Y131.262 E10.3494
G1 X30.559 Y131.146 E10.3832
G1 X30.507 Y131.138 E10.3850
G1 X30.226 Y131.089 E10.3946
G1 X30.174 Y131.078 E10.3963
G1 X29.161 Y130.838 E10.4314
G1 X29.111 Y130.825 E10.4331
G1 X28.838 Y130.743 E10.4427
G1 X28.788 Y130.727 E10.4445
G1 X27.810 Y130.371 E10.4795
G1 X27.761 Y130.351 E10.4813
G1 X27.500 Y130.239 E10.4908
G1 X27.452 Y130.216 E10.4926
G1 X26.553 Y129.765 E10.5264
G1 X26.519 Y129.747 E10.5278
G1 X26.332 Y129.643 E10.5350
G1 X26.298 Y129.623 E10.5363
G1 X25.794 Y129.312 E10.5562
G1 X25.761 Y129.291 E10.5575
G1 X25.584 Y129.171 E10.5647
G1 X25.552 Y129.148 E10.5660
G1 X24.774 Y128.569 E10.5987
G1 X24.743 Y128.545 E10.6000
G1 X24.577 Y128.410 E10.6072
G1 X24.548 Y128.384 E10.6085
G1 X24.105 Y127.991 E10.6284
G1 X24.076 Y127.964 E10.6297
G1 X23.923 Y127.815 E10.6369
G1 X23.895 Y127.787 E10.6383
G1 X23.205 Y127.056 E10.6721
G1 X23.170 Y127.017 E10.6738
G1 X22.987 Y126.798 E10.6834
G1 X22.955 Y126.757 E10.6852
G1 X22.354 Y125.951 E10.7190
G1 X22.331 Y125.919 E10.7203
G1 X22.211 Y125.742 E10.7275
G1 X22.190 Y125.709 E10.7289
G1 X21.879 Y125.205 E10.7488
G1 X21.859 Y125.172 E10.7501
G1 X21.755 Y124.985 E10.7573
G1 X21.736 Y124.950 E10.7586
G1 X21.285 Y124.051 E10.7924
G1 X21.263 Y124.004 E10.7942
G1 X21.150 Y123.742 E10.8038
G1 X21.131 Y123.693 E10.8056
G1 X20.775 Y122.715 E10.8406
G1 X20.758 Y122.666 E10.8423
G1 X20.676 Y122.393 E10.8519
G1 X20.663 Y122.342 E10.8537
G1 X20.423 Y121.329 E10.8887
G1 X20.412 Y121.278 E10.8905
G1 X20.362 Y120.997 E10.9001
G1 X20.355 Y120.945 E10.9018
G1 X20.238 Y119.946 E10.9357
G1 X20.234 Y119.907 E10.9370
G1 X20.219 Y119.694 E10.9442
G1 X20.217 Y119.655 E10.9455
G1 X20.201 Y119.134 E10.9630
G1 X20.201 Y119.121 E10.9635
G1 X20.200 Y119.050 E10.9659
G1 X20.200 Y119.036 E10.9663
G1 X20.200 Y30.964 E13.9294
G1 X20.200 Y30.951 E13.9298
G1 X20.201 Y30.880 E13.9322
G1 X20.201 Y30.867 E13.9326
G1 X20.216 Y30.348 E13.9501
G1 X20.218 Y30.309 E13.9514
G1 X20.234 Y30.096 E13.9586
G1 X20.238 Y30.058 E13.9599
G1 X20.354 Y29.059 E13.9937
G1 X20.362 Y29.007 E13.9955
G1 X20.411 Y28.726 E14.0051
G1 X20.422 Y28.674 E14.0069
G1 X20.662 Y27.661 E14.0419
G1 X20.675 Y27.611 E14.0437
G1 X20.757 Y27.338 E14.0532
G1 X20.773 Y27.288 E14.0550
G1 X21.129 Y26.310 E14.0900
G1 X21.149 Y26.261 E14.0918
G1 X21.261 Y26.000 E14.1014
G1 X21.284 Y25.952 E14.1031
G1 X21.735 Y25.053 E14.1370
G1 X21.753 Y25.019 E14.1383
G1 X21.857 Y24.832 E14.1455
G1 X21.877 Y24.798 E14.1468
G1 X22.188 Y24.294 E14.1667
G1 X22.209 Y24.261 E14.1681
G1 X22.329 Y24.084 E14.1753
G1 X22.352 Y24.052 E14.1766
G1 X22.931 Y23.274 E14.2092
G1 X22.955 Y23.243 E14.2105
G1 X23.090 Y23.077 E14.2177
G1 X23.116 Y23.047 E14.2190
G1 X23.509 Y22.605 E14.2390
G1 X23.536 Y22.576 E14.2403
G1 X23.826 Y22.852 F4200
G92 E0
G1 X23.969 Y22.705 E0.0069 F1350
G1 X23.991 Y22.683 E0.0079
G1 X24.714 Y22.000 E0.0414
G1 X24.745 Y21.973 E0.0428
G1 X24.954 Y21.797 E0.0520
G1 X24.986 Y21.772 E0.0533
G1 X25.812 Y21.157 E0.0880
G1 X25.845 Y21.134 E0.0893
G1 X26.074 Y20.983 E0.0986
G1 X26.108 Y20.962 E0.0999
G1 X26.970 Y20.464 E0.1334
G1 X26.997 Y20.449 E0.1344
G1 X27.180 Y20.354 E0.1414
G1 X27.207 Y20.341 E0.1424
G1 X27.739 Y20.093 E0.1621
G1 X27.767 Y20.081 E0.1632
G1 X27.956 Y20.003 E0.1700
G1 X27.984 Y19.991 E0.1711
G1 X28.917 Y19.652 E0.2044
G1 X28.955 Y19.639 E0.2058
G1 X29.217 Y19.561 E0.2150
G1 X29.256 Y19.551 E0.2164
G1 X30.224 Y19.321 E0.2499
G1 X30.254 Y19.315 E0.2509
G1 X30.456 Y19.276 E0.2578
G1 X30.486 Y19.271 E0.2588
G1 X31.063 Y19.186 E0.2784
G1 X31.093 Y19.183 E0.2795
G1 X31.297 Y19.162 E0.2864
G1 X31.328 Y19.159 E0.2874
G1 X32.253 Y19.105 E0.3186
G1 X32.273 Y19.104 E0.3193
G1 X32.410 Y19.100 E0.3239
G1 X32.431 Y19.100 E0.3246
G1 X117.534 Y19.100 E3.1877
G1 X117.544 Y19.100 E3.1881
G1 X117.612 Y19.101 E3.1904
G1 X117.623 Y19.101 E3.1907
G1 X118.102 Y19.115 E3.2068
G1 X118.122 Y19.116 E3.2075
G1 X118.258 Y19.124 E3.2121
G1 X118.278 Y19.125 E3.2128
G1 X118.825 Y19.173 E3.2312
G1 X118.855 Y19.176 E3.2323
G1 X119.059 Y19.203 E3.2392
G1 X119.089 Y19.208 E3.2402
G1 X120.069 Y19.381 E3.2737
G1 X120.109 Y19.389 E3.2751
G1 X120.375 Y19.452 E3.2843
G1 X120.415 Y19.462 E3.2856
G1 X121.368 Y19.748 E3.3191
G1 X121.397 Y19.757 E3.3201
G1 X121.591 Y19.824 E3.3270
G1 X121.620 Y19.835 E3.3281
G1 X122.162 Y20.050 E3.3477
G1 X122.190 Y20.062 E3.3487
G1 X122.377 Y20.146 E3.3556
G1 X122.404 Y20.159 E3.3566
G1 X123.263 Y20.590 E3.3890
G1 X123.290 Y20.605 E3.3900
G1 X123.469 Y20.704 E3.3969
G1 X123.496 Y20.720 E3.3979
G1 X123.992 Y21.026 E3.4176
G1 X124.018 Y21.043 E3.4186
G1 X124.188 Y21.158 E3.4255
G1 X124.213 Y21.175 E3.4265
G1 X124.984 Y21.749 E3.4589
G1 X125.008 Y21.768 E3.4599
G1 X125.167 Y21.898 E3.4668
G1 X125.190 Y21.917 E3.4678
G1 X125.626 Y22.305 E3.4874
G1 X125.648 Y22.326 E3.4885
G1 X125.795 Y22.469 E3.4954
G1 X125.817 Y22.490 E3.4964
G1 X126.500 Y23.214 E3.5299
G1 X126.527 Y23.245 E3.5312
G1 X126.703 Y23.454 E3.5404
G1 X126.728 Y23.486 E3.5418
G1 X127.322 Y24.284 E3.5753
G1 X127.340 Y24.309 E3.5763
G1 X127.455 Y24.479 E3.5832
G1 X127.472 Y24.505 E3.5843
G1 X127.778 Y25.001 E3.6039
G1 X127.794 Y25.027 E3.6049
G1 X127.894 Y25.206 E3.6118
G1 X127.908 Y25.233 E3.6128
G1 X128.339 Y26.092 E3.6452
G1 X128.352 Y26.120 E3.6462
G1 X128.436 Y26.307 E3.6531
G1 X128.448 Y26.335 E3.6541
G1 X128.664 Y26.877 E3.6737
G1 X128.674 Y26.906 E3.6748
G1 X128.742 Y27.099 E3.6817
G1 X128.751 Y27.128 E3.6827
G1 X129.027 Y28.049 E3.7150
G1 X129.035 Y28.079 E3.7161
G1 X129.085 Y28.277 E3.7230
