; G-Code generated by Simplify3D(R) Version 3.0.2
; Sep 27, 2015 at 9:15:05 AM
; Settings Summary
;   processName,Process1
;   applyToModels,cable_chain_single,cable_chain_single(2),cable_chain_single(3),cable_chain_single(4),cable_chain_single(5),cable_chain_single(6),cable_chain_single(7),cable_chain_single(8),cable_chain_single(9)
;   profileName,PrinterBot Simple Metal Custom (modified)
;   profileVersion,2015-05-01 08:00:00
;   baseProfile,Default (modified)
;   printMaterial,PLA
;   printQuality,Medium
;   printExtruders,
;   extruderName,Primary Extruder
;   extruderToolheadNumber,0
;   extruderDiameter,0.4
;   extruderAutoWidth,0
;   extruderWidth,0.4
;   extrusionMultiplier,1
;   extruderUseRetract,1
;   extruderRetractionDistance,1.5
;   extruderExtraRestartDistance,0
;   extruderRetractionZLift,0
;   extruderRetractionSpeed,1800
;   extruderUseCoasting,0
;   extruderCoastingDistance,0.2
;   extruderUseWipe,0
;   extruderWipeDistance,5
;   primaryExtruder,0
;   layerHeight,0.3
;   topSolidLayers,3
;   bottomSolidLayers,3
;   perimeterOutlines,2
;   printPerimetersInsideOut,1
;   startPointOption,2
;   startPointOriginX,0
;   startPointOriginY,0
;   startPointOriginZ,300
;   sequentialIslands,0
;   spiralVaseMode,0
;   firstLayerHeightPercentage,90
;   firstLayerWidthPercentage,100
;   firstLayerUnderspeed,0.5
;   useRaft,0
;   raftExtruder,0
;   raftLayers,3
;   raftOffset,3
;   raftSeparationDistance,0.14
;   raftInfill,85
;   disableRaftBaseLayers,0
;   useSkirt,1
;   skirtExtruder,0
;   skirtLayers,1
;   skirtOutlines,2
;   skirtOffset,4
;   usePrimePillar,0
;   primePillarExtruder,999
;   primePillarWidth,12
;   primePillarLocation,7
;   primePillarSpeedMultiplier,1
;   useOozeShield,0
;   oozeShieldExtruder,999
;   oozeShieldOffset,2
;   oozeShieldOutlines,1
;   oozeShieldSidewallShape,1
;   oozeShieldSidewallAngle,30
;   oozeShieldSpeedMultiplier,1
;   infillExtruder,0
;   internalInfillPattern,Rectilinear
;   externalInfillPattern,Rectilinear
;   infillPercentage,15
;   outlineOverlapPercentage,15
;   infillExtrusionWidthPercentage,100
;   minInfillLength,5
;   infillLayerInterval,1
;   infillAngles,45,-45
;   overlapInfillAngles,0
;   generateSupport,0
;   supportExtruder,0
;   supportInfillPercentage,30
;   supportExtraInflation,0.4
;   denseSupportLayers,0
;   denseSupportInfillPercentage,70
;   supportLayerInterval,1
;   supportHorizontalPartOffset,0.3
;   supportUpperSeparationLayers,1
;   supportLowerSeparationLayers,1
;   supportType,0
;   supportGridSpacing,4
;   maxOverhangAngle,45
;   supportAngles,0
;   temperatureName,Primary Extruder,Heated Bed
;   temperatureNumber,0,1
;   temperatureSetpointCount,2,3
;   temperatureSetpointLayers,1,2,1,2,3
;   temperatureSetpointTemperatures,210,200,70,65,63
;   temperatureStabilizeAtStartup,1,1
;   temperatureHeatedBed,0,1
;   temperatureRelayBetweenLayers,0,0
;   temperatureRelayBetweenLoops,0,0
;   fanLayers,1,2
;   fanSpeeds,0,100
;   blipFanToFullPower,1
;   adjustSpeedForCooling,1
;   minSpeedLayerTime,15
;   minCoolingSpeedSlowdown,20
;   increaseFanForCooling,0
;   minFanLayerTime,45
;   maxCoolingFanSpeed,100
;   increaseFanForBridging,0
;   bridgingFanSpeed,100
;   use5D,1
;   relativeEdistances,0
;   allowEaxisZeroing,1
;   independentExtruderAxes,0
;   includeM10123,0
;   stickySupport,1
;   applyToolheadOffsets,0
;   gcodeXoffset,0
;   gcodeYoffset,0
;   gcodeZoffset,0
;   overrideMachineDefinition,1
;   machineTypeOverride,0
;   strokeXoverride,150
;   strokeYoverride,150
;   strokeZoverride,150
;   originOffsetXoverride,0
;   originOffsetYoverride,0
;   originOffsetZoverride,0
;   homeXdirOverride,-1
;   homeYdirOverride,-1
;   homeZdirOverride,-1
;   flipXoverride,1
;   flipYoverride,-1
;   flipZoverride,1
;   toolheadOffsets,0,0|0,0|0,0|0,0|0,0|0,0
;   overrideFirmwareConfiguration,1
;   firmwareTypeOverride,RepRap (Marlin/Repetier/Sprinter)
;   GPXconfigOverride,r2
;   baudRateOverride,250000
;   overridePrinterModels,1
;   printerModelsOverride
;   startingGcode,G28 X0 Y0 ; home X and Y axes,G29 ; probe z
;   layerChangeGcode,
;   retractionGcode,
;   toolChangeGcode,
;   endingGcode,M104 S0 T0 ; turn off extruder,M140 S0 T1 ; turn off bed,G28 X0 Y0 ; home,M84 ; disable motors
;   createX3G,0
;   celebration,0
;   celebrationSong,Random Song
;   createMB5G,0
;   postProcessing,
;   defaultSpeed,2700
;   outlineUnderspeed,0.8
;   solidInfillUnderspeed,0.8
;   supportUnderspeed,0.8
;   rapidXYspeed,4200
;   rapidZspeed,1002
;   minBridgingArea,50
;   bridgingExtraInflation,0
;   bridgingExtrusionMultiplier,1
;   bridgingSpeedMultiplier,1
;   filamentDiameter,1.75
;   filamentPricePerKg,22
;   filamentDensity,1.25
;   useMinPrintHeight,0
;   minPrintHeight,0
;   useMaxPrintHeight,0
;   maxPrintHeight,0
;   useDiaphragm,0
;   diaphragmLayerInterval,20
;   robustSlicing,1
;   mergeAllIntoSolid,0
;   onlyRetractWhenCrossingOutline,1
;   retractBetweenLayers,1
;   useRetractionMinTravel,0
;   retractionMinTravel,3
;   retractWhileWiping,0
;   onlyWipeOutlines,1
;   avoidCrossingOutline,0
;   maxMovementDetourFactor,3
;   toolChangeRetractionDistance,12
;   toolChangeExtraRestartDistance,-0.5
;   toolChangeRetractionSpeed,600
;   allowThinWallGapFill,1
;   thinWallAllowedOverlapPercentage,10
;   horizontalSizeCompensation,0
G90
M82
M106 S0
M140 S70
M190 S70
M104 S210 T0
M109 S210 T0
G28 X0 Y0 ; home X and Y axes
G29 ; probe z
G92 E0
G1 E-1.5000 F1800
G1 Z0.270 F1002
; layer 1, Z = 0.27
T0
; tool H0.300 W0.400
; skirt
G1 X33.691 Y35.452 F4200
G1 E0.0000 F540
G92 E0
G1 X36.203 Y32.940 E0.1772 F1350
G1 X36.424 Y32.849 E0.1891
G1 X41.976 Y32.849 E0.4661
G1 X42.197 Y32.940 E0.4781
G1 X44.709 Y35.452 E0.6553
G1 X44.800 Y35.672 E0.6672
G1 X44.800 Y42.700 E1.0178
G1 X52.800 Y42.700 E1.4169
G1 X52.800 Y35.672 E1.7675
G1 X52.891 Y35.452 E1.7794
G1 X55.403 Y32.940 E1.9566
G1 X55.624 Y32.849 E1.9685
G1 X61.176 Y32.849 E2.2456
G1 X61.397 Y32.940 E2.2575
G1 X61.900 Y33.443 E2.2930
G1 X62.403 Y32.940 E2.3285
G1 X62.624 Y32.849 E2.3404
G1 X68.176 Y32.849 E2.6174
G1 X68.397 Y32.940 E2.6293
G1 X70.909 Y35.452 E2.8065
G1 X71.000 Y35.672 E2.8184
G1 X71.000 Y42.700 E3.1690
G1 X79.000 Y42.700 E3.5682
G1 X79.000 Y35.672 E3.9187
G1 X79.091 Y35.452 E3.9307
G1 X81.603 Y32.940 E4.1079
G1 X81.824 Y32.849 E4.1198
G1 X87.376 Y32.849 E4.3968
G1 X87.597 Y32.940 E4.4087
G1 X88.100 Y33.443 E4.4442
G1 X88.603 Y32.940 E4.4797
G1 X88.824 Y32.849 E4.4916
G1 X94.376 Y32.849 E4.7686
G1 X94.597 Y32.940 E4.7806
G1 X97.109 Y35.452 E4.9578
G1 X97.200 Y35.672 E4.9697
G1 X97.200 Y42.700 E5.3203
G1 X105.200 Y42.700 E5.7194
G1 X105.200 Y35.672 E6.0700
G1 X105.291 Y35.452 E6.0819
G1 X107.803 Y32.940 E6.2591
G1 X108.024 Y32.849 E6.2710
G1 X113.576 Y32.849 E6.5480
G1 X113.797 Y32.940 E6.5600
G1 X116.309 Y35.452 E6.7372
G1 X116.400 Y35.672 E6.7491
G1 X116.400 Y51.776 E7.5525
G1 X116.309 Y51.996 E7.5644
G1 X114.150 Y54.155 E7.7167
G1 X114.150 Y59.994 E8.0080
G1 X116.309 Y62.153 E8.1603
G1 X116.400 Y62.373 E8.1722
G1 X116.400 Y78.477 E8.9756
G1 X116.309 Y78.697 E8.9876
G1 X114.150 Y80.856 E9.1399
G1 X114.150 Y86.695 E9.4312
G1 X116.309 Y88.854 E9.5835
G1 X116.400 Y89.074 E9.5954
G1 X116.400 Y105.178 E10.3988
G1 X116.309 Y105.398 E10.4107
G1 X114.150 Y107.557 E10.5630
G1 X114.150 Y114.328 E10.9008
G1 X114.059 Y114.548 E10.9127
G1 X111.547 Y117.060 E11.0899
G1 X111.326 Y117.151 E11.1019
G1 X105.774 Y117.151 E11.3789
G1 X105.553 Y117.060 E11.3908
G1 X103.041 Y114.548 E11.5680
G1 X102.950 Y114.328 E11.5799
G1 X102.950 Y112.883 E11.6520
G1 X99.450 Y112.883 E11.8266
G1 X99.450 Y114.328 E11.8986
G1 X99.359 Y114.548 E11.9105
G1 X96.847 Y117.060 E12.0878
G1 X96.626 Y117.151 E12.0997
G1 X91.074 Y117.151 E12.3767
G1 X90.853 Y117.060 E12.3886
G1 X88.341 Y114.548 E12.5658
G1 X88.250 Y114.328 E12.5777
G1 X88.250 Y107.557 E12.9155
G1 X88.100 Y107.407 E12.9261
G1 X87.950 Y107.557 E12.9367
G1 X87.950 Y114.328 E13.2745
G1 X87.859 Y114.548 E13.2864
G1 X85.347 Y117.060 E13.4636
G1 X85.126 Y117.151 E13.4755
G1 X79.574 Y117.151 E13.7526
G1 X79.353 Y117.060 E13.7645
G1 X76.841 Y114.548 E13.9417
G1 X76.750 Y114.328 E13.9536
G1 X76.750 Y112.883 E14.0257
G1 X73.250 Y112.883 E14.2003
G1 X73.250 Y114.328 E14.2723
G1 X73.159 Y114.548 E14.2842
G1 X70.647 Y117.060 E14.4615
G1 X70.426 Y117.151 E14.4734
G1 X64.874 Y117.151 E14.7504
G1 X64.653 Y117.060 E14.7623
G1 X62.141 Y114.548 E14.9395
G1 X62.050 Y114.328 E14.9514
G1 X62.050 Y107.557 E15.2892
G1 X61.900 Y107.407 E15.2998
G1 X61.750 Y107.557 E15.3104
G1 X61.750 Y114.328 E15.6482
G1 X61.659 Y114.548 E15.6601
G1 X59.147 Y117.060 E15.8373
G1 X58.926 Y117.151 E15.8492
G1 X53.374 Y117.151 E16.1262
G1 X53.153 Y117.060 E16.1382
G1 X50.641 Y114.548 E16.3154
G1 X50.550 Y114.328 E16.3273
G1 X50.550 Y112.883 E16.3993
G1 X47.050 Y112.883 E16.5740
G1 X47.050 Y114.328 E16.6460
G1 X46.959 Y114.548 E16.6579
G1 X44.447 Y117.060 E16.8351
G1 X44.226 Y117.151 E16.8471
G1 X38.674 Y117.151 E17.1241
G1 X38.453 Y117.060 E17.1360
G1 X35.941 Y114.548 E17.3132
G1 X35.850 Y114.328 E17.3251
G1 X35.850 Y107.557 E17.6629
G1 X33.691 Y105.398 E17.8152
G1 X33.600 Y105.178 E17.8271
G1 X33.600 Y89.074 E18.6305
G1 X33.691 Y88.854 E18.6424
G1 X35.850 Y86.695 E18.7947
G1 X35.850 Y80.856 E19.0861
G1 X33.691 Y78.697 E19.2384
G1 X33.600 Y78.477 E19.2503
G1 X33.600 Y62.373 E20.0537
G1 X33.691 Y62.153 E20.0656
G1 X35.850 Y59.994 E20.2179
G1 X35.850 Y54.155 E20.5092
G1 X33.691 Y51.996 E20.6615
G1 X33.600 Y51.776 E20.6734
G1 X33.600 Y35.672 E21.4768
G1 X33.691 Y35.452 E21.4887
G1 X34.030 Y35.678 F4200
G92 E0
G1 X36.430 Y33.279 E0.1693 F1350
G1 X36.503 Y33.248 E0.1733
G1 X41.897 Y33.248 E0.4423
G1 X41.970 Y33.279 E0.4463
G1 X44.370 Y35.678 E0.6156
G1 X44.400 Y35.752 E0.6196
G1 X44.400 Y43.099 E0.9861
G1 X53.200 Y43.099 E1.4252
G1 X53.200 Y35.752 E1.7917
G1 X53.230 Y35.678 E1.7957
G1 X55.630 Y33.279 E1.9650
G1 X55.703 Y33.248 E1.9690
G1 X61.097 Y33.248 E2.2380
G1 X61.170 Y33.279 E2.2420
G1 X61.900 Y34.009 E2.2935
G1 X62.630 Y33.279 E2.3450
G1 X62.703 Y33.248 E2.3490
G1 X68.097 Y33.248 E2.6180
G1 X68.170 Y33.279 E2.6220
G1 X70.570 Y35.678 E2.7913
G1 X70.600 Y35.752 E2.7953
G1 X70.600 Y43.099 E3.1619
G1 X79.400 Y43.099 E3.6009
G1 X79.400 Y35.752 E3.9675
G1 X79.430 Y35.678 E3.9714
G1 X81.830 Y33.279 E4.1407
G1 X81.903 Y33.248 E4.1447
G1 X87.297 Y33.248 E4.4138
G1 X87.370 Y33.279 E4.4177
G1 X88.100 Y34.009 E4.4692
G1 X88.830 Y33.279 E4.5207
G1 X88.903 Y33.248 E4.5247
G1 X94.297 Y33.248 E4.7938
G1 X94.370 Y33.279 E4.7977
G1 X96.770 Y35.678 E4.9670
G1 X96.800 Y35.752 E4.9710
G1 X96.800 Y43.099 E5.3376
G1 X105.600 Y43.099 E5.7766
G1 X105.600 Y35.752 E6.1432
G1 X105.630 Y35.678 E6.1471
G1 X108.030 Y33.279 E6.3164
G1 X108.103 Y33.248 E6.3204
G1 X113.497 Y33.248 E6.5895
G1 X113.570 Y33.279 E6.5934
G1 X115.970 Y35.678 E6.7627
G1 X116.000 Y35.752 E6.7667
G1 X116.000 Y51.696 E7.5622
G1 X115.970 Y51.770 E7.5661
G1 X113.750 Y53.989 E7.7227
G1 X113.750 Y60.160 E8.0306
G1 X115.970 Y62.379 E8.1872
G1 X116.000 Y62.453 E8.1912
G1 X116.000 Y78.397 E8.9866
G1 X115.970 Y78.471 E8.9906
G1 X113.750 Y80.690 E9.1472
G1 X113.750 Y86.861 E9.4551
G1 X115.970 Y89.080 E9.6117
G1 X116.000 Y89.154 E9.6156
G1 X116.000 Y105.098 E10.4111
G1 X115.970 Y105.172 E10.4151
G1 X113.750 Y107.391 E10.5717
G1 X113.750 Y114.248 E10.9138
G1 X113.720 Y114.322 E10.9177
G1 X111.320 Y116.721 E11.0870
G1 X111.247 Y116.751 E11.0910
G1 X105.853 Y116.751 E11.3601
G1 X105.780 Y116.721 E11.3640
G1 X103.380 Y114.322 E11.5333
G1 X103.350 Y114.248 E11.5373
G1 X103.350 Y112.484 E11.6253
G1 X99.050 Y112.484 E11.8398
G1 X99.050 Y114.248 E11.9279
G1 X99.020 Y114.322 E11.9319
G1 X96.620 Y116.721 E12.1011
G1 X96.547 Y116.751 E12.1051
G1 X91.153 Y116.751 E12.3742
G1 X91.080 Y116.721 E12.3782
G1 X88.680 Y114.322 E12.5474
G1 X88.650 Y114.248 E12.5514
G1 X88.650 Y107.391 E12.8935
G1 X88.100 Y106.841 E12.9323
G1 X87.550 Y107.391 E12.9711
G1 X87.550 Y114.248 E13.3132
G1 X87.520 Y114.322 E13.3172
G1 X85.120 Y116.721 E13.4865
G1 X85.047 Y116.751 E13.4904
G1 X79.653 Y116.751 E13.7595
G1 X79.580 Y116.721 E13.7635
G1 X77.180 Y114.322 E13.9328
G1 X77.150 Y114.248 E13.9367
G1 X77.150 Y112.484 E14.0248
G1 X72.850 Y112.484 E14.2393
G1 X72.850 Y114.248 E14.3273
G1 X72.820 Y114.322 E14.3313
G1 X70.420 Y116.721 E14.5006
G1 X70.347 Y116.751 E14.5046
G1 X64.953 Y116.751 E14.7737
G1 X64.880 Y116.721 E14.7776
G1 X62.480 Y114.322 E14.9469
G1 X62.450 Y114.248 E14.9509
G1 X62.450 Y107.391 E15.2930
G1 X61.900 Y106.841 E15.3318
G1 X61.350 Y107.391 E15.3706
G1 X61.350 Y114.248 E15.7127
G1 X61.320 Y114.322 E15.7166
G1 X58.920 Y116.721 E15.8859
G1 X58.847 Y116.751 E15.8899
G1 X53.453 Y116.751 E16.1590
G1 X53.380 Y116.721 E16.1630
G1 X50.980 Y114.322 E16.3322
G1 X50.950 Y114.248 E16.3362
G1 X50.950 Y112.484 E16.4242
G1 X46.650 Y112.484 E16.6388
G1 X46.650 Y114.248 E16.7268
G1 X46.620 Y114.322 E16.7308
G1 X44.220 Y116.721 E16.9001
G1 X44.147 Y116.751 E16.9040
G1 X38.753 Y116.751 E17.1731
G1 X38.680 Y116.721 E17.1771
G1 X36.280 Y114.322 E17.3464
G1 X36.250 Y114.248 E17.3503
G1 X36.250 Y107.391 E17.6924
G1 X34.030 Y105.172 E17.8490
G1 X34.000 Y105.098 E17.8530
G1 X34.000 Y89.154 E18.6485
G1 X34.030 Y89.080 E18.6524
G1 X36.250 Y86.861 E18.8090
G1 X36.250 Y80.690 E19.1169
G1 X34.030 Y78.471 E19.2735
G1 X34.000 Y78.397 E19.2775
G1 X34.000 Y62.453 E20.0729
G1 X34.030 Y62.379 E20.0769
G1 X36.250 Y60.160 E20.2335
G1 X36.250 Y53.989 E20.5414
G1 X34.030 Y51.770 E20.6980
G1 X34.000 Y51.696 E20.7019
G1 X34.000 Y35.752 E21.4974
G1 X34.030 Y35.678 E21.5014
G92 E0
G1 E-1.5000 F1800
; inner perimeter
G1 X38.800 Y38.049 F4200
G1 E0.0000 F1800
G92 E0
G1 X39.600 Y38.048 E0.0399 F1215
G1 X39.600 Y47.900 E0.5314
G1 X58.000 Y47.900 E1.4494
G1 X58.000 Y38.048 E1.9408
G1 X58.800 Y38.048 E1.9807
G1 X58.800 Y49.400 E2.5470
G1 X56.550 Y49.400 E2.6593
G1 X56.550 Y58.550 E3.1158
G1 X55.750 Y58.550 E3.1557
G1 X55.750 Y55.814 E3.2922
G1 X55.613 Y55.210 E3.3231
G1 X55.241 Y54.706 E3.3543
G1 X54.619 Y54.347 E3.3901
G1 X54.196 Y54.282 E3.4115
G1 X43.397 Y54.282 E3.9503
G1 X42.908 Y54.369 E3.9750
G1 X42.518 Y54.578 E3.9971
G1 X42.148 Y54.947 E4.0232
G1 X41.936 Y55.340 E4.0455
G1 X41.850 Y55.829 E4.0703
G1 X41.850 Y58.550 E4.2060
G1 X41.050 Y58.550 E4.2459
G1 X41.050 Y49.400 E4.7024
G1 X38.800 Y49.400 E4.8146
G1 X38.800 Y38.048 E5.3809
; outer perimeter
G1 X38.400 Y37.648 F4200
G92 E0
G1 X40.000 Y37.648 E0.0798 F1080
G1 X40.000 Y47.499 E0.5713
G1 X57.600 Y47.499 E1.4494
G1 X57.600 Y37.648 E1.9408
G1 X59.200 Y37.648 E2.0207
G1 X59.200 Y49.800 E2.6269
G1 X56.950 Y49.800 E2.7391
G1 X56.950 Y58.950 E3.1956
G1 X55.350 Y58.950 E3.2754
G1 X55.350 Y55.859 E3.4296
G1 X55.241 Y55.381 E3.4541
G1 X54.968 Y55.011 E3.4770
G1 X54.484 Y54.731 E3.5049
G1 X54.165 Y54.681 E3.5210
G1 X43.432 Y54.681 E4.0565
G1 X43.041 Y54.751 E4.0763
G1 X42.759 Y54.903 E4.0923
G1 X42.472 Y55.189 E4.1125
G1 X42.319 Y55.473 E4.1286
G1 X42.250 Y55.864 E4.1484
G1 X42.250 Y58.950 E4.3024
G1 X40.650 Y58.950 E4.3822
G1 X40.650 Y49.800 E4.8387
G1 X38.400 Y49.800 E4.9509
G1 X38.400 Y37.648 E5.5572
; solid layer
G1 X39.140 Y38.452 F4200
G92 E0
G1 X39.204 Y38.389 E0.0045 F1080
G1 X39.260 Y38.389 E0.0073
G1 X39.260 Y38.898 E0.0327
G1 X39.140 Y39.018 E0.0412
G1 X39.140 Y39.584 E0.0694
G1 X39.260 Y39.464 E0.0779
G1 X39.260 Y40.029 E0.1061
G1 X39.140 Y40.149 E0.1146
G1 X39.140 Y40.715 E0.1428
G1 X39.260 Y40.595 E0.1513
G1 X39.260 Y41.161 E0.1795
G1 X39.140 Y41.281 E0.1879
G1 X39.140 Y41.846 E0.2162
G1 X39.260 Y41.726 E0.2246
G1 X39.260 Y42.292 E0.2529
G1 X39.140 Y42.412 E0.2613
G1 X39.140 Y42.978 E0.2895
G1 X39.260 Y42.858 E0.2980
G1 X39.260 Y43.423 E0.3262
G1 X39.140 Y43.543 E0.3347
G1 X39.140 Y44.109 E0.3629
G1 X39.260 Y43.989 E0.3714
G1 X39.260 Y44.555 E0.3996
G1 X39.140 Y44.675 E0.4081
G1 X39.140 Y45.241 E0.4363
G1 X39.260 Y45.121 E0.4448
G1 X39.260 Y45.686 E0.4730
G1 X39.140 Y45.806 E0.4815
G1 X39.140 Y46.372 E0.5097
G1 X39.260 Y46.252 E0.5181
G1 X39.260 Y46.818 E0.5464
G1 X39.140 Y46.938 E0.5548
G1 X39.140 Y47.503 E0.5831
G1 X39.260 Y47.383 E0.5915
G1 X39.260 Y47.949 E0.6197
G1 X39.140 Y48.069 E0.6282
G1 X39.140 Y48.635 E0.6564
G1 X39.535 Y48.239 E0.6843
