; G-Code generated by Simplify3D(R) Version 3.0.2
; Oct 27, 2015 at 4:40:26 PM
; Settings Summary
;   processName,Process1
;   applyToModels,Chain_Guide_Hold_Down,Chain_Guide_Hold_Down(2)
;   profileName,PrinterBot Simple Metal Custom (modified)
;   profileVersion,2015-05-01 08:00:00
;   baseProfile,Default (modified)
;   printMaterial,PLA
;   printQuality,Medium
;   printExtruders,
;   extruderName,Primary Extruder
;   extruderToolheadNumber,0
;   extruderDiameter,0.4
;   extruderAutoWidth,0
;   extruderWidth,0.4
;   extrusionMultiplier,1
;   extruderUseRetract,1
;   extruderRetractionDistance,1.5
;   extruderExtraRestartDistance,0.1
;   extruderRetractionZLift,0
;   extruderRetractionSpeed,1800
;   extruderUseCoasting,0
;   extruderCoastingDistance,0.2
;   extruderUseWipe,0
;   extruderWipeDistance,5
;   primaryExtruder,0
;   layerHeight,0.2
;   topSolidLayers,3
;   bottomSolidLayers,3
;   perimeterOutlines,2
;   printPerimetersInsideOut,1
;   startPointOption,2
;   startPointOriginX,0
;   startPointOriginY,0
;   startPointOriginZ,300
;   sequentialIslands,0
;   spiralVaseMode,0
;   firstLayerHeightPercentage,60
;   firstLayerWidthPercentage,100
;   firstLayerUnderspeed,0.5
;   useRaft,0
;   raftExtruder,0
;   raftLayers,3
;   raftOffset,3
;   raftSeparationDistance,0.14
;   raftInfill,85
;   disableRaftBaseLayers,0
;   useSkirt,1
;   skirtExtruder,0
;   skirtLayers,1
;   skirtOutlines,5
;   skirtOffset,5
;   usePrimePillar,0
;   primePillarExtruder,999
;   primePillarWidth,12
;   primePillarLocation,7
;   primePillarSpeedMultiplier,1
;   useOozeShield,0
;   oozeShieldExtruder,999
;   oozeShieldOffset,2
;   oozeShieldOutlines,1
;   oozeShieldSidewallShape,1
;   oozeShieldSidewallAngle,30
;   oozeShieldSpeedMultiplier,1
;   infillExtruder,0
;   internalInfillPattern,Rectilinear
;   externalInfillPattern,Rectilinear
;   infillPercentage,25
;   outlineOverlapPercentage,15
;   infillExtrusionWidthPercentage,100
;   minInfillLength,5
;   infillLayerInterval,1
;   infillAngles,45,-45
;   overlapInfillAngles,0
;   generateSupport,1
;   supportExtruder,0
;   supportInfillPercentage,30
;   supportExtraInflation,0.4
;   denseSupportLayers,0
;   denseSupportInfillPercentage,70
;   supportLayerInterval,1
;   supportHorizontalPartOffset,0.3
;   supportUpperSeparationLayers,1
;   supportLowerSeparationLayers,1
;   supportType,0
;   supportGridSpacing,4
;   maxOverhangAngle,45
;   supportAngles,0
;   temperatureName,Primary Extruder,Heated Bed
;   temperatureNumber,0,1
;   temperatureSetpointCount,2,3
;   temperatureSetpointLayers,1,2,1,2,3
;   temperatureSetpointTemperatures,210,200,70,65,63
;   temperatureStabilizeAtStartup,1,1
;   temperatureHeatedBed,0,1
;   temperatureRelayBetweenLayers,0,0
;   temperatureRelayBetweenLoops,0,0
;   fanLayers,1,2,3
;   fanSpeeds,0,0,100
;   blipFanToFullPower,1
;   adjustSpeedForCooling,1
;   minSpeedLayerTime,15
;   minCoolingSpeedSlowdown,20
;   increaseFanForCooling,0
;   minFanLayerTime,45
;   maxCoolingFanSpeed,100
;   increaseFanForBridging,0
;   bridgingFanSpeed,100
;   use5D,1
;   relativeEdistances,0
;   allowEaxisZeroing,1
;   independentExtruderAxes,0
;   includeM10123,0
;   stickySupport,1
;   applyToolheadOffsets,0
;   gcodeXoffset,0
;   gcodeYoffset,0
;   gcodeZoffset,0
;   overrideMachineDefinition,1
;   machineTypeOverride,0
;   strokeXoverride,150
;   strokeYoverride,150
;   strokeZoverride,150
;   originOffsetXoverride,0
;   originOffsetYoverride,0
;   originOffsetZoverride,0
;   homeXdirOverride,-1
;   homeYdirOverride,-1
;   homeZdirOverride,-1
;   flipXoverride,1
;   flipYoverride,-1
;   flipZoverride,1
;   toolheadOffsets,0,0|0,0|0,0|0,0|0,0|0,0
;   overrideFirmwareConfiguration,1
;   firmwareTypeOverride,RepRap (Marlin/Repetier/Sprinter)
;   GPXconfigOverride,r2
;   baudRateOverride,250000
;   overridePrinterModels,1
;   printerModelsOverride
;   startingGcode,G28 X0 Y0 ; home X and Y axes,G29 ; probe z,M201 X1000 Y1000 ; acceleration settings
;   layerChangeGcode,
;   retractionGcode,
;   toolChangeGcode,
;   endingGcode,M104 S0 T0 ; turn off extruder,M140 S0 T1 ; turn off bed,G28 X0 Y0 ; home,M84 ; disable motors
;   createX3G,0
;   celebration,0
;   celebrationSong,Random Song
;   createMB5G,0
;   postProcessing,
;   defaultSpeed,3300
;   outlineUnderspeed,0.8
;   solidInfillUnderspeed,0.8
;   supportUnderspeed,0.8
;   rapidXYspeed,4800
;   rapidZspeed,1002
;   minBridgingArea,50
;   bridgingExtraInflation,0
;   bridgingExtrusionMultiplier,1
;   bridgingSpeedMultiplier,0.8
;   filamentDiameter,1.74
;   filamentPricePerKg,22
;   filamentDensity,1.25
;   useMinPrintHeight,0
;   minPrintHeight,0
;   useMaxPrintHeight,0
;   maxPrintHeight,0
;   useDiaphragm,0
;   diaphragmLayerInterval,20
;   robustSlicing,1
;   mergeAllIntoSolid,0
;   onlyRetractWhenCrossingOutline,1
;   retractBetweenLayers,1
;   useRetractionMinTravel,0
;   retractionMinTravel,3
;   retractWhileWiping,0
;   onlyWipeOutlines,1
;   avoidCrossingOutline,0
;   maxMovementDetourFactor,3
;   toolChangeRetractionDistance,12
;   toolChangeExtraRestartDistance,-0.5
;   toolChangeRetractionSpeed,600
;   allowThinWallGapFill,1
;   thinWallAllowedOverlapPercentage,10
;   horizontalSizeCompensation,0
G90
M82
M106 S0
M140 S70
M190 S70
M104 S210 T0
M109 S210 T0
G28 X0 Y0 ; home X and Y axes
G29 ; probe z
M201 X1000 Y1000 ; acceleration settings
G92 E0
G1 E-1.5000 F1800
G1 Z0.120 F1002
; layer 1, Z = 0.12
T0
; tool H0.200 W0.400
; skirt
G1 X48.158 Y75.551 F4800
G1 E0.1000 F540
G92 E0
G1 X48.834 Y75.263 E0.0247 F1650
G1 X101.100 Y75.263 E1.7831
G1 X101.761 Y75.537 E1.8072
G1 X105.197 Y78.972 E1.9707
G1 X105.471 Y79.634 E1.9948
G1 X105.471 Y98.192 E2.6191
G1 X105.441 Y98.263 E2.6217
G1 X105.471 Y98.334 E2.6243
G1 X105.471 Y116.892 E3.2486
G1 X105.197 Y117.554 E3.2727
G1 X101.761 Y120.989 E3.4362
G1 X101.100 Y121.263 E3.4603
G1 X64.967 Y121.263 E4.6759
G1 X64.949 Y121.263 E4.6765
G1 X64.832 Y121.261 E4.6804
G1 X64.815 Y121.260 E4.6810
G1 X63.567 Y121.211 E4.7230
G1 X63.532 Y121.209 E4.7242
G1 X63.301 Y121.190 E4.7320
G1 X63.266 Y121.187 E4.7332
G1 X61.996 Y121.036 E4.7762
G1 X61.970 Y121.033 E4.7771
G1 X61.798 Y121.007 E4.7830
G1 X61.772 Y121.003 E4.7839
G1 X61.071 Y120.878 E4.8078
G1 X61.045 Y120.873 E4.8087
G1 X60.875 Y120.837 E4.8145
G1 X60.849 Y120.831 E4.8154
G1 X59.606 Y120.533 E4.8584
G1 X59.572 Y120.524 E4.8596
G1 X59.349 Y120.461 E4.8674
G1 X59.315 Y120.451 E4.8686
G1 X58.072 Y120.046 E4.9126
G1 X58.038 Y120.035 E4.9138
G1 X57.821 Y119.954 E4.9216
G1 X57.788 Y119.942 E4.9228
G1 X56.580 Y119.441 E4.9668
G1 X56.548 Y119.427 E4.9679
G1 X56.338 Y119.330 E4.9757
G1 X56.306 Y119.314 E4.9769
G1 X55.141 Y118.720 E5.0209
G1 X55.110 Y118.704 E5.0221
G1 X54.908 Y118.591 E5.0299
G1 X54.877 Y118.573 E5.0311
G1 X53.763 Y117.889 E5.0751
G1 X53.733 Y117.870 E5.0763
G1 X53.540 Y117.741 E5.0841
G1 X53.511 Y117.721 E5.0853
G1 X52.454 Y116.952 E5.1292
G1 X52.425 Y116.931 E5.1304
G1 X52.244 Y116.788 E5.1382
G1 X52.216 Y116.765 E5.1394
G1 X51.222 Y115.916 E5.1834
G1 X51.196 Y115.892 E5.1846
G1 X51.026 Y115.735 E5.1924
G1 X51.000 Y115.711 E5.1936
G1 X50.076 Y114.786 E5.2376
G1 X50.051 Y114.760 E5.2388
G1 X49.894 Y114.590 E5.2465
G1 X49.871 Y114.564 E5.2477
G1 X49.022 Y113.569 E5.2917
G1 X48.999 Y113.542 E5.2929
G1 X48.856 Y113.360 E5.3007
G1 X48.835 Y113.332 E5.3019
G1 X48.066 Y112.274 E5.3459
G1 X48.046 Y112.245 E5.3471
G1 X47.918 Y112.052 E5.3549
G1 X47.898 Y112.023 E5.3561
G1 X47.216 Y110.908 E5.4000
G1 X47.198 Y110.877 E5.4012
G1 X47.084 Y110.675 E5.4090
G1 X47.068 Y110.644 E5.4102
G1 X46.488 Y109.504 E5.4532
G1 X46.476 Y109.481 E5.4541
G1 X46.402 Y109.324 E5.4600
G1 X46.391 Y109.300 E5.4609
G1 X46.106 Y108.648 E5.4848
G1 X46.096 Y108.623 E5.4857
G1 X46.031 Y108.463 E5.4915
G1 X46.021 Y108.438 E5.4924
G1 X45.581 Y107.243 E5.5353
G1 X45.569 Y107.209 E5.5365
G1 X45.497 Y106.989 E5.5443
G1 X45.487 Y106.955 E5.5454
G1 X45.131 Y105.692 E5.5896
G1 X45.122 Y105.658 E5.5908
G1 X45.068 Y105.432 E5.5986
G1 X45.060 Y105.397 E5.5998
G1 X44.806 Y104.115 E5.6438
G1 X44.799 Y104.080 E5.6450
G1 X44.763 Y103.852 E5.6527
G1 X44.758 Y103.817 E5.6539
G1 X44.605 Y102.519 E5.6979
G1 X44.601 Y102.484 E5.6991
G1 X44.583 Y102.253 E5.7069
G1 X44.581 Y102.218 E5.7081
G1 X44.437 Y98.536 E5.8320
G1 X44.698 Y97.849 E5.8567
G1 X48.158 Y94.251 E6.0247
G1 X48.463 Y94.121 E6.0359
G1 X48.066 Y93.574 E6.0586
G1 X48.046 Y93.545 E6.0598
G1 X47.918 Y93.352 E6.0676
G1 X47.898 Y93.323 E6.0688
G1 X47.216 Y92.208 E6.1128
G1 X47.198 Y92.177 E6.1139
G1 X47.084 Y91.975 E6.1217
G1 X47.068 Y91.944 E6.1229
G1 X46.488 Y90.804 E6.1659
G1 X46.476 Y90.781 E6.1668
G1 X46.402 Y90.624 E6.1727
G1 X46.391 Y90.600 E6.1736
G1 X46.106 Y89.948 E6.1975
G1 X46.096 Y89.923 E6.1984
G1 X46.031 Y89.763 E6.2042
G1 X46.021 Y89.738 E6.2051
G1 X45.581 Y88.543 E6.2480
G1 X45.569 Y88.509 E6.2492
G1 X45.497 Y88.289 E6.2570
G1 X45.487 Y88.255 E6.2582
G1 X45.131 Y86.992 E6.3023
G1 X45.122 Y86.958 E6.3035
G1 X45.068 Y86.732 E6.3113
G1 X45.060 Y86.697 E6.3125
G1 X44.806 Y85.415 E6.3565
G1 X44.799 Y85.380 E6.3577
G1 X44.763 Y85.152 E6.3655
G1 X44.758 Y85.117 E6.3666
G1 X44.605 Y83.819 E6.4106
G1 X44.601 Y83.784 E6.4118
G1 X44.583 Y83.553 E6.4196
G1 X44.581 Y83.518 E6.4208
G1 X44.437 Y79.836 E6.5447
G1 X44.698 Y79.149 E6.5695
G1 X48.158 Y75.551 E6.7374
G1 X48.390 Y75.887 F4800
G92 E0
G1 X48.915 Y75.663 E0.0192 F1650
G1 X101.020 Y75.663 E1.7722
G1 X101.535 Y75.876 E1.7910
G1 X104.857 Y79.199 E1.9490
G1 X105.071 Y79.714 E1.9678
G1 X105.071 Y98.113 E2.5868
G1 X105.008 Y98.263 E2.5923
G1 X105.071 Y98.414 E2.5978
G1 X105.071 Y116.813 E3.2168
G1 X104.857 Y117.327 E3.2355
G1 X101.535 Y120.650 E3.3936
G1 X101.020 Y120.863 E3.4123
G1 X64.969 Y120.863 E4.6252
G1 X64.955 Y120.863 E4.6257
G1 X64.842 Y120.861 E4.6295
G1 X64.828 Y120.860 E4.6299
G1 X63.587 Y120.811 E4.6718
G1 X63.559 Y120.810 E4.6727
G1 X63.336 Y120.792 E4.6802
G1 X63.309 Y120.789 E4.6811
G1 X62.046 Y120.640 E4.7239
G1 X62.026 Y120.637 E4.7246
G1 X61.860 Y120.612 E4.7303
G1 X61.839 Y120.609 E4.7309
G1 X61.145 Y120.485 E4.7547
G1 X61.124 Y120.481 E4.7554
G1 X60.960 Y120.446 E4.7610
G1 X60.940 Y120.442 E4.7617
G1 X59.703 Y120.145 E4.8045
G1 X59.677 Y120.138 E4.8054
G1 X59.461 Y120.077 E4.8130
G1 X59.435 Y120.069 E4.8139
G1 X58.199 Y119.667 E4.8576
G1 X58.173 Y119.658 E4.8585
G1 X57.963 Y119.581 E4.8661
G1 X57.938 Y119.570 E4.8670
G1 X56.737 Y119.073 E4.9107
G1 X56.712 Y119.062 E4.9116
G1 X56.509 Y118.968 E4.9192
G1 X56.484 Y118.956 E4.9201
G1 X55.326 Y118.366 E4.9638
G1 X55.302 Y118.353 E4.9647
G1 X55.107 Y118.243 E4.9723
G1 X55.083 Y118.230 E4.9732
G1 X53.975 Y117.550 E5.0169
G1 X53.952 Y117.535 E5.0178
G1 X53.766 Y117.411 E5.0254
G1 X53.743 Y117.395 E5.0263
G1 X52.692 Y116.631 E5.0700
G1 X52.670 Y116.615 E5.0710
G1 X52.494 Y116.476 E5.0785
G1 X52.473 Y116.459 E5.0794
G1 X51.485 Y115.614 E5.1231
G1 X51.464 Y115.596 E5.1241
G1 X51.300 Y115.444 E5.1316
G1 X51.280 Y115.425 E5.1325
G1 X50.362 Y114.506 E5.1762
G1 X50.343 Y114.486 E5.1772
G1 X50.191 Y114.322 E5.1847
G1 X50.172 Y114.301 E5.1856
G1 X49.329 Y113.313 E5.2293
G1 X49.311 Y113.291 E5.2303
G1 X49.173 Y113.116 E5.2378
G1 X49.156 Y113.094 E5.2387
G1 X48.392 Y112.042 E5.2824
G1 X48.377 Y112.020 E5.2834
G1 X48.252 Y111.833 E5.2909
G1 X48.238 Y111.810 E5.2918
G1 X47.559 Y110.702 E5.3355
G1 X47.545 Y110.678 E5.3365
G1 X47.435 Y110.483 E5.3440
G1 X47.422 Y110.459 E5.3449
G1 X46.845 Y109.326 E5.3877
G1 X46.836 Y109.307 E5.3884
G1 X46.765 Y109.155 E5.3940
G1 X46.756 Y109.137 E5.3947
G1 X46.474 Y108.490 E5.4185
G1 X46.466 Y108.471 E5.4192
G1 X46.403 Y108.316 E5.4248
G1 X46.396 Y108.297 E5.4255
G1 X45.957 Y107.108 E5.4681
G1 X45.948 Y107.082 E5.4690
G1 X45.879 Y106.869 E5.4766
G1 X45.871 Y106.843 E5.4775
G1 X45.517 Y105.587 E5.5214
G1 X45.510 Y105.561 E5.5223
G1 X45.458 Y105.343 E5.5299
G1 X45.452 Y105.316 E5.5308
G1 X45.199 Y104.041 E5.5745
G1 X45.194 Y104.014 E5.5754
G1 X45.159 Y103.793 E5.5830
G1 X45.155 Y103.766 E5.5839
G1 X45.003 Y102.476 E5.6276
G1 X45.000 Y102.448 E5.6285
G1 X44.982 Y102.226 E5.6360
G1 X44.981 Y102.198 E5.6370
G1 X44.840 Y98.602 E5.7581
G1 X45.043 Y98.068 E5.7773
G1 X48.390 Y94.587 E5.9397
G1 X48.915 Y94.363 E5.9589
G1 X49.134 Y94.363 E5.9663
G1 X48.392 Y93.342 E6.0088
G1 X48.377 Y93.320 E6.0097
G1 X48.252 Y93.133 E6.0172
G1 X48.238 Y93.110 E6.0181
G1 X47.559 Y92.002 E6.0619
G1 X47.545 Y91.978 E6.0628
G1 X47.435 Y91.783 E6.0703
G1 X47.422 Y91.759 E6.0712
G1 X46.845 Y90.625 E6.1140
G1 X46.836 Y90.607 E6.1147
G1 X46.765 Y90.455 E6.1204
G1 X46.756 Y90.437 E6.1211
G1 X46.474 Y89.790 E6.1448
G1 X46.466 Y89.771 E6.1455
G1 X46.403 Y89.616 E6.1511
G1 X46.396 Y89.597 E6.1518
G1 X45.957 Y88.408 E6.1944
G1 X45.948 Y88.382 E6.1954
G1 X45.879 Y88.169 E6.2029
G1 X45.871 Y88.143 E6.2038
G1 X45.517 Y86.887 E6.2477
G1 X45.510 Y86.861 E6.2486
G1 X45.458 Y86.643 E6.2562
G1 X45.452 Y86.616 E6.2571
G1 X45.199 Y85.341 E6.3008
G1 X45.194 Y85.314 E6.3017
G1 X45.159 Y85.093 E6.3093
G1 X45.155 Y85.066 E6.3102
G1 X45.003 Y83.776 E6.3539
G1 X45.000 Y83.748 E6.3548
G1 X44.982 Y83.526 E6.3623
G1 X44.981 Y83.498 E6.3633
G1 X44.840 Y79.901 E6.4844
G1 X45.043 Y79.368 E6.5036
G1 X48.390 Y75.887 E6.6660
G1 X48.621 Y76.223 F4800
G92 E0
G1 X48.997 Y76.063 E0.0137 F1650
G1 X100.941 Y76.063 E1.7613
G1 X101.308 Y76.215 E1.7747
G1 X104.518 Y79.426 E1.9274
G1 X104.671 Y79.793 E1.9408
G1 X104.671 Y98.033 E2.5545
G1 X104.575 Y98.263 E2.5628
G1 X104.671 Y98.493 E2.5712
G1 X104.671 Y116.733 E3.1849
G1 X104.518 Y117.101 E3.1983
G1 X101.308 Y120.311 E3.3510
G1 X100.941 Y120.463 E3.3644
G1 X64.971 Y120.463 E4.5745
G1 X64.961 Y120.463 E4.5749
G1 X64.852 Y120.461 E4.5785
G1 X64.842 Y120.461 E4.5789
G1 X63.606 Y120.412 E4.6205
G1 X63.587 Y120.411 E4.6211
G1 X63.372 Y120.394 E4.6284
G1 X63.352 Y120.392 E4.6291
G1 X62.096 Y120.243 E4.6716
G1 X62.082 Y120.241 E4.6721
G1 X61.921 Y120.217 E4.6775
G1 X61.907 Y120.215 E4.6780
G1 X61.218 Y120.091 E4.7016
G1 X61.203 Y120.089 E4.7021
G1 X61.045 Y120.055 E4.7075
G1 X61.030 Y120.052 E4.7080
G1 X59.801 Y119.757 E4.7506
G1 X59.782 Y119.752 E4.7512
G1 X59.574 Y119.693 E4.7585
G1 X59.555 Y119.687 E4.7592
G1 X58.327 Y119.288 E4.8026
G1 X58.308 Y119.281 E4.8033
G1 X58.106 Y119.207 E4.8106
G1 X58.087 Y119.199 E4.8112
G1 X56.894 Y118.705 E4.8547
G1 X56.876 Y118.697 E4.8553
G1 X56.680 Y118.607 E4.8626
G1 X56.662 Y118.598 E4.8633
G1 X55.511 Y118.011 E4.9067
G1 X55.494 Y118.002 E4.9074
G1 X55.306 Y117.896 E4.9146
G1 X55.289 Y117.887 E4.9153
G1 X54.187 Y117.211 E4.9588
G1 X54.171 Y117.201 E4.9594
G1 X53.991 Y117.081 E4.9667
G1 X53.975 Y117.069 E4.9674
G1 X52.930 Y116.310 E5.0108
G1 X52.915 Y116.298 E5.0115
G1 X52.745 Y116.164 E5.0187
G1 X52.730 Y116.152 E5.0194
G1 X51.748 Y115.313 E5.0629
G1 X51.733 Y115.300 E5.0635
G1 X51.575 Y115.153 E5.0708
G1 X51.560 Y115.139 E5.0714
G1 X50.647 Y114.226 E5.1149
G1 X50.634 Y114.212 E5.1156
G1 X50.487 Y114.053 E5.1228
G1 X50.474 Y114.038 E5.1235
G1 X49.635 Y113.056 E5.1669
G1 X49.623 Y113.041 E5.1676
G1 X49.489 Y112.871 E5.1749
G1 X49.477 Y112.855 E5.1755
G1 X48.718 Y111.810 E5.2190
G1 X48.707 Y111.794 E5.2197
G1 X48.587 Y111.615 E5.2269
G1 X48.577 Y111.598 E5.2276
G1 X47.902 Y110.496 E5.2710
G1 X47.892 Y110.479 E5.2717
G1 X47.786 Y110.291 E5.2790
G1 X47.777 Y110.274 E5.2796
G1 X47.203 Y109.147 E5.3222
G1 X47.197 Y109.133 E5.3227
G1 X47.128 Y108.987 E5.3281
G1 X47.122 Y108.974 E5.3286
G1 X46.841 Y108.333 E5.3522
G1 X46.836 Y108.319 E5.3527
G1 X46.775 Y108.169 E5.3581
G1 X46.770 Y108.155 E5.3586
G1 X46.334 Y106.973 E5.4010
G1 X46.327 Y106.955 E5.4016
G1 X46.261 Y106.749 E5.4089
G1 X46.255 Y106.730 E5.4096
G1 X45.903 Y105.483 E5.4532
G1 X45.898 Y105.464 E5.4538
G1 X45.848 Y105.253 E5.4611
G1 X45.843 Y105.234 E5.4618
G1 X45.592 Y103.967 E5.5053
G1 X45.588 Y103.948 E5.5059
G1 X45.555 Y103.734 E5.5132
G1 X45.552 Y103.715 E5.5138
G1 X45.400 Y102.433 E5.5573
G1 X45.398 Y102.413 E5.5579
G1 X45.381 Y102.198 E5.5652
G1 X45.380 Y102.179 E5.5659
G1 X45.243 Y98.667 E5.6841
G1 X45.388 Y98.286 E5.6978
G1 X48.621 Y94.923 E5.8548
G1 X48.997 Y94.763 E5.8685
G1 X49.983 Y94.763 E5.9017
G1 X49.635 Y94.356 E5.9197
G1 X49.623 Y94.341 E5.9203
G1 X49.489 Y94.171 E5.9276
