; G-Code generated by Simplify3D(R) Version 3.0.2
; Oct 27, 2015 at 12:55:59 PM
; Settings Summary
;   processName,Process1
;   applyToModels,Chain_Guide_holder_Top_Z,Chain_Guide_hold_down_External_Bracket,Chain_Guide_hold_down_External_Bracket(2)
;   profileName,PrinterBot Simple Metal Custom (modified)
;   profileVersion,2015-05-01 08:00:00
;   baseProfile,Default (modified)
;   printMaterial,PLA
;   printQuality,Medium
;   printExtruders,
;   extruderName,Primary Extruder
;   extruderToolheadNumber,0
;   extruderDiameter,0.4
;   extruderAutoWidth,0
;   extruderWidth,0.4
;   extrusionMultiplier,1
;   extruderUseRetract,1
;   extruderRetractionDistance,1.5
;   extruderExtraRestartDistance,0.1
;   extruderRetractionZLift,0
;   extruderRetractionSpeed,1800
;   extruderUseCoasting,0
;   extruderCoastingDistance,0.2
;   extruderUseWipe,0
;   extruderWipeDistance,5
;   primaryExtruder,0
;   layerHeight,0.2
;   topSolidLayers,3
;   bottomSolidLayers,3
;   perimeterOutlines,2
;   printPerimetersInsideOut,1
;   startPointOption,2
;   startPointOriginX,0
;   startPointOriginY,0
;   startPointOriginZ,300
;   sequentialIslands,0
;   spiralVaseMode,0
;   firstLayerHeightPercentage,60
;   firstLayerWidthPercentage,100
;   firstLayerUnderspeed,0.5
;   useRaft,0
;   raftExtruder,0
;   raftLayers,3
;   raftOffset,3
;   raftSeparationDistance,0.14
;   raftInfill,85
;   disableRaftBaseLayers,0
;   useSkirt,1
;   skirtExtruder,0
;   skirtLayers,1
;   skirtOutlines,5
;   skirtOffset,5
;   usePrimePillar,0
;   primePillarExtruder,999
;   primePillarWidth,12
;   primePillarLocation,7
;   primePillarSpeedMultiplier,1
;   useOozeShield,0
;   oozeShieldExtruder,999
;   oozeShieldOffset,2
;   oozeShieldOutlines,1
;   oozeShieldSidewallShape,1
;   oozeShieldSidewallAngle,30
;   oozeShieldSpeedMultiplier,1
;   infillExtruder,0
;   internalInfillPattern,Rectilinear
;   externalInfillPattern,Rectilinear
;   infillPercentage,25
;   outlineOverlapPercentage,15
;   infillExtrusionWidthPercentage,100
;   minInfillLength,5
;   infillLayerInterval,1
;   infillAngles,45,-45
;   overlapInfillAngles,0
;   generateSupport,0
;   supportExtruder,0
;   supportInfillPercentage,30
;   supportExtraInflation,0.4
;   denseSupportLayers,0
;   denseSupportInfillPercentage,70
;   supportLayerInterval,1
;   supportHorizontalPartOffset,0.3
;   supportUpperSeparationLayers,1
;   supportLowerSeparationLayers,1
;   supportType,0
;   supportGridSpacing,4
;   maxOverhangAngle,45
;   supportAngles,0
;   temperatureName,Primary Extruder,Heated Bed
;   temperatureNumber,0,1
;   temperatureSetpointCount,2,3
;   temperatureSetpointLayers,1,2,1,2,3
;   temperatureSetpointTemperatures,210,200,70,65,63
;   temperatureStabilizeAtStartup,1,1
;   temperatureHeatedBed,0,1
;   temperatureRelayBetweenLayers,0,0
;   temperatureRelayBetweenLoops,0,0
;   fanLayers,1,2,3
;   fanSpeeds,0,0,100
;   blipFanToFullPower,1
;   adjustSpeedForCooling,1
;   minSpeedLayerTime,15
;   minCoolingSpeedSlowdown,20
;   increaseFanForCooling,0
;   minFanLayerTime,45
;   maxCoolingFanSpeed,100
;   increaseFanForBridging,0
;   bridgingFanSpeed,100
;   use5D,1
;   relativeEdistances,0
;   allowEaxisZeroing,1
;   independentExtruderAxes,0
;   includeM10123,0
;   stickySupport,1
;   applyToolheadOffsets,0
;   gcodeXoffset,0
;   gcodeYoffset,0
;   gcodeZoffset,0
;   overrideMachineDefinition,1
;   machineTypeOverride,0
;   strokeXoverride,150
;   strokeYoverride,150
;   strokeZoverride,150
;   originOffsetXoverride,0
;   originOffsetYoverride,0
;   originOffsetZoverride,0
;   homeXdirOverride,-1
;   homeYdirOverride,-1
;   homeZdirOverride,-1
;   flipXoverride,1
;   flipYoverride,-1
;   flipZoverride,1
;   toolheadOffsets,0,0|0,0|0,0|0,0|0,0|0,0
;   overrideFirmwareConfiguration,1
;   firmwareTypeOverride,RepRap (Marlin/Repetier/Sprinter)
;   GPXconfigOverride,r2
;   baudRateOverride,250000
;   overridePrinterModels,1
;   printerModelsOverride
;   startingGcode,G28 X0 Y0 ; home X and Y axes,G29 ; probe z,M201 X1000 Y1000 ; acceleration settings
;   layerChangeGcode,
;   retractionGcode,
;   toolChangeGcode,
;   endingGcode,M104 S0 T0 ; turn off extruder,M140 S0 T1 ; turn off bed,G28 X0 Y0 ; home,M84 ; disable motors
;   createX3G,0
;   celebration,0
;   celebrationSong,Random Song
;   createMB5G,0
;   postProcessing,
;   defaultSpeed,3300
;   outlineUnderspeed,0.8
;   solidInfillUnderspeed,0.8
;   supportUnderspeed,0.8
;   rapidXYspeed,4800
;   rapidZspeed,1002
;   minBridgingArea,50
;   bridgingExtraInflation,0
;   bridgingExtrusionMultiplier,1
;   bridgingSpeedMultiplier,0.8
;   filamentDiameter,1.74
;   filamentPricePerKg,22
;   filamentDensity,1.25
;   useMinPrintHeight,0
;   minPrintHeight,0
;   useMaxPrintHeight,0
;   maxPrintHeight,0
;   useDiaphragm,0
;   diaphragmLayerInterval,20
;   robustSlicing,1
;   mergeAllIntoSolid,0
;   onlyRetractWhenCrossingOutline,1
;   retractBetweenLayers,1
;   useRetractionMinTravel,0
;   retractionMinTravel,3
;   retractWhileWiping,0
;   onlyWipeOutlines,1
;   avoidCrossingOutline,0
;   maxMovementDetourFactor,3
;   toolChangeRetractionDistance,12
;   toolChangeExtraRestartDistance,-0.5
;   toolChangeRetractionSpeed,600
;   allowThinWallGapFill,1
;   thinWallAllowedOverlapPercentage,10
;   horizontalSizeCompensation,0
G90
M82
M106 S0
M140 S70
M190 S70
M104 S210 T0
M109 S210 T0
G28 X0 Y0 ; home X and Y axes
G29 ; probe z
M201 X1000 Y1000 ; acceleration settings
G92 E0
G1 E-1.5000 F1800
G1 Z0.120 F1002
; layer 1, Z = 0.12
T0
; tool H0.200 W0.400
; skirt
G1 X46.318 Y38.630 F4800
G1 E0.1000 F540
G92 E0
G1 X46.344 Y38.599 E0.0013 F1650
G1 X47.543 Y37.223 E0.0628
G1 X47.570 Y37.194 E0.0641
G1 X47.749 Y37.006 E0.0728
G1 X47.777 Y36.977 E0.0742
G1 X48.868 Y35.929 E0.1251
G1 X48.897 Y35.902 E0.1264
G1 X49.092 Y35.731 E0.1351
G1 X49.122 Y35.705 E0.1365
G1 X50.545 Y34.561 E0.1979
G1 X50.576 Y34.537 E0.1992
G1 X50.785 Y34.383 E0.2080
G1 X50.818 Y34.360 E0.2093
G1 X52.051 Y33.535 E0.2592
G1 X52.077 Y33.519 E0.2602
G1 X52.249 Y33.412 E0.2671
G1 X52.275 Y33.396 E0.2681
G1 X53.267 Y32.827 E0.3065
G1 X53.294 Y32.813 E0.3076
G1 X53.472 Y32.718 E0.3144
G1 X53.500 Y32.704 E0.3154
G1 X54.834 Y32.056 E0.3653
G1 X54.870 Y32.039 E0.3666
G1 X55.108 Y31.936 E0.3754
G1 X55.145 Y31.921 E0.3767
G1 X56.851 Y31.271 E0.4381
G1 X56.888 Y31.257 E0.4395
G1 X57.135 Y31.176 E0.4482
G1 X57.172 Y31.164 E0.4495
G1 X58.614 Y30.755 E0.4999
G1 X58.648 Y30.746 E0.5011
G1 X58.872 Y30.692 E0.5089
G1 X58.907 Y30.685 E0.5101
G1 X60.362 Y30.393 E0.5600
G1 X60.396 Y30.387 E0.5612
G1 X60.624 Y30.350 E0.5690
G1 X60.659 Y30.345 E0.5701
G1 X62.132 Y30.168 E0.6201
G1 X62.168 Y30.165 E0.6212
G1 X62.398 Y30.146 E0.6290
G1 X62.433 Y30.144 E0.6302
G1 X63.915 Y30.083 E0.6801
G1 X63.951 Y30.082 E0.6813
G1 X64.182 Y30.082 E0.6891
G1 X64.217 Y30.082 E0.6903
G1 X65.714 Y30.138 E0.7407
G1 X65.754 Y30.140 E0.7420
G1 X66.013 Y30.161 E0.7507
G1 X66.052 Y30.165 E0.7521
G1 X67.863 Y30.393 E0.8135
G1 X67.903 Y30.399 E0.8148
G1 X68.159 Y30.443 E0.8236
G1 X68.198 Y30.450 E0.8249
G1 X69.563 Y30.746 E0.8719
G1 X73.045 Y27.264 E1.0376
G1 X73.706 Y26.990 E1.0617
G1 X78.564 Y26.990 E1.2251
G1 X79.226 Y27.264 E1.2492
G1 X89.732 Y37.770 E1.7491
G1 X90.006 Y38.432 E1.7732
G1 X90.006 Y43.290 E1.9366
G1 X89.732 Y43.952 E1.9607
G1 X86.249 Y47.434 E2.1264
G1 X86.532 Y48.722 E2.1708
G1 X86.538 Y48.756 E2.1719
G1 X86.579 Y48.981 E2.1796
G1 X86.584 Y49.015 E2.1808
G1 X86.786 Y50.467 E2.2301
G1 X86.790 Y50.501 E2.2313
G1 X86.813 Y50.729 E2.2390
G1 X86.816 Y50.764 E2.2401
G1 X86.905 Y52.230 E2.2895
G1 X86.906 Y52.265 E2.2907
G1 X86.911 Y52.493 E2.2984
G1 X86.911 Y52.528 E2.2996
G1 X86.887 Y53.996 E2.3490
G1 X86.886 Y54.031 E2.3501
G1 X86.873 Y54.259 E2.3578
G1 X86.870 Y54.294 E2.3590
G1 X86.733 Y55.755 E2.4084
G1 X86.729 Y55.789 E2.4096
G1 X86.698 Y56.016 E2.4172
G1 X86.693 Y56.050 E2.4184
G1 X86.442 Y57.496 E2.4678
G1 X86.436 Y57.531 E2.4690
G1 X86.388 Y57.754 E2.4766
G1 X86.380 Y57.788 E2.4778
G1 X86.018 Y59.210 E2.5272
G1 X86.009 Y59.244 E2.5284
G1 X85.944 Y59.463 E2.5361
G1 X85.934 Y59.496 E2.5372
G1 X85.458 Y60.900 E2.5871
G1 X85.445 Y60.937 E2.5884
G1 X85.352 Y61.176 E2.5971
G1 X85.337 Y61.212 E2.5984
G1 X84.611 Y62.866 E2.6591
G1 X84.595 Y62.901 E2.6604
G1 X84.481 Y63.132 E2.6691
G1 X84.463 Y63.167 E2.6704
G1 X83.798 Y64.382 E2.7170
G1 X86.770 Y64.382 E2.8170
G1 X87.432 Y64.656 E2.8411
G1 X90.867 Y68.091 E3.0045
G1 X91.141 Y68.753 E3.0286
G1 X91.141 Y75.698 E3.2623
G1 X90.867 Y76.360 E3.2864
G1 X87.432 Y79.795 E3.4498
G1 X86.770 Y80.069 E3.4739
G1 X81.941 Y80.069 E3.6364
G1 X81.941 Y83.794 E3.7617
G1 X86.770 Y83.794 E3.9242
G1 X87.432 Y84.068 E3.9483
G1 X90.867 Y87.504 E4.1117
G1 X91.141 Y88.165 E4.1358
G1 X91.141 Y95.111 E4.3695
G1 X90.867 Y95.772 E4.3936
G1 X87.432 Y99.208 E4.5570
G1 X86.770 Y99.482 E4.5811
G1 X79.300 Y99.482 E4.8325
G1 X79.300 Y102.111 E4.9209
G1 X79.026 Y102.772 E4.9450
G1 X77.217 Y104.582 E5.0311
G1 X92.200 Y104.582 E5.5352
G1 X92.200 Y95.253 E5.8490
G1 X92.474 Y94.591 E5.8731
G1 X95.909 Y91.156 E6.0366
G1 X96.571 Y90.882 E6.0607
G1 X115.429 Y90.882 E6.6951
G1 X116.091 Y91.156 E6.7192
G1 X119.526 Y94.591 E6.8827
G1 X119.800 Y95.253 E6.9068
G1 X119.800 Y102.111 E7.1375
G1 X119.526 Y102.772 E7.1616
G1 X116.091 Y106.208 E7.3250
G1 X115.429 Y106.482 E7.3491
G1 X108.143 Y106.482 E7.5943
G1 X108.222 Y106.710 E7.6024
G1 X108.331 Y106.952 E7.6113
G1 X108.469 Y107.213 E7.6213
G1 X109.449 Y108.760 E7.6829
G1 X109.493 Y108.839 E7.6859
G1 X109.759 Y109.369 E7.7059
G1 X109.795 Y109.452 E7.7089
G1 X110.182 Y110.470 E7.7455
G1 X110.210 Y110.555 E7.7486
G1 X110.363 Y111.122 E7.7683
G1 X110.382 Y111.209 E7.7713
G1 X110.580 Y112.403 E7.8120
G1 X110.591 Y112.492 E7.8150
G1 X110.629 Y113.078 E7.8348
G1 X110.630 Y113.167 E7.8378
G1 X110.596 Y114.187 E7.8721
G1 X110.590 Y114.256 E7.8745
G1 X110.540 Y114.710 E7.8898
G1 X110.529 Y114.779 E7.8922
G1 X110.380 Y115.563 E7.9190
G1 X110.366 Y115.621 E7.9210
G1 X110.268 Y115.999 E7.9342
G1 X110.251 Y116.056 E7.9362
G1 X109.999 Y116.814 E7.9630
G1 X109.974 Y116.879 E7.9654
G1 X109.797 Y117.299 E7.9807
G1 X109.768 Y117.362 E7.9831
G1 X109.330 Y118.212 E8.0152
G1 X109.296 Y118.272 E8.0175
G1 X109.057 Y118.660 E8.0329
G1 X109.018 Y118.718 E8.0352
G1 X108.528 Y119.389 E8.0632
G1 X108.485 Y119.444 E8.0655
G1 X108.188 Y119.790 E8.0809
G1 X108.141 Y119.841 E8.0832
G1 X107.466 Y120.517 E8.1154
G1 X107.415 Y120.565 E8.1177
G1 X107.068 Y120.862 E8.1330
G1 X107.014 Y120.905 E8.1354
G1 X106.343 Y121.395 E8.1633
G1 X106.285 Y121.434 E8.1657
G1 X105.897 Y121.674 E8.1810
G1 X105.837 Y121.708 E8.1834
G1 X104.959 Y122.161 E8.2166
G1 X104.887 Y122.195 E8.2193
G1 X104.404 Y122.392 E8.2368
G1 X104.329 Y122.419 E8.2395
G1 X103.354 Y122.720 E8.2738
G1 X103.277 Y122.741 E8.2765
G1 X102.767 Y122.850 E8.2941
G1 X102.689 Y122.863 E8.2967
G1 X101.709 Y122.985 E8.3300
G1 X101.639 Y122.991 E8.3323
G1 X101.183 Y123.012 E8.3477
G1 X101.114 Y123.012 E8.3500
G1 X100.283 Y122.986 E8.3780
G1 X100.214 Y122.981 E8.3803
G1 X99.760 Y122.932 E8.3957
G1 X99.691 Y122.922 E8.3980
G1 X98.688 Y122.733 E8.4323
G1 X98.601 Y122.712 E8.4353
G1 X98.038 Y122.547 E8.4551
G1 X97.954 Y122.518 E8.4581
G1 X96.849 Y122.070 E8.4982
G1 X96.773 Y122.035 E8.5010
G1 X96.284 Y121.782 E8.5195
G1 X96.212 Y121.740 E8.5223
G1 X94.816 Y120.843 E8.5782
G1 X94.573 Y120.714 E8.5874
G1 X94.298 Y120.591 E8.5975
G1 X93.807 Y120.413 E8.6151
G1 X93.516 Y120.332 E8.6253
G1 X93.185 Y120.263 E8.6366
G1 X92.924 Y120.226 E8.6455
G1 X92.111 Y120.182 E8.6729
G1 X75.071 Y120.182 E9.2462
G1 X74.409 Y119.908 E9.2703
G1 X70.974 Y116.472 E9.4338
G1 X70.700 Y115.811 E9.4578
G1 X70.700 Y108.953 E9.6886
G1 X70.974 Y108.291 E9.7127
G1 X72.783 Y106.482 E9.7988
G1 X67.643 Y106.482 E9.9717
G1 X67.722 Y106.710 E9.9798
G1 X67.831 Y106.952 E9.9888
G1 X67.969 Y107.213 E9.9987
G1 X68.949 Y108.760 E10.0603
G1 X68.993 Y108.839 E10.0633
G1 X69.259 Y109.369 E10.0833
G1 X69.295 Y109.452 E10.0863
G1 X69.682 Y110.470 E10.1230
G1 X69.710 Y110.555 E10.1260
G1 X69.863 Y111.122 E10.1457
G1 X69.882 Y111.209 E10.1487
G1 X70.080 Y112.403 E10.1895
G1 X70.091 Y112.492 E10.1925
G1 X70.129 Y113.078 E10.2122
G1 X70.130 Y113.167 E10.2152
G1 X70.096 Y114.187 E10.2496
G1 X70.090 Y114.256 E10.2519
G1 X70.040 Y114.710 E10.2672
G1 X70.029 Y114.779 E10.2696
G1 X69.880 Y115.563 E10.2964
G1 X69.866 Y115.621 E10.2984
G1 X69.768 Y115.999 E10.3116
G1 X69.751 Y116.056 E10.3136
G1 X69.499 Y116.814 E10.3405
G1 X69.474 Y116.879 E10.3428
G1 X69.297 Y117.299 E10.3582
G1 X69.268 Y117.362 E10.3605
G1 X68.830 Y118.212 E10.3926
G1 X68.796 Y118.272 E10.3950
G1 X68.557 Y118.660 E10.4103
G1 X68.518 Y118.718 E10.4127
G1 X68.028 Y119.389 E10.4406
G1 X67.985 Y119.444 E10.4430
G1 X67.688 Y119.790 E10.4583
G1 X67.641 Y119.841 E10.4606
G1 X66.966 Y120.517 E10.4928
G1 X66.915 Y120.565 E10.4951
G1 X66.568 Y120.862 E10.5105
G1 X66.514 Y120.905 E10.5128
G1 X65.843 Y121.395 E10.5408
G1 X65.785 Y121.434 E10.5431
G1 X65.397 Y121.674 E10.5585
G1 X65.337 Y121.708 E10.5608
G1 X64.459 Y122.161 E10.5940
G1 X64.387 Y122.195 E10.5967
G1 X63.904 Y122.392 E10.6143
G1 X63.829 Y122.419 E10.6169
G1 X62.854 Y122.720 E10.6513
G1 X62.777 Y122.741 E10.6539
G1 X62.267 Y122.850 E10.6715
G1 X62.189 Y122.863 E10.6742
G1 X61.209 Y122.985 E10.7074
G1 X61.139 Y122.991 E10.7097
G1 X60.683 Y123.012 E10.7251
G1 X60.614 Y123.012 E10.7274
G1 X59.783 Y122.986 E10.7554
G1 X59.714 Y122.981 E10.7577
G1 X59.260 Y122.932 E10.7731
G1 X59.191 Y122.922 E10.7754
G1 X58.188 Y122.733 E10.8098
G1 X58.101 Y122.712 E10.8128
G1 X57.538 Y122.547 E10.8325
G1 X57.454 Y122.518 E10.8355
G1 X56.349 Y122.070 E10.8756
G1 X56.273 Y122.035 E10.8784
G1 X55.784 Y121.782 E10.8970
G1 X55.712 Y121.740 E10.8998
G1 X54.316 Y120.843 E10.9556
G1 X54.073 Y120.714 E10.9648
G1 X53.798 Y120.591 E10.9750
G1 X53.307 Y120.413 E10.9926
G1 X53.016 Y120.332 E11.0027
G1 X52.685 Y120.263 E11.0141
G1 X52.424 Y120.226 E11.0230
G1 X51.611 Y120.182 E11.0504
G1 X34.571 Y120.182 E11.6236
G1 X33.909 Y119.908 E11.6477
G1 X30.474 Y116.472 E11.8112
G1 X30.200 Y115.811 E11.8353
G1 X30.200 Y108.953 E12.0660
G1 X30.474 Y108.291 E12.0901
G1 X33.909 Y104.856 E12.2536
G1 X34.571 Y104.582 E12.2776
G1 X51.700 Y104.582 E12.8539
G1 X51.700 Y99.482 E13.0255
G1 X34.572 Y99.482 E13.6018
G1 X33.910 Y99.208 E13.6259
G1 X30.475 Y95.772 E13.7893
G1 X30.201 Y95.111 E13.8134
G1 X30.201 Y68.151 E14.7204
G1 X30.475 Y67.489 E14.7445
G1 X33.910 Y64.054 E14.9080
G1 X34.571 Y63.780 E14.9321
G1 X38.223 Y63.780 E15.0549
G1 X38.223 Y62.473 E15.0988
G1 X38.497 Y61.812 E15.1229
G1 X41.977 Y58.331 E15.2885
G1 X41.967 Y58.295 E15.2898
G1 X41.959 Y58.265 E15.2908
G1 X41.912 Y58.069 E15.2977
G1 X41.905 Y58.039 E15.2987
G1 X41.675 Y56.920 E15.3371
G1 X41.669 Y56.890 E15.3381
G1 X41.635 Y56.691 E15.3449
G1 X41.630 Y56.660 E15.3460
G1 X41.433 Y55.204 E15.3954
G1 X41.429 Y55.169 E15.3966
G1 X41.407 Y54.939 E15.4044
G1 X41.404 Y54.904 E15.4056
G1 X41.321 Y53.423 E15.4555
G1 X41.320 Y53.387 E15.4567
G1 X41.316 Y53.156 E15.4644
G1 X41.316 Y53.121 E15.4656
G1 X41.349 Y51.638 E15.5155
G1 X41.350 Y51.603 E15.5167
G1 X41.364 Y51.372 E15.5245
G1 X41.367 Y51.337 E15.5257
G1 X41.514 Y49.875 E15.5751
G1 X41.518 Y49.844 E15.5761
G1 X41.545 Y49.644 E15.5829
G1 X41.550 Y49.614 E15.5840
G1 X41.742 Y48.488 E15.6224
G1 X41.747 Y48.458 E15.6234
G1 X41.788 Y48.260 E15.6302
G1 X41.795 Y48.230 E15.6313
G1 X42.140 Y46.802 E15.6807
G1 X42.149 Y46.768 E15.6819
G1 X42.212 Y46.545 E15.6897
G1 X42.223 Y46.512 E15.6908
G1 X42.683 Y45.101 E15.7408
G1 X42.695 Y45.068 E15.7419
G1 X42.775 Y44.851 E15.7497
G1 X42.788 Y44.819 E15.7509
G1 X43.352 Y43.462 E15.8003
G1 X43.364 Y43.434 E15.8014
G1 X43.448 Y43.250 E15.8082
G1 X43.462 Y43.222 E15.8092
G1 X43.978 Y42.187 E15.8481
G1 X43.994 Y42.156 E15.8493
G1 X44.105 Y41.953 E15.8571
G1 X44.123 Y41.923 E15.8583
G1 X45.055 Y40.370 E15.9192
G1 X45.076 Y40.337 E15.9205
G1 X45.220 Y40.120 E15.9293
G1 X45.242 Y40.087 E15.9306
G1 X46.132 Y38.864 E15.9815
G1 X46.156 Y38.833 E15.9828
G1 X46.318 Y38.630 E15.9916
G1 X46.648 Y38.859 F4800
G92 E0
G1 X47.842 Y37.489 E0.0611 F1650
G1 X47.863 Y37.466 E0.0622
G1 X48.036 Y37.285 E0.0706
G1 X48.058 Y37.263 E0.0716
