; G-Code generated by Simplify3D(R) Version 3.0.2
; Oct 29, 2015 at 9:31:18 AM
; Settings Summary
;   processName,Process1
;   applyToModels,Chain_Guide_Hold_Down
;   profileName,PrinterBot Simple Metal Custom (modified)
;   profileVersion,2015-05-01 08:00:00
;   baseProfile,Default (modified)
;   printMaterial,PLA
;   printQuality,Medium
;   printExtruders,
;   extruderName,Primary Extruder
;   extruderToolheadNumber,0
;   extruderDiameter,0.4
;   extruderAutoWidth,0
;   extruderWidth,0.4
;   extrusionMultiplier,1
;   extruderUseRetract,1
;   extruderRetractionDistance,1.5
;   extruderExtraRestartDistance,0.1
;   extruderRetractionZLift,0
;   extruderRetractionSpeed,1800
;   extruderUseCoasting,0
;   extruderCoastingDistance,0.2
;   extruderUseWipe,0
;   extruderWipeDistance,5
;   primaryExtruder,0
;   layerHeight,0.2
;   topSolidLayers,3
;   bottomSolidLayers,3
;   perimeterOutlines,2
;   printPerimetersInsideOut,1
;   startPointOption,2
;   startPointOriginX,0
;   startPointOriginY,0
;   startPointOriginZ,300
;   sequentialIslands,0
;   spiralVaseMode,0
;   firstLayerHeightPercentage,60
;   firstLayerWidthPercentage,100
;   firstLayerUnderspeed,0.5
;   useRaft,0
;   raftExtruder,0
;   raftLayers,3
;   raftOffset,3
;   raftSeparationDistance,0.14
;   raftInfill,85
;   disableRaftBaseLayers,0
;   useSkirt,1
;   skirtExtruder,0
;   skirtLayers,1
;   skirtOutlines,5
;   skirtOffset,5
;   usePrimePillar,0
;   primePillarExtruder,999
;   primePillarWidth,12
;   primePillarLocation,7
;   primePillarSpeedMultiplier,1
;   useOozeShield,0
;   oozeShieldExtruder,999
;   oozeShieldOffset,2
;   oozeShieldOutlines,1
;   oozeShieldSidewallShape,1
;   oozeShieldSidewallAngle,30
;   oozeShieldSpeedMultiplier,1
;   infillExtruder,0
;   internalInfillPattern,Rectilinear
;   externalInfillPattern,Rectilinear
;   infillPercentage,25
;   outlineOverlapPercentage,15
;   infillExtrusionWidthPercentage,100
;   minInfillLength,5
;   infillLayerInterval,1
;   infillAngles,45,-45
;   overlapInfillAngles,0
;   generateSupport,1
;   supportExtruder,0
;   supportInfillPercentage,30
;   supportExtraInflation,0.4
;   denseSupportLayers,0
;   denseSupportInfillPercentage,70
;   supportLayerInterval,1
;   supportHorizontalPartOffset,0.3
;   supportUpperSeparationLayers,1
;   supportLowerSeparationLayers,1
;   supportType,0
;   supportGridSpacing,4
;   maxOverhangAngle,45
;   supportAngles,0
;   temperatureName,Primary Extruder,Heated Bed
;   temperatureNumber,0,1
;   temperatureSetpointCount,2,3
;   temperatureSetpointLayers,1,2,1,2,3
;   temperatureSetpointTemperatures,210,200,70,65,63
;   temperatureStabilizeAtStartup,1,1
;   temperatureHeatedBed,0,1
;   temperatureRelayBetweenLayers,0,0
;   temperatureRelayBetweenLoops,0,0
;   fanLayers,1,2,3
;   fanSpeeds,0,0,100
;   blipFanToFullPower,1
;   adjustSpeedForCooling,1
;   minSpeedLayerTime,15
;   minCoolingSpeedSlowdown,20
;   increaseFanForCooling,0
;   minFanLayerTime,45
;   maxCoolingFanSpeed,100
;   increaseFanForBridging,0
;   bridgingFanSpeed,100
;   use5D,1
;   relativeEdistances,0
;   allowEaxisZeroing,1
;   independentExtruderAxes,0
;   includeM10123,0
;   stickySupport,1
;   applyToolheadOffsets,0
;   gcodeXoffset,0
;   gcodeYoffset,0
;   gcodeZoffset,0
;   overrideMachineDefinition,1
;   machineTypeOverride,0
;   strokeXoverride,150
;   strokeYoverride,150
;   strokeZoverride,150
;   originOffsetXoverride,0
;   originOffsetYoverride,0
;   originOffsetZoverride,0
;   homeXdirOverride,-1
;   homeYdirOverride,-1
;   homeZdirOverride,-1
;   flipXoverride,1
;   flipYoverride,-1
;   flipZoverride,1
;   toolheadOffsets,0,0|0,0|0,0|0,0|0,0|0,0
;   overrideFirmwareConfiguration,1
;   firmwareTypeOverride,RepRap (Marlin/Repetier/Sprinter)
;   GPXconfigOverride,r2
;   baudRateOverride,250000
;   overridePrinterModels,1
;   printerModelsOverride
;   startingGcode,G28 X0 Y0 ; home X and Y axes,G29 ; probe z,M201 X1000 Y1000 ; acceleration settings
;   layerChangeGcode,
;   retractionGcode,
;   toolChangeGcode,
;   endingGcode,M104 S0 T0 ; turn off extruder,M140 S0 T1 ; turn off bed,G28 X0 Y0 ; home,M84 ; disable motors
;   createX3G,0
;   celebration,0
;   celebrationSong,Random Song
;   createMB5G,0
;   postProcessing,
;   defaultSpeed,3300
;   outlineUnderspeed,0.8
;   solidInfillUnderspeed,0.8
;   supportUnderspeed,0.8
;   rapidXYspeed,4800
;   rapidZspeed,1002
;   minBridgingArea,50
;   bridgingExtraInflation,0
;   bridgingExtrusionMultiplier,1
;   bridgingSpeedMultiplier,0.8
;   filamentDiameter,1.74
;   filamentPricePerKg,22
;   filamentDensity,1.25
;   useMinPrintHeight,0
;   minPrintHeight,0
;   useMaxPrintHeight,0
;   maxPrintHeight,0
;   useDiaphragm,0
;   diaphragmLayerInterval,20
;   robustSlicing,1
;   mergeAllIntoSolid,0
;   onlyRetractWhenCrossingOutline,1
;   retractBetweenLayers,1
;   useRetractionMinTravel,0
;   retractionMinTravel,3
;   retractWhileWiping,0
;   onlyWipeOutlines,1
;   avoidCrossingOutline,0
;   maxMovementDetourFactor,3
;   toolChangeRetractionDistance,12
;   toolChangeExtraRestartDistance,-0.5
;   toolChangeRetractionSpeed,600
;   allowThinWallGapFill,1
;   thinWallAllowedOverlapPercentage,10
;   horizontalSizeCompensation,0
G90
M82
M106 S0
M140 S70
M190 S70
M104 S210 T0
M109 S210 T0
G28 X0 Y0 ; home X and Y axes
G29 ; probe z
M201 X1000 Y1000 ; acceleration settings
G92 E0
G1 E-1.5000 F1800
G1 Z0.120 F1002
; layer 1, Z = 0.12
T0
; tool H0.200 W0.400
; skirt
G1 X48.158 Y61.638 F4800
G1 E0.1000 F540
G92 E0
G1 X48.834 Y61.350 E0.0247 F1650
G1 X101.100 Y61.350 E1.7831
G1 X101.761 Y61.624 E1.8072
G1 X105.197 Y65.059 E1.9707
G1 X105.471 Y65.721 E1.9948
G1 X105.471 Y84.279 E2.6191
G1 X105.197 Y84.941 E2.6432
G1 X101.761 Y88.376 E2.8067
G1 X101.100 Y88.650 E2.8308
G1 X64.967 Y88.650 E4.0464
G1 X64.949 Y88.650 E4.0470
G1 X64.832 Y88.647 E4.0509
G1 X64.815 Y88.647 E4.0515
G1 X63.567 Y88.598 E4.0935
G1 X63.532 Y88.595 E4.0947
G1 X63.301 Y88.577 E4.1025
G1 X63.266 Y88.574 E4.1037
G1 X61.967 Y88.420 E4.1477
G1 X61.932 Y88.415 E4.1489
G1 X61.704 Y88.379 E4.1567
G1 X61.669 Y88.372 E4.1578
G1 X60.415 Y88.123 E4.2009
G1 X60.389 Y88.117 E4.2017
G1 X60.220 Y88.078 E4.2076
G1 X60.194 Y88.072 E4.2085
G1 X59.505 Y87.892 E4.2324
G1 X59.480 Y87.885 E4.2333
G1 X59.313 Y87.836 E4.2392
G1 X59.288 Y87.828 E4.2401
G1 X58.072 Y87.433 E4.2831
G1 X58.038 Y87.421 E4.2843
G1 X57.821 Y87.341 E4.2921
G1 X57.788 Y87.328 E4.2932
G1 X56.580 Y86.828 E4.3372
G1 X56.548 Y86.814 E4.3384
G1 X56.338 Y86.716 E4.3462
G1 X56.306 Y86.701 E4.3474
G1 X55.141 Y86.107 E4.3914
G1 X55.110 Y86.091 E4.3926
G1 X54.908 Y85.977 E4.4004
G1 X54.877 Y85.959 E4.4016
G1 X53.763 Y85.276 E4.4456
G1 X53.733 Y85.257 E4.4467
G1 X53.540 Y85.128 E4.4545
G1 X53.511 Y85.108 E4.4557
G1 X52.454 Y84.339 E4.4997
G1 X52.425 Y84.318 E4.5009
G1 X52.243 Y84.174 E4.5087
G1 X52.216 Y84.152 E4.5099
G1 X51.222 Y83.303 E4.5539
G1 X51.196 Y83.279 E4.5551
G1 X51.026 Y83.122 E4.5629
G1 X51.000 Y83.097 E4.5641
G1 X50.076 Y82.173 E4.6080
G1 X50.051 Y82.147 E4.6092
G1 X49.894 Y81.977 E4.6170
G1 X49.871 Y81.951 E4.6182
G1 X49.022 Y80.956 E4.6622
G1 X48.999 Y80.929 E4.6634
G1 X48.856 Y80.747 E4.6712
G1 X48.835 Y80.719 E4.6724
G1 X48.066 Y79.661 E4.7164
G1 X48.046 Y79.632 E4.7175
G1 X47.917 Y79.439 E4.7253
G1 X47.898 Y79.409 E4.7265
G1 X47.216 Y78.294 E4.7705
G1 X47.198 Y78.264 E4.7717
G1 X47.084 Y78.062 E4.7795
G1 X47.068 Y78.030 E4.7807
G1 X46.488 Y76.891 E4.8237
G1 X46.476 Y76.867 E4.8246
G1 X46.402 Y76.710 E4.8304
G1 X46.391 Y76.686 E4.8313
G1 X46.106 Y76.034 E4.8553
G1 X46.096 Y76.010 E4.8562
G1 X46.031 Y75.849 E4.8620
G1 X46.021 Y75.825 E4.8629
G1 X45.581 Y74.630 E4.9057
G1 X45.569 Y74.596 E4.9069
G1 X45.497 Y74.376 E4.9147
G1 X45.487 Y74.342 E4.9159
G1 X45.131 Y73.079 E4.9601
G1 X45.122 Y73.045 E4.9612
G1 X45.068 Y72.819 E4.9691
G1 X45.060 Y72.784 E4.9702
G1 X44.806 Y71.502 E5.0142
G1 X44.799 Y71.467 E5.0154
G1 X44.763 Y71.238 E5.0232
G1 X44.758 Y71.203 E5.0244
G1 X44.605 Y69.906 E5.0684
G1 X44.601 Y69.870 E5.0696
G1 X44.583 Y69.640 E5.0773
G1 X44.581 Y69.604 E5.0785
G1 X44.437 Y65.922 E5.2025
G1 X44.698 Y65.236 E5.2272
G1 X48.158 Y61.638 E5.3952
G1 X48.390 Y61.974 F4800
G92 E0
G1 X48.915 Y61.750 E0.0192 F1650
G1 X101.020 Y61.750 E1.7722
G1 X101.535 Y61.963 E1.7910
G1 X104.857 Y65.286 E1.9490
G1 X105.071 Y65.800 E1.9678
G1 X105.071 Y84.200 E2.5868
G1 X104.857 Y84.714 E2.6055
G1 X101.535 Y88.037 E2.7636
G1 X101.020 Y88.250 E2.7824
G1 X64.969 Y88.250 E3.9953
G1 X64.955 Y88.250 E3.9957
G1 X64.842 Y88.248 E3.9995
G1 X64.828 Y88.247 E4.0000
G1 X63.587 Y88.198 E4.0418
G1 X63.559 Y88.196 E4.0427
G1 X63.336 Y88.179 E4.0502
G1 X63.309 Y88.176 E4.0512
G1 X62.018 Y88.023 E4.0949
G1 X61.991 Y88.019 E4.0958
G1 X61.770 Y87.984 E4.1033
G1 X61.743 Y87.979 E4.1043
G1 X60.496 Y87.731 E4.1470
G1 X60.476 Y87.727 E4.1477
G1 X60.312 Y87.689 E4.1534
G1 X60.292 Y87.684 E4.1541
G1 X59.609 Y87.506 E4.1778
G1 X59.589 Y87.500 E4.1785
G1 X59.428 Y87.453 E4.1842
G1 X59.409 Y87.447 E4.1849
G1 X58.199 Y87.054 E4.2276
G1 X58.173 Y87.045 E4.2286
G1 X57.963 Y86.967 E4.2361
G1 X57.938 Y86.957 E4.2370
G1 X56.737 Y86.460 E4.2807
G1 X56.712 Y86.449 E4.2817
G1 X56.509 Y86.355 E4.2892
G1 X56.484 Y86.343 E4.2901
G1 X55.326 Y85.753 E4.3338
G1 X55.302 Y85.740 E4.3348
G1 X55.107 Y85.630 E4.3423
G1 X55.083 Y85.616 E4.3432
G1 X53.975 Y84.937 E4.3870
G1 X53.952 Y84.922 E4.3879
G1 X53.766 Y84.798 E4.3954
G1 X53.743 Y84.782 E4.3963
G1 X52.692 Y84.018 E4.4401
G1 X52.670 Y84.001 E4.4410
G1 X52.494 Y83.863 E4.4485
G1 X52.473 Y83.845 E4.4494
G1 X51.485 Y83.001 E4.4932
G1 X51.464 Y82.983 E4.4941
G1 X51.300 Y82.831 E4.5016
G1 X51.280 Y82.812 E4.5025
G1 X50.362 Y81.893 E4.5463
G1 X50.343 Y81.873 E4.5472
G1 X50.191 Y81.708 E4.5547
G1 X50.172 Y81.688 E4.5556
G1 X49.329 Y80.700 E4.5994
G1 X49.311 Y80.678 E4.6003
G1 X49.173 Y80.502 E4.6078
G1 X49.156 Y80.480 E4.6088
G1 X48.392 Y79.429 E4.6525
G1 X48.377 Y79.406 E4.6534
G1 X48.252 Y79.220 E4.6609
G1 X48.237 Y79.197 E4.6619
G1 X47.559 Y78.089 E4.7056
G1 X47.545 Y78.065 E4.7065
G1 X47.435 Y77.870 E4.7140
G1 X47.422 Y77.845 E4.7150
G1 X46.845 Y76.712 E4.7577
G1 X46.836 Y76.694 E4.7584
G1 X46.765 Y76.542 E4.7641
G1 X46.756 Y76.523 E4.7648
G1 X46.474 Y75.877 E4.7885
G1 X46.466 Y75.858 E4.7892
G1 X46.403 Y75.703 E4.7948
G1 X46.396 Y75.683 E4.7955
G1 X45.957 Y74.495 E4.8381
G1 X45.948 Y74.469 E4.8391
G1 X45.879 Y74.256 E4.8466
G1 X45.871 Y74.229 E4.8475
G1 X45.517 Y72.974 E4.8914
G1 X45.510 Y72.947 E4.8923
G1 X45.458 Y72.729 E4.8999
G1 X45.452 Y72.702 E4.9008
G1 X45.199 Y71.428 E4.9445
G1 X45.194 Y71.401 E4.9455
G1 X45.159 Y71.180 E4.9530
G1 X45.155 Y71.152 E4.9539
G1 X45.003 Y69.863 E4.9976
G1 X45.000 Y69.835 E4.9985
G1 X44.982 Y69.612 E5.0061
G1 X44.981 Y69.585 E5.0070
G1 X44.840 Y65.988 E5.1281
G1 X45.043 Y65.454 E5.1473
G1 X48.390 Y61.974 E5.3098
G1 X48.621 Y62.310 F4800
G92 E0
G1 X48.997 Y62.150 E0.0137 F1650
G1 X100.941 Y62.150 E1.7613
G1 X101.308 Y62.302 E1.7747
G1 X104.518 Y65.512 E1.9274
G1 X104.671 Y65.880 E1.9408
G1 X104.671 Y84.120 E2.5545
G1 X104.518 Y84.488 E2.5678
G1 X101.308 Y87.698 E2.7206
G1 X100.941 Y87.850 E2.7340
G1 X64.971 Y87.850 E3.9441
G1 X64.961 Y87.850 E3.9445
G1 X64.852 Y87.848 E3.9481
G1 X64.842 Y87.847 E3.9484
G1 X63.606 Y87.799 E3.9901
G1 X63.587 Y87.797 E3.9907
G1 X63.372 Y87.780 E3.9980
G1 X63.352 Y87.778 E3.9986
G1 X62.069 Y87.626 E4.0421
G1 X62.050 Y87.624 E4.0428
G1 X61.837 Y87.590 E4.0500
G1 X61.817 Y87.586 E4.0507
G1 X60.577 Y87.339 E4.0932
G1 X60.563 Y87.336 E4.0937
G1 X60.405 Y87.300 E4.0992
G1 X60.390 Y87.296 E4.0997
G1 X59.713 Y87.120 E4.1232
G1 X59.699 Y87.116 E4.1237
G1 X59.544 Y87.070 E4.1292
G1 X59.529 Y87.066 E4.1297
G1 X58.327 Y86.675 E4.1722
G1 X58.308 Y86.668 E4.1729
G1 X58.106 Y86.593 E4.1801
G1 X58.087 Y86.586 E4.1808
G1 X56.894 Y86.092 E4.2243
G1 X56.876 Y86.084 E4.2249
G1 X56.680 Y85.993 E4.2322
G1 X56.662 Y85.985 E4.2328
G1 X55.511 Y85.398 E4.2763
G1 X55.494 Y85.389 E4.2770
G1 X55.306 Y85.283 E4.2842
G1 X55.289 Y85.273 E4.2849
G1 X54.187 Y84.598 E4.3284
G1 X54.171 Y84.588 E4.3290
G1 X53.991 Y84.467 E4.3363
G1 X53.975 Y84.456 E4.3369
G1 X52.930 Y83.697 E4.3804
G1 X52.915 Y83.685 E4.3811
G1 X52.745 Y83.551 E4.3883
G1 X52.730 Y83.539 E4.3890
G1 X51.748 Y82.699 E4.4324
G1 X51.733 Y82.686 E4.4331
G1 X51.575 Y82.540 E4.4404
G1 X51.560 Y82.526 E4.4410
G1 X50.647 Y81.613 E4.4845
G1 X50.634 Y81.598 E4.4852
G1 X50.487 Y81.440 E4.4924
G1 X50.474 Y81.425 E4.4931
G1 X49.635 Y80.443 E4.5365
G1 X49.623 Y80.428 E4.5372
G1 X49.489 Y80.258 E4.5445
G1 X49.477 Y80.242 E4.5451
G1 X48.718 Y79.197 E4.5886
G1 X48.707 Y79.181 E4.5892
G1 X48.587 Y79.001 E4.5965
G1 X48.577 Y78.985 E4.5972
G1 X47.902 Y77.883 E4.6406
G1 X47.892 Y77.866 E4.6413
G1 X47.786 Y77.678 E4.6486
G1 X47.777 Y77.660 E4.6492
G1 X47.203 Y76.533 E4.6918
G1 X47.197 Y76.520 E4.6923
G1 X47.128 Y76.374 E4.6977
G1 X47.121 Y76.360 E4.6982
G1 X46.841 Y75.719 E4.7217
G1 X46.836 Y75.706 E4.7222
G1 X46.775 Y75.556 E4.7277
G1 X46.770 Y75.542 E4.7282
G1 X46.334 Y74.360 E4.7706
G1 X46.327 Y74.341 E4.7712
G1 X46.261 Y74.136 E4.7785
G1 X46.255 Y74.117 E4.7792
G1 X45.903 Y72.869 E4.8228
G1 X45.898 Y72.850 E4.8234
G1 X45.848 Y72.640 E4.8307
G1 X45.843 Y72.621 E4.8314
G1 X45.592 Y71.354 E4.8748
G1 X45.588 Y71.334 E4.8755
G1 X45.555 Y71.121 E4.8828
G1 X45.552 Y71.102 E4.8834
G1 X45.400 Y69.819 E4.9269
G1 X45.398 Y69.800 E4.9275
G1 X45.381 Y69.585 E4.9348
G1 X45.380 Y69.565 E4.9354
G1 X45.243 Y66.054 E5.0537
G1 X45.388 Y65.673 E5.0674
G1 X48.621 Y62.310 E5.2243
G1 X48.853 Y62.646 F4800
G92 E0
G1 X49.078 Y62.550 E0.0082 F1650
G1 X100.861 Y62.550 E1.7504
G1 X101.081 Y62.641 E1.7584
G1 X104.179 Y65.739 E1.9058
G1 X104.271 Y65.960 E1.9138
G1 X104.271 Y84.040 E2.5221
G1 X104.179 Y84.261 E2.5302
G1 X101.081 Y87.359 E2.6776
G1 X100.861 Y87.450 E2.6856
G1 X64.973 Y87.450 E3.8930
G1 X64.967 Y87.450 E3.8932
G1 X64.862 Y87.448 E3.8967
G1 X64.856 Y87.448 E3.8969
G1 X63.626 Y87.399 E3.9383
G1 X63.614 Y87.398 E3.9387
G1 X63.407 Y87.382 E3.9457
G1 X63.395 Y87.381 E3.9461
G1 X62.120 Y87.230 E3.9893
G1 X62.109 Y87.228 E3.9897
G1 X61.903 Y87.195 E3.9967
G1 X61.892 Y87.193 E3.9971
G1 X60.658 Y86.948 E4.0394
G1 X60.649 Y86.946 E4.0397
G1 X60.497 Y86.911 E4.0450
G1 X60.489 Y86.909 E4.0453
G1 X59.817 Y86.733 E4.0686
G1 X59.809 Y86.731 E4.0689
G1 X59.659 Y86.687 E4.0742
G1 X59.650 Y86.684 E4.0745
G1 X58.454 Y86.295 E4.1168
G1 X58.443 Y86.292 E4.1172
G1 X58.248 Y86.220 E4.1242
G1 X58.237 Y86.215 E4.1246
G1 X57.051 Y85.724 E4.1678
G1 X57.040 Y85.719 E4.1682
G1 X56.851 Y85.632 E4.1752
G1 X56.840 Y85.627 E4.1756
G1 X55.697 Y85.043 E4.2188
G1 X55.686 Y85.038 E4.2192
G1 X55.505 Y84.936 E4.2262
G1 X55.494 Y84.930 E4.2266
G1 X54.400 Y84.259 E4.2698
G1 X54.390 Y84.253 E4.2701
G1 X54.217 Y84.137 E4.2772
G1 X54.207 Y84.130 E4.2776
G1 X53.169 Y83.375 E4.3207
G1 X53.159 Y83.368 E4.3211
G1 X52.996 Y83.239 E4.3281
G1 X52.987 Y83.232 E4.3285
G1 X52.011 Y82.398 E4.3717
G1 X52.002 Y82.390 E4.3721
G1 X51.849 Y82.249 E4.3791
G1 X51.841 Y82.241 E4.3795
G1 X50.933 Y81.333 E4.4227
G1 X50.925 Y81.324 E4.4231
G1 X50.784 Y81.171 E4.4301
G1 X50.776 Y81.162 E4.4305
G1 X49.942 Y80.186 E4.4737
G1 X49.935 Y80.177 E4.4741
G1 X49.806 Y80.013 E4.4811
G1 X49.799 Y80.004 E4.4815
G1 X49.044 Y78.965 E4.5247
G1 X49.038 Y78.955 E4.5251
G1 X48.922 Y78.782 E4.5321
G1 X48.916 Y78.772 E4.5325
G1 X48.245 Y77.678 E4.5757
G1 X48.239 Y77.667 E4.5761
G1 X48.137 Y77.486 E4.5831
G1 X48.132 Y77.475 E4.5835
G1 X47.561 Y76.355 E4.6258
G1 X47.557 Y76.347 E4.6261
G1 X47.490 Y76.206 E4.6314
G1 X47.487 Y76.198 E4.6317
G1 X47.209 Y75.562 E4.6550
G1 X47.206 Y75.554 E4.6553
G1 X47.147 Y75.409 E4.6605
G1 X47.144 Y75.401 E4.6608
G1 X46.710 Y74.225 E4.7030
G1 X46.707 Y74.214 E4.7034
G1 X46.642 Y74.016 E4.7104
G1 X46.639 Y74.005 E4.7108
G1 X46.289 Y72.765 E4.7541
G1 X46.286 Y72.753 E4.7545
G1 X46.238 Y72.550 E4.7616
G1 X46.235 Y72.539 E4.7619
G1 X45.985 Y71.280 E4.8051
G1 X45.983 Y71.268 E4.8055
G1 X45.950 Y71.062 E4.8125
G1 X45.949 Y71.051 E4.8129
G1 X45.798 Y69.776 E4.8561
G1 X45.797 Y69.765 E4.8565
G1 X45.781 Y69.557 E4.8635
G1 X45.780 Y69.546 E4.8639
G1 X45.646 Y66.120 E4.9792
G1 X45.733 Y65.891 E4.9875
G1 X48.853 Y62.646 E5.1389
