; G-Code generated by Simplify3D(R) Version 3.0.2
; Oct 27, 2015 at 9:39:31 AM
; Settings Summary
;   processName,Process1
;   applyToModels,Chain_Guide_Brkt_Far_End,Chain_Guide_Brkt
;   profileName,PrinterBot Simple Metal Custom (modified)
;   profileVersion,2015-05-01 08:00:00
;   baseProfile,Default (modified)
;   printMaterial,PLA
;   printQuality,Medium
;   printExtruders,
;   extruderName,Primary Extruder
;   extruderToolheadNumber,0
;   extruderDiameter,0.4
;   extruderAutoWidth,0
;   extruderWidth,0.4
;   extrusionMultiplier,1
;   extruderUseRetract,1
;   extruderRetractionDistance,1.5
;   extruderExtraRestartDistance,0.1
;   extruderRetractionZLift,0
;   extruderRetractionSpeed,1800
;   extruderUseCoasting,0
;   extruderCoastingDistance,0.2
;   extruderUseWipe,0
;   extruderWipeDistance,5
;   primaryExtruder,0
;   layerHeight,0.2
;   topSolidLayers,3
;   bottomSolidLayers,3
;   perimeterOutlines,2
;   printPerimetersInsideOut,1
;   startPointOption,2
;   startPointOriginX,0
;   startPointOriginY,0
;   startPointOriginZ,300
;   sequentialIslands,0
;   spiralVaseMode,0
;   firstLayerHeightPercentage,60
;   firstLayerWidthPercentage,100
;   firstLayerUnderspeed,0.5
;   useRaft,0
;   raftExtruder,0
;   raftLayers,3
;   raftOffset,3
;   raftSeparationDistance,0.14
;   raftInfill,85
;   disableRaftBaseLayers,0
;   useSkirt,1
;   skirtExtruder,0
;   skirtLayers,1
;   skirtOutlines,5
;   skirtOffset,5
;   usePrimePillar,0
;   primePillarExtruder,999
;   primePillarWidth,12
;   primePillarLocation,7
;   primePillarSpeedMultiplier,1
;   useOozeShield,0
;   oozeShieldExtruder,999
;   oozeShieldOffset,2
;   oozeShieldOutlines,1
;   oozeShieldSidewallShape,1
;   oozeShieldSidewallAngle,30
;   oozeShieldSpeedMultiplier,1
;   infillExtruder,0
;   internalInfillPattern,Rectilinear
;   externalInfillPattern,Rectilinear
;   infillPercentage,25
;   outlineOverlapPercentage,15
;   infillExtrusionWidthPercentage,100
;   minInfillLength,5
;   infillLayerInterval,1
;   infillAngles,45,-45
;   overlapInfillAngles,0
;   generateSupport,1
;   supportExtruder,0
;   supportInfillPercentage,30
;   supportExtraInflation,0.4
;   denseSupportLayers,0
;   denseSupportInfillPercentage,70
;   supportLayerInterval,1
;   supportHorizontalPartOffset,0.3
;   supportUpperSeparationLayers,1
;   supportLowerSeparationLayers,1
;   supportType,0
;   supportGridSpacing,4
;   maxOverhangAngle,45
;   supportAngles,0
;   temperatureName,Primary Extruder,Heated Bed
;   temperatureNumber,0,1
;   temperatureSetpointCount,2,3
;   temperatureSetpointLayers,1,2,1,2,3
;   temperatureSetpointTemperatures,210,200,70,65,63
;   temperatureStabilizeAtStartup,1,1
;   temperatureHeatedBed,0,1
;   temperatureRelayBetweenLayers,0,0
;   temperatureRelayBetweenLoops,0,0
;   fanLayers,1,2,3
;   fanSpeeds,0,0,100
;   blipFanToFullPower,1
;   adjustSpeedForCooling,1
;   minSpeedLayerTime,15
;   minCoolingSpeedSlowdown,20
;   increaseFanForCooling,0
;   minFanLayerTime,45
;   maxCoolingFanSpeed,100
;   increaseFanForBridging,0
;   bridgingFanSpeed,100
;   use5D,1
;   relativeEdistances,0
;   allowEaxisZeroing,1
;   independentExtruderAxes,0
;   includeM10123,0
;   stickySupport,1
;   applyToolheadOffsets,0
;   gcodeXoffset,0
;   gcodeYoffset,0
;   gcodeZoffset,0
;   overrideMachineDefinition,1
;   machineTypeOverride,0
;   strokeXoverride,150
;   strokeYoverride,150
;   strokeZoverride,150
;   originOffsetXoverride,0
;   originOffsetYoverride,0
;   originOffsetZoverride,0
;   homeXdirOverride,-1
;   homeYdirOverride,-1
;   homeZdirOverride,-1
;   flipXoverride,1
;   flipYoverride,-1
;   flipZoverride,1
;   toolheadOffsets,0,0|0,0|0,0|0,0|0,0|0,0
;   overrideFirmwareConfiguration,1
;   firmwareTypeOverride,RepRap (Marlin/Repetier/Sprinter)
;   GPXconfigOverride,r2
;   baudRateOverride,250000
;   overridePrinterModels,1
;   printerModelsOverride
;   startingGcode,G28 X0 Y0 ; home X and Y axes,G29 ; probe z,M201 X1000 Y1000 ; acceleration settings
;   layerChangeGcode,
;   retractionGcode,
;   toolChangeGcode,
;   endingGcode,M104 S0 T0 ; turn off extruder,M140 S0 T1 ; turn off bed,G28 X0 Y0 ; home,M84 ; disable motors
;   createX3G,0
;   celebration,0
;   celebrationSong,Random Song
;   createMB5G,0
;   postProcessing,
;   defaultSpeed,3300
;   outlineUnderspeed,0.8
;   solidInfillUnderspeed,0.8
;   supportUnderspeed,0.8
;   rapidXYspeed,4800
;   rapidZspeed,1002
;   minBridgingArea,50
;   bridgingExtraInflation,0
;   bridgingExtrusionMultiplier,1
;   bridgingSpeedMultiplier,0.8
;   filamentDiameter,1.74
;   filamentPricePerKg,22
;   filamentDensity,1.25
;   useMinPrintHeight,0
;   minPrintHeight,0
;   useMaxPrintHeight,0
;   maxPrintHeight,0
;   useDiaphragm,0
;   diaphragmLayerInterval,20
;   robustSlicing,1
;   mergeAllIntoSolid,0
;   onlyRetractWhenCrossingOutline,1
;   retractBetweenLayers,1
;   useRetractionMinTravel,0
;   retractionMinTravel,3
;   retractWhileWiping,0
;   onlyWipeOutlines,1
;   avoidCrossingOutline,0
;   maxMovementDetourFactor,3
;   toolChangeRetractionDistance,12
;   toolChangeExtraRestartDistance,-0.5
;   toolChangeRetractionSpeed,600
;   allowThinWallGapFill,1
;   thinWallAllowedOverlapPercentage,10
;   horizontalSizeCompensation,0
G90
M82
M106 S0
M140 S70
M190 S70
M104 S210 T0
M109 S210 T0
G28 X0 Y0 ; home X and Y axes
G29 ; probe z
M201 X1000 Y1000 ; acceleration settings
G92 E0
G1 E-1.5000 F1800
G1 Z0.120 F1002
; layer 1, Z = 0.12
T0
; tool H0.200 W0.400
; skirt
G1 X51.375 Y47.359 F4800
G1 E0.1000 F540
G92 E0
G1 X52.157 Y46.571 E0.0374 F1650
G1 X52.232 Y46.504 E0.0408
G1 X52.749 Y46.089 E0.0630
G1 X52.831 Y46.030 E0.0664
G1 X53.769 Y45.436 E0.1038
G1 X53.857 Y45.387 E0.1072
G1 X54.453 Y45.098 E0.1295
G1 X54.547 Y45.059 E0.1329
G1 X55.515 Y44.716 E0.1675
G1 X55.588 Y44.694 E0.1700
G1 X56.068 Y44.568 E0.1867
G1 X56.142 Y44.552 E0.1893
G1 X56.849 Y44.430 E0.2134
G1 X56.923 Y44.420 E0.2159
G1 X57.411 Y44.377 E0.2324
G1 X57.486 Y44.373 E0.2349
G1 X61.396 Y44.351 E0.3665
G1 X61.766 Y44.427 E0.3792
G1 X64.056 Y45.429 E0.4633
G1 X64.363 Y45.648 E0.4760
G1 X65.520 Y46.915 E0.5337
G1 X66.157 Y47.543 E0.5638
G1 X66.797 Y48.091 E0.5921
G1 X67.342 Y48.505 E0.6151
G1 X67.874 Y48.869 E0.6368
G1 X68.577 Y49.290 E0.6644
G1 X69.745 Y49.861 E0.7082
G1 X70.770 Y50.252 E0.7450
G1 X71.648 Y50.513 E0.7759
G1 X72.053 Y50.610 E0.7899
G1 X72.451 Y50.690 E0.8035
G1 X73.423 Y50.831 E0.8366
G1 X74.373 Y50.900 E0.8686
G1 X74.769 Y50.906 E0.8819
G1 X75.189 Y50.899 E0.8961
G1 X76.163 Y50.830 E0.9289
G1 X77.051 Y50.703 E0.9591
G1 X77.998 Y50.496 E0.9917
G1 X78.322 Y50.407 E1.0030
G1 X79.254 Y50.097 E1.0361
G1 X80.141 Y49.726 E1.0684
G1 X80.969 Y49.313 E1.0996
G1 X81.793 Y48.812 E1.1320
G1 X82.068 Y48.626 E1.1431
G1 X82.969 Y47.937 E1.1813
G1 X83.422 Y47.538 E1.2016
G1 X85.363 Y45.553 E1.2950
G1 X85.660 Y45.351 E1.3071
G1 X87.852 Y44.429 E1.3871
G1 X88.204 Y44.358 E1.3992
G1 X92.083 Y44.358 E1.5297
G1 X92.108 Y44.358 E1.5305
G1 X92.273 Y44.363 E1.5361
G1 X92.299 Y44.364 E1.5370
G1 X92.759 Y44.390 E1.5525
G1 X92.808 Y44.394 E1.5541
G1 X93.127 Y44.429 E1.5649
G1 X93.175 Y44.436 E1.5666
G1 X93.800 Y44.540 E1.5879
G1 X93.874 Y44.556 E1.5904
G1 X94.355 Y44.678 E1.6071
G1 X94.428 Y44.700 E1.6097
G1 X95.321 Y45.009 E1.6415
G1 X95.391 Y45.036 E1.6440
G1 X95.845 Y45.238 E1.6607
G1 X95.913 Y45.271 E1.6633
G1 X96.545 Y45.618 E1.6875
G1 X96.610 Y45.657 E1.6901
G1 X97.024 Y45.932 E1.7068
G1 X97.085 Y45.976 E1.7093
G1 X97.891 Y46.614 E1.7439
G1 X97.966 Y46.681 E1.7473
G1 X98.436 Y47.148 E1.7696
G1 X98.504 Y47.223 E1.7730
G1 X99.147 Y48.024 E1.8076
G1 X99.192 Y48.085 E1.8101
G1 X99.469 Y48.497 E1.8268
G1 X99.509 Y48.562 E1.8294
G1 X99.820 Y49.119 E1.8508
G1 X99.843 Y49.164 E1.8525
G1 X99.987 Y49.462 E1.8637
G1 X100.008 Y49.508 E1.8654
G1 X100.254 Y50.096 E1.8868
G1 X100.281 Y50.168 E1.8894
G1 X100.433 Y50.641 E1.9061
G1 X100.454 Y50.714 E1.9087
G1 X100.686 Y51.718 E1.9433
G1 X100.704 Y51.819 E1.9468
G1 X100.780 Y52.484 E1.9693
G1 X100.786 Y52.586 E1.9727
G1 X100.802 Y69.810 E2.5522
G1 X100.529 Y70.472 E2.5763
G1 X97.093 Y73.912 E2.7399
G1 X96.431 Y74.186 E2.7640
G1 X91.450 Y74.186 E2.9316
G1 X91.450 Y79.286 E3.1031
G1 X92.145 Y79.286 E3.1265
G1 X92.189 Y79.287 E3.1280
G1 X92.478 Y79.301 E3.1377
G1 X92.522 Y79.304 E3.1392
G1 X93.417 Y79.393 E3.1695
G1 X93.526 Y79.410 E3.1732
G1 X94.234 Y79.569 E3.1976
G1 X94.340 Y79.600 E3.2013
G1 X95.575 Y80.042 E3.2455
G1 X95.677 Y80.085 E3.2492
G1 X96.324 Y80.411 E3.2736
G1 X96.419 Y80.467 E3.2773
G1 X97.288 Y81.047 E3.3124
G1 X97.359 Y81.100 E3.3154
G1 X97.807 Y81.467 E3.3349
G1 X97.872 Y81.527 E3.3378
G1 X98.611 Y82.265 E3.3730
G1 X98.684 Y82.348 E3.3767
G1 X99.130 Y82.919 E3.4011
G1 X99.192 Y83.010 E3.4048
G1 X99.904 Y84.198 E3.4514
G1 X99.964 Y84.316 E3.4558
G1 X100.297 Y85.120 E3.4851
G1 X100.338 Y85.246 E3.4896
G1 X100.674 Y86.588 E3.5361
G1 X100.695 Y86.697 E3.5398
G1 X100.783 Y87.414 E3.5642
G1 X100.790 Y87.524 E3.5679
G1 X100.802 Y104.740 E4.1471
G1 X100.528 Y105.402 E4.1712
G1 X97.092 Y108.840 E4.3347
G1 X96.430 Y109.114 E4.3588
G1 X53.570 Y109.114 E5.8008
G1 X52.908 Y108.840 E5.8249
G1 X49.472 Y105.402 E5.9884
G1 X49.198 Y104.740 E6.0125
G1 X49.210 Y87.524 E6.5917
G1 X49.217 Y87.414 E6.5954
G1 X49.305 Y86.697 E6.6197
G1 X49.326 Y86.588 E6.6234
G1 X49.644 Y85.317 E6.6675
G1 X49.677 Y85.211 E6.6712
G1 X49.938 Y84.535 E6.6956
G1 X49.984 Y84.435 E6.6994
G1 X50.511 Y83.450 E6.7369
G1 X50.569 Y83.356 E6.7406
G1 X50.986 Y82.763 E6.7650
G1 X51.055 Y82.677 E6.7687
G1 X51.985 Y81.651 E6.8153
G1 X52.081 Y81.559 E6.8198
G1 X52.754 Y81.007 E6.8491
G1 X52.862 Y80.931 E6.8535
G1 X54.112 Y80.182 E6.9026
G1 X54.230 Y80.122 E6.9070
G1 X55.034 Y79.789 E6.9363
G1 X55.160 Y79.748 E6.9407
G1 X56.497 Y79.413 E6.9871
G1 X56.604 Y79.393 E6.9908
G1 X57.312 Y79.304 E7.0148
G1 X57.420 Y79.297 E7.0184
G1 X60.850 Y79.283 E7.1338
G1 X60.850 Y74.186 E7.3053
G1 X53.569 Y74.186 E7.5503
G1 X52.908 Y73.912 E7.5744
G1 X49.472 Y70.473 E7.7379
G1 X49.198 Y69.811 E7.7620
G1 X49.212 Y52.693 E8.3379
G1 X49.216 Y52.619 E8.3404
G1 X49.256 Y52.136 E8.3567
G1 X49.265 Y52.063 E8.3592
G1 X49.382 Y51.358 E8.3832
G1 X49.398 Y51.284 E8.3858
G1 X49.520 Y50.802 E8.4025
G1 X49.542 Y50.730 E8.4050
G1 X49.878 Y49.759 E8.4396
G1 X49.916 Y49.665 E8.4430
G1 X50.202 Y49.068 E8.4653
G1 X50.250 Y48.979 E8.4687
G1 X50.838 Y48.037 E8.5061
G1 X50.896 Y47.954 E8.5095
G1 X51.308 Y47.435 E8.5317
G1 X51.375 Y47.359 E8.5351
G1 X51.666 Y47.633 F4800
G92 E0
G1 X52.433 Y46.861 E0.0366 F1650
G1 X52.491 Y46.809 E0.0392
G1 X52.990 Y46.408 E0.0608
G1 X53.054 Y46.362 E0.0634
G1 X53.974 Y45.780 E0.1000
G1 X54.042 Y45.742 E0.1027
G1 X54.618 Y45.462 E0.1242
G1 X54.690 Y45.432 E0.1268
G1 X55.641 Y45.096 E0.1607
G1 X55.697 Y45.079 E0.1627
G1 X56.161 Y44.957 E0.1789
G1 X56.219 Y44.945 E0.1809
G1 X56.909 Y44.825 E0.2044
G1 X56.967 Y44.818 E0.2064
G1 X57.438 Y44.776 E0.2223
G1 X57.496 Y44.773 E0.2243
G1 X61.357 Y44.751 E0.3541
G1 X61.644 Y44.810 E0.3640
G1 X63.857 Y45.778 E0.4453
G1 X64.096 Y45.949 E0.4552
G1 X65.232 Y47.193 E0.5118
G1 X65.887 Y47.838 E0.5428
G1 X66.545 Y48.403 E0.5719
G1 X67.108 Y48.829 E0.5957
G1 X67.658 Y49.205 E0.6181
G1 X68.386 Y49.642 E0.6467
G1 X69.586 Y50.229 E0.6916
G1 X70.641 Y50.631 E0.7296
G1 X71.544 Y50.899 E0.7613
G1 X71.966 Y51.001 E0.7759
G1 X72.382 Y51.084 E0.7902
G1 X73.379 Y51.229 E0.8241
G1 X74.356 Y51.300 E0.8570
G1 X74.769 Y51.306 E0.8709
G1 X75.206 Y51.298 E0.8856
G1 X76.206 Y51.228 E0.9193
G1 X77.122 Y51.097 E0.9505
G1 X78.093 Y50.885 E0.9839
G1 X78.438 Y50.790 E0.9960
G1 X79.395 Y50.471 E1.0299
G1 X80.307 Y50.090 E1.0632
G1 X81.163 Y49.663 E1.0953
G1 X82.008 Y49.149 E1.1286
G1 X82.301 Y48.951 E1.1405
G1 X83.223 Y48.247 E1.1795
G1 X83.698 Y47.828 E1.2008
G1 X85.621 Y45.862 E1.2934
G1 X85.852 Y45.704 E1.3028
G1 X87.970 Y44.813 E1.3801
G1 X88.244 Y44.758 E1.3895
G1 X92.080 Y44.758 E1.5185
G1 X92.100 Y44.758 E1.5192
G1 X92.259 Y44.763 E1.5246
G1 X92.279 Y44.763 E1.5252
G1 X92.731 Y44.789 E1.5405
G1 X92.769 Y44.792 E1.5418
G1 X93.077 Y44.826 E1.5522
G1 X93.115 Y44.831 E1.5535
G1 X93.726 Y44.933 E1.5743
G1 X93.784 Y44.945 E1.5763
G1 X94.249 Y45.064 E1.5924
G1 X94.305 Y45.080 E1.5944
G1 X95.182 Y45.384 E1.6256
G1 X95.237 Y45.405 E1.6276
G1 X95.675 Y45.600 E1.6438
G1 X95.728 Y45.626 E1.6457
G1 X96.345 Y45.965 E1.6694
G1 X96.396 Y45.995 E1.6714
G1 X96.796 Y46.260 E1.6876
G1 X96.844 Y46.295 E1.6895
G1 X97.634 Y46.921 E1.7235
G1 X97.692 Y46.973 E1.7261
G1 X98.147 Y47.424 E1.7476
G1 X98.199 Y47.483 E1.7503
G1 X98.830 Y48.268 E1.7842
G1 X98.865 Y48.316 E1.7862
G1 X99.133 Y48.714 E1.8023
G1 X99.164 Y48.764 E1.8043
G1 X99.467 Y49.309 E1.8253
G1 X99.486 Y49.344 E1.8266
G1 X99.625 Y49.631 E1.8374
G1 X99.641 Y49.667 E1.8387
G1 X99.882 Y50.243 E1.8597
G1 X99.903 Y50.298 E1.8617
G1 X100.050 Y50.755 E1.8778
G1 X100.066 Y50.812 E1.8798
G1 X100.294 Y51.798 E1.9138
G1 X100.308 Y51.876 E1.9165
G1 X100.381 Y52.518 E1.9383
G1 X100.386 Y52.598 E1.9409
G1 X100.402 Y69.731 E2.5174
G1 X100.189 Y70.246 E2.5361
G1 X96.866 Y73.573 E2.6943
G1 X96.351 Y73.786 E2.7131
G1 X91.050 Y73.786 E2.8914
G1 X91.050 Y79.686 E3.0899
G1 X92.140 Y79.686 E3.1266
G1 X92.174 Y79.687 E3.1277
G1 X92.454 Y79.701 E3.1371
G1 X92.488 Y79.703 E3.1383
G1 X93.366 Y79.789 E3.1680
G1 X93.451 Y79.803 E3.1709
G1 X94.134 Y79.957 E3.1944
G1 X94.217 Y79.980 E3.1973
G1 X95.429 Y80.414 E3.2406
G1 X95.508 Y80.448 E3.2435
G1 X96.133 Y80.763 E3.2671
G1 X96.207 Y80.806 E3.2700
G1 X97.057 Y81.374 E3.3044
G1 X97.113 Y81.415 E3.3067
G1 X97.545 Y81.770 E3.3255
G1 X97.596 Y81.816 E3.3278
G1 X98.319 Y82.539 E3.3622
G1 X98.376 Y82.604 E3.3651
G1 X98.807 Y83.156 E3.3887
G1 X98.855 Y83.226 E3.3915
G1 X99.553 Y84.391 E3.4372
G1 X99.600 Y84.483 E3.4407
G1 X99.921 Y85.260 E3.4690
G1 X99.954 Y85.358 E3.4724
G1 X100.283 Y86.674 E3.5181
G1 X100.299 Y86.758 E3.5210
G1 X100.385 Y87.451 E3.5445
G1 X100.390 Y87.536 E3.5473
G1 X100.402 Y104.660 E4.1235
G1 X100.189 Y105.175 E4.1422
G1 X96.865 Y108.501 E4.3004
G1 X96.351 Y108.714 E4.3191
G1 X53.649 Y108.714 E5.7557
G1 X53.135 Y108.501 E5.7745
G1 X49.811 Y105.175 E5.9327
G1 X49.598 Y104.660 E5.9514
G1 X49.610 Y87.536 E6.5275
G1 X49.615 Y87.451 E6.5304
G1 X49.701 Y86.758 E6.5539
G1 X49.717 Y86.674 E6.5568
G1 X50.029 Y85.426 E6.6000
G1 X50.055 Y85.344 E6.6029
G1 X50.307 Y84.691 E6.6265
G1 X50.343 Y84.612 E6.6294
G1 X50.858 Y83.649 E6.6661
G1 X50.903 Y83.576 E6.6690
G1 X51.306 Y83.003 E6.6926
G1 X51.360 Y82.936 E6.6955
G1 X52.271 Y81.930 E6.7412
G1 X52.346 Y81.859 E6.7446
G1 X52.996 Y81.326 E6.7729
G1 X53.080 Y81.267 E6.7764
G1 X54.305 Y80.533 E6.8244
G1 X54.397 Y80.486 E6.8279
G1 X55.174 Y80.165 E6.8562
G1 X55.272 Y80.132 E6.8596
G1 X56.583 Y79.804 E6.9051
G1 X56.666 Y79.788 E6.9080
G1 X57.349 Y79.702 E6.9311
G1 X57.434 Y79.697 E6.9340
G1 X61.250 Y79.682 E7.0624
G1 X61.250 Y73.786 E7.2607
G1 X53.649 Y73.786 E7.5164
G1 X53.134 Y73.573 E7.5352
G1 X49.811 Y70.246 E7.6934
G1 X49.598 Y69.731 E7.7121
G1 X49.612 Y52.701 E8.2851
G1 X49.615 Y52.644 E8.2870
G1 X49.654 Y52.178 E8.3028
G1 X49.661 Y52.121 E8.3047
G1 X49.775 Y51.432 E8.3282
G1 X49.787 Y51.374 E8.3302
G1 X49.906 Y50.909 E8.3463
G1 X49.923 Y50.853 E8.3483
G1 X50.252 Y49.900 E8.3822
G1 X50.282 Y49.828 E8.3848
G1 X50.558 Y49.250 E8.4064
G1 X50.596 Y49.181 E8.4090
G1 X51.171 Y48.258 E8.4456
G1 X51.217 Y48.194 E8.4483
G1 X51.614 Y47.692 E8.4698
G1 X51.666 Y47.633 E8.4724
G1 X51.958 Y47.907 F4800
G92 E0
G1 X52.709 Y47.151 E0.0358 F1650
G1 X52.751 Y47.114 E0.0377
G1 X53.232 Y46.727 E0.0585
G1 X53.278 Y46.694 E0.0604
G1 X54.178 Y46.124 E0.0962
G1 X54.227 Y46.097 E0.0981
G1 X54.783 Y45.827 E0.1189
G1 X54.834 Y45.806 E0.1208
G1 X55.766 Y45.476 E0.1540
G1 X55.806 Y45.464 E0.1555
G1 X56.254 Y45.347 E0.1710
G1 X56.295 Y45.338 E0.1725
G1 X56.969 Y45.221 E0.1955
G1 X57.011 Y45.215 E0.1969
G1 X57.466 Y45.175 E0.2122
G1 X57.507 Y45.173 E0.2136
G1 X61.317 Y45.151 E0.3418
G1 X61.523 Y45.194 E0.3489
G1 X63.658 Y46.128 E0.4273
G1 X63.829 Y46.250 E0.4344
G1 X64.944 Y47.470 E0.4900
G1 X65.616 Y48.133 E0.5217
G1 X66.294 Y48.714 E0.5518
G1 X66.875 Y49.154 E0.5763
G1 X67.442 Y49.542 E0.5994
G1 X68.195 Y49.994 E0.6290
G1 X69.427 Y50.596 E0.6751
G1 X70.513 Y51.010 E0.7142
