; G-Code generated by Simplify3D(R) Version 3.0.2
; Sep 7, 2015 at 11:14:05 AM
; Settings Summary
;   processName,Process1
;   applyToModels,Corner_Block
;   profileName,PrinterBot Simple Metal Custom
;   profileVersion,2015-05-01 08:00:00
;   baseProfile,Default (modified)
;   printMaterial,PLA
;   printQuality,Medium
;   printExtruders,
;   extruderName,Primary Extruder
;   extruderToolheadNumber,0
;   extruderDiameter,0.4
;   extruderAutoWidth,0
;   extruderWidth,0.4
;   extrusionMultiplier,1
;   extruderUseRetract,1
;   extruderRetractionDistance,1
;   extruderExtraRestartDistance,0
;   extruderRetractionZLift,0
;   extruderRetractionSpeed,1800
;   extruderUseCoasting,0
;   extruderCoastingDistance,0.2
;   extruderUseWipe,0
;   extruderWipeDistance,5
;   primaryExtruder,0
;   layerHeight,0.2
;   topSolidLayers,3
;   bottomSolidLayers,3
;   perimeterOutlines,2
;   printPerimetersInsideOut,1
;   startPointOption,2
;   startPointOriginX,0
;   startPointOriginY,0
;   startPointOriginZ,300
;   sequentialIslands,0
;   spiralVaseMode,0
;   firstLayerHeightPercentage,90
;   firstLayerWidthPercentage,100
;   firstLayerUnderspeed,0.5
;   useRaft,0
;   raftExtruder,0
;   raftLayers,3
;   raftOffset,3
;   raftSeparationDistance,0.14
;   raftInfill,85
;   disableRaftBaseLayers,0
;   useSkirt,1
;   skirtExtruder,0
;   skirtLayers,1
;   skirtOutlines,4
;   skirtOffset,4
;   usePrimePillar,0
;   primePillarExtruder,999
;   primePillarWidth,12
;   primePillarLocation,7
;   primePillarSpeedMultiplier,1
;   useOozeShield,0
;   oozeShieldExtruder,999
;   oozeShieldOffset,2
;   oozeShieldOutlines,1
;   oozeShieldSidewallShape,1
;   oozeShieldSidewallAngle,30
;   oozeShieldSpeedMultiplier,1
;   infillExtruder,0
;   internalInfillPattern,Rectilinear
;   externalInfillPattern,Rectilinear
;   infillPercentage,40
;   outlineOverlapPercentage,15
;   infillExtrusionWidthPercentage,100
;   minInfillLength,5
;   infillLayerInterval,1
;   infillAngles,45,-45
;   overlapInfillAngles,0
;   generateSupport,0
;   supportExtruder,0
;   supportInfillPercentage,30
;   supportExtraInflation,0
;   denseSupportLayers,0
;   denseSupportInfillPercentage,70
;   supportLayerInterval,1
;   supportHorizontalPartOffset,0.3
;   supportUpperSeparationLayers,1
;   supportLowerSeparationLayers,1
;   supportType,0
;   supportGridSpacing,4
;   maxOverhangAngle,45
;   supportAngles,0
;   temperatureName,Primary Extruder,Heated Bed
;   temperatureNumber,0,1
;   temperatureSetpointCount,2,3
;   temperatureSetpointLayers,1,2,1,2,3
;   temperatureSetpointTemperatures,210,200,70,65,63
;   temperatureStabilizeAtStartup,1,1
;   temperatureHeatedBed,0,1
;   temperatureRelayBetweenLayers,0,0
;   temperatureRelayBetweenLoops,0,0
;   fanLayers,1,2
;   fanSpeeds,0,100
;   blipFanToFullPower,1
;   adjustSpeedForCooling,1
;   minSpeedLayerTime,15
;   minCoolingSpeedSlowdown,20
;   increaseFanForCooling,0
;   minFanLayerTime,45
;   maxCoolingFanSpeed,100
;   increaseFanForBridging,0
;   bridgingFanSpeed,100
;   use5D,1
;   relativeEdistances,0
;   allowEaxisZeroing,1
;   independentExtruderAxes,0
;   includeM10123,0
;   stickySupport,1
;   applyToolheadOffsets,0
;   gcodeXoffset,0
;   gcodeYoffset,0
;   gcodeZoffset,0
;   overrideMachineDefinition,1
;   machineTypeOverride,0
;   strokeXoverride,150
;   strokeYoverride,150
;   strokeZoverride,150
;   originOffsetXoverride,0
;   originOffsetYoverride,0
;   originOffsetZoverride,0
;   homeXdirOverride,-1
;   homeYdirOverride,-1
;   homeZdirOverride,-1
;   flipXoverride,1
;   flipYoverride,-1
;   flipZoverride,1
;   toolheadOffsets,0,0|0,0|0,0|0,0|0,0|0,0
;   overrideFirmwareConfiguration,1
;   firmwareTypeOverride,RepRap (Marlin/Repetier/Sprinter)
;   GPXconfigOverride,r2
;   baudRateOverride,250000
;   overridePrinterModels,1
;   printerModelsOverride
;   startingGcode,G28 X0 Y0 ; home X and Y axes,G29 ; probe z
;   layerChangeGcode,
;   retractionGcode,
;   toolChangeGcode,
;   endingGcode,M104 S0 T0 ; turn off extruder,M140 S0 T1 ; turn off bed,G28 X0 Y0 ; home,M84 ; disable motors
;   createX3G,0
;   celebration,0
;   celebrationSong,Random Song
;   createMB5G,0
;   postProcessing,
;   defaultSpeed,2700
;   outlineUnderspeed,0.8
;   solidInfillUnderspeed,0.8
;   supportUnderspeed,0.8
;   rapidXYspeed,4200
;   rapidZspeed,1002
;   minBridgingArea,50
;   bridgingExtraInflation,0
;   bridgingExtrusionMultiplier,1
;   bridgingSpeedMultiplier,1
;   filamentDiameter,1.75
;   filamentPricePerKg,22
;   filamentDensity,1.25
;   useMinPrintHeight,0
;   minPrintHeight,0
;   useMaxPrintHeight,0
;   maxPrintHeight,0
;   useDiaphragm,0
;   diaphragmLayerInterval,20
;   robustSlicing,1
;   mergeAllIntoSolid,0
;   onlyRetractWhenCrossingOutline,1
;   retractBetweenLayers,1
;   useRetractionMinTravel,0
;   retractionMinTravel,3
;   retractWhileWiping,0
;   onlyWipeOutlines,1
;   avoidCrossingOutline,0
;   maxMovementDetourFactor,3
;   toolChangeRetractionDistance,12
;   toolChangeExtraRestartDistance,-0.5
;   toolChangeRetractionSpeed,600
;   allowThinWallGapFill,1
;   thinWallAllowedOverlapPercentage,10
;   horizontalSizeCompensation,0
G90
M82
M106 S0
M140 S70
M190 S70
M104 S210 T0
M109 S210 T0
G28 X0 Y0 ; home X and Y axes
G29 ; probe z
G92 E0
G1 E-1.0000 F1800
G1 Z0.180 F1002
; layer 1, Z = 0.18
T0
; tool H0.200 W0.400
; skirt
G1 X42.944 Y64.960 F4200
G1 E0.0000 F540
G92 E0
G1 X73.941 Y33.963 E1.4580 F1350
G1 X74.456 Y33.750 E1.4766
G1 X78.327 Y33.750 E1.6053
G1 X78.841 Y33.963 E1.6238
G1 X115.802 Y70.924 E3.3623
G1 X116.015 Y71.438 E3.3809
G1 X116.015 Y75.309 E3.5096
G1 X115.802 Y75.824 E3.5281
G1 X84.805 Y106.821 E4.9862
G1 X84.290 Y107.034 E5.0047
G1 X80.419 Y107.034 E5.1334
G1 X79.905 Y106.821 E5.1520
G1 X71.271 Y98.187 E5.5581
G1 X64.505 Y104.953 E5.8763
G1 X63.990 Y105.166 E5.8949
G1 X60.119 Y105.166 E6.0236
G1 X59.605 Y104.953 E6.0421
G1 X53.244 Y98.592 E6.3413
G1 X53.217 Y98.528 E6.3436
G1 X53.152 Y98.501 E6.3460
G1 X46.792 Y92.140 E6.6452
G1 X46.579 Y91.625 E6.6637
G1 X46.579 Y87.754 E6.7924
G1 X46.792 Y87.240 E6.8110
G1 X53.558 Y80.474 E7.1292
G1 X42.944 Y69.860 E7.6284
G1 X42.731 Y69.346 E7.6470
G1 X42.731 Y65.475 E7.7757
G1 X42.944 Y64.960 E7.7942
G1 X43.283 Y65.187 F4200
G92 E0
G1 X74.168 Y34.302 E1.4527 F1350
G1 X74.536 Y34.150 E1.4660
G1 X78.247 Y34.150 E1.5894
G1 X78.615 Y34.302 E1.6026
G1 X115.463 Y71.150 E3.3359
G1 X115.615 Y71.518 E3.3491
G1 X115.615 Y75.229 E3.4726
G1 X115.463 Y75.597 E3.4858
G1 X84.578 Y106.482 E4.9385
G1 X84.211 Y106.634 E4.9518
G1 X80.499 Y106.634 E5.0752
G1 X80.131 Y106.482 E5.0884
G1 X71.271 Y97.621 E5.5052
G1 X64.278 Y104.614 E5.8341
G1 X63.911 Y104.766 E5.8474
G1 X60.199 Y104.766 E5.9708
G1 X59.831 Y104.614 E5.9840
G1 X53.583 Y98.366 E6.2779
G1 X53.523 Y98.222 E6.2831
G1 X53.379 Y98.162 E6.2883
G1 X47.131 Y91.913 E6.5822
G1 X46.979 Y91.545 E6.5955
G1 X46.979 Y87.834 E6.7189
G1 X47.131 Y87.467 E6.7321
G1 X54.124 Y80.474 E7.0611
G1 X43.283 Y69.634 E7.5710
G1 X43.131 Y69.266 E7.5842
G1 X43.131 Y65.555 E7.7076
G1 X43.283 Y65.187 E7.7209
G1 X43.622 Y65.414 F4200
G92 E0
G1 X74.395 Y34.641 E1.4474 F1350
G1 X74.615 Y34.550 E1.4554
G1 X78.168 Y34.550 E1.5735
G1 X78.388 Y34.641 E1.5815
G1 X115.124 Y71.377 E3.3094
G1 X115.215 Y71.597 E3.3174
G1 X115.215 Y75.150 E3.4355
G1 X115.124 Y75.370 E3.4435
G1 X84.351 Y106.143 E4.8909
G1 X84.131 Y106.234 E4.8988
G1 X80.579 Y106.234 E5.0170
G1 X80.358 Y106.143 E5.0249
G1 X71.271 Y97.056 E5.4524
G1 X64.052 Y104.275 E5.7919
G1 X63.831 Y104.366 E5.7999
G1 X60.279 Y104.366 E5.9180
G1 X60.058 Y104.275 E5.9260
G1 X53.922 Y98.139 E6.2146
G1 X53.831 Y97.919 E6.2225
G1 X53.831 Y97.914 E6.2227
G1 X53.826 Y97.914 E6.2228
G1 X53.605 Y97.823 E6.2308
G1 X47.470 Y91.686 E6.5194
G1 X47.379 Y91.466 E6.5273
G1 X47.379 Y87.914 E6.6455
G1 X47.470 Y87.693 E6.6534
G1 X54.689 Y80.474 E6.9930
G1 X43.622 Y69.407 E7.5135
G1 X43.531 Y69.186 E7.5215
G1 X43.531 Y65.634 E7.6396
G1 X43.622 Y65.414 E7.6476
G1 X43.961 Y65.640 F4200
G92 E0
G1 X74.621 Y34.980 E1.4422 F1350
G1 X74.695 Y34.950 E1.4448
G1 X78.088 Y34.950 E1.5577
G1 X78.162 Y34.980 E1.5603
G1 X114.785 Y71.604 E3.2830
G1 X114.815 Y71.677 E3.2856
G1 X114.815 Y75.070 E3.3985
G1 X114.785 Y75.144 E3.4011
G1 X84.125 Y105.804 E4.8433
G1 X84.051 Y105.834 E4.8459
G1 X80.658 Y105.834 E4.9588
G1 X80.585 Y105.804 E4.9614
G1 X71.271 Y96.490 E5.3995
G1 X63.825 Y103.936 E5.7497
G1 X63.751 Y103.966 E5.7524
G1 X60.358 Y103.966 E5.8652
G1 X60.285 Y103.936 E5.8679
G1 X54.261 Y97.913 E6.1512
G1 X54.231 Y97.839 E6.1539
G1 X54.231 Y97.514 E6.1647
G1 X53.906 Y97.514 E6.1755
G1 X53.832 Y97.484 E6.1781
G1 X47.809 Y91.460 E6.4615
G1 X47.779 Y91.386 E6.4641
G1 X47.779 Y87.993 E6.5770
G1 X47.809 Y87.920 E6.5796
G1 X55.255 Y80.474 E6.9298
G1 X43.961 Y69.180 E7.4610
G1 X43.931 Y69.107 E7.4637
G1 X43.931 Y65.714 E7.5766
G1 X43.961 Y65.640 E7.5792
G92 E0
G1 E-1.0000 F1800
; inner perimeter
G1 X48.979 Y67.410 F4200
G1 E0.0000 F1800
G92 E0
G1 X76.391 Y39.998 E1.2894 F1215
G1 X109.767 Y73.374 E2.8593
G1 X82.355 Y100.786 E4.1486
G1 X71.271 Y89.702 E4.6700
G1 X62.055 Y98.918 E5.1035
G1 X59.279 Y96.142 E5.2340
G1 X69.025 Y86.397 E5.6924
G1 X69.316 Y86.587 E5.7040
G1 X69.693 Y86.807 E5.7185
G1 X70.077 Y87.014 E5.7330
G1 X70.851 Y87.379 E5.7615
G1 X71.649 Y87.691 E5.7900
G1 X72.068 Y87.829 E5.8047
G1 X72.894 Y88.056 E5.8332
G1 X73.739 Y88.225 E5.8618
G1 X74.588 Y88.335 E5.8903
G1 X75.028 Y88.369 E5.9050
G1 X75.884 Y88.390 E5.9335
G1 X76.740 Y88.351 E5.9620
G1 X77.179 Y88.308 E5.9766
G1 X78.026 Y88.180 E6.0051
G1 X78.862 Y87.995 E6.0336
G1 X79.288 Y87.876 E6.0483
G1 X80.095 Y87.606 E6.0766
G1 X80.505 Y87.444 E6.0913
G1 X81.281 Y87.091 E6.1196
G1 X81.673 Y86.887 E6.1343
G1 X82.407 Y86.455 E6.1626
G1 X82.775 Y86.212 E6.1773
G1 X83.460 Y85.706 E6.2056
G1 X83.801 Y85.426 E6.2203
G1 X84.432 Y84.849 E6.2488
G1 X85.027 Y84.224 E6.2775
G1 X85.572 Y83.565 E6.3059
G1 X85.836 Y83.210 E6.3206
G1 X86.311 Y82.497 E6.3491
G1 X86.734 Y81.754 E6.3775
G1 X86.930 Y81.364 E6.3920
G1 X87.112 Y80.968 E6.4065
G1 X87.429 Y80.172 E6.4350
G1 X87.689 Y79.357 E6.4635
G1 X87.800 Y78.935 E6.4780
G1 X87.897 Y78.510 E6.4925
G1 X88.041 Y77.670 E6.5209
G1 X88.093 Y77.232 E6.5355
G1 X88.149 Y76.378 E6.5640
G1 X88.146 Y75.516 E6.5927
G1 X88.083 Y74.657 E6.6213
G1 X87.962 Y73.809 E6.6498
G1 X87.876 Y73.376 E6.6645
G1 X87.669 Y72.550 E6.6928
G1 X87.540 Y72.133 E6.7073
G1 X87.397 Y71.721 E6.7218
G1 X87.075 Y70.928 E6.7503
G1 X86.696 Y70.154 E6.7790
G1 X86.267 Y69.413 E6.8074
G1 X86.026 Y69.043 E6.8221
G1 X85.523 Y68.350 E6.8506
G1 X84.972 Y67.694 E6.8791
G1 X84.671 Y67.372 E6.8938
G1 X84.058 Y66.780 E6.9221
G1 X83.729 Y66.494 E6.9366
G1 X83.391 Y66.219 E6.9511
G1 X82.698 Y65.715 E6.9796
G1 X81.972 Y65.261 E7.0081
G1 X81.586 Y65.046 E7.0228
G1 X80.817 Y64.670 E7.0512
G1 X80.024 Y64.348 E7.0797
G1 X79.612 Y64.205 E7.0942
G1 X79.195 Y64.076 E7.1087
G1 X78.364 Y63.867 E7.1372
G1 X77.516 Y63.715 E7.1659
G1 X76.664 Y63.623 E7.1944
G1 X76.229 Y63.599 E7.2089
G1 X75.793 Y63.590 E7.2234
G1 X74.937 Y63.617 E7.2519
G1 X74.085 Y63.703 E7.2804
G1 X73.654 Y63.769 E7.2949
G1 X73.225 Y63.851 E7.3094
G1 X72.393 Y64.054 E7.3379
G1 X71.572 Y64.316 E7.3665
G1 X70.775 Y64.634 E7.3951
G1 X70.374 Y64.818 E7.4097
G1 X69.621 Y65.213 E7.4380
G1 X69.241 Y65.439 E7.4527
G1 X68.532 Y65.910 E7.4810
G1 X68.178 Y66.174 E7.4957
G1 X67.518 Y66.720 E7.5242
G1 X66.899 Y67.310 E7.5527
G1 X66.595 Y67.632 E7.5674
G1 X66.044 Y68.279 E7.5956
G1 X65.775 Y68.630 E7.6104
G1 X65.291 Y69.336 E7.6389
G1 X64.857 Y70.073 E7.6673
G1 X64.656 Y70.460 E7.6818
G1 X64.468 Y70.854 E7.6963
G1 X64.141 Y71.645 E7.7248
G1 X63.867 Y72.462 E7.7534
G1 X63.651 Y73.296 E7.7821
G1 X63.494 Y74.138 E7.8106
G1 X63.436 Y74.576 E7.8253
G1 X63.367 Y75.430 E7.8538
G1 X63.358 Y76.286 E7.8822
G1 X63.377 Y76.727 E7.8969
G1 X63.456 Y77.575 E7.9252
G1 X63.521 Y78.011 E7.9399
G1 X63.688 Y78.846 E7.9682
G1 X63.797 Y79.274 E7.9829
G1 X64.052 Y80.091 E8.0114
G1 X64.366 Y80.894 E8.0401
G1 X64.731 Y81.668 E8.0685
G1 X64.938 Y82.052 E8.0830
G1 X65.158 Y82.429 E8.0975
G1 X65.348 Y82.720 E8.1091
G1 X55.602 Y92.465 E8.5675
G1 X52.827 Y89.690 E8.6981
G1 X62.043 Y80.474 E9.1316
G1 X48.979 Y67.410 E9.7460
; outer perimeter
G1 X48.414 Y67.410 F4200
G92 E0
G1 X76.391 Y39.433 E1.3160 F1080
G1 X110.333 Y73.374 E2.9125
G1 X82.355 Y101.351 E4.2285
G1 X71.271 Y90.267 E4.7498
G1 X62.055 Y99.484 E5.1833
G1 X58.714 Y96.142 E5.3405
G1 X68.972 Y85.884 E5.8230
G1 X69.526 Y86.247 E5.8450
G1 X69.888 Y86.458 E5.8590
G1 X70.257 Y86.656 E5.8729
G1 X71.009 Y87.012 E5.9006
G1 X71.785 Y87.314 E5.9282
G1 X72.184 Y87.446 E5.9422
G1 X72.986 Y87.666 E5.9699
G1 X73.804 Y87.830 E5.9976
G1 X74.629 Y87.937 E6.0253
G1 X75.048 Y87.969 E6.0393
G1 X75.880 Y87.989 E6.0670
G1 X76.712 Y87.952 E6.0947
G1 X77.130 Y87.911 E6.1086
G1 X77.953 Y87.787 E6.1363
G1 X78.765 Y87.606 E6.1640
G1 X79.170 Y87.494 E6.1780
G1 X79.958 Y87.230 E6.2056
G1 X80.349 Y87.076 E6.2196
G1 X81.106 Y86.731 E6.2473
G1 X81.479 Y86.537 E6.2612
G1 X82.195 Y86.116 E6.2889
G1 X82.546 Y85.884 E6.3029
G1 X83.214 Y85.390 E6.3305
G1 X83.538 Y85.123 E6.3445
G1 X84.152 Y84.563 E6.3721
G1 X84.728 Y83.958 E6.3999
G1 X85.258 Y83.318 E6.4275
G1 X85.509 Y82.980 E6.4415
G1 X85.970 Y82.287 E6.4692
G1 X86.381 Y81.565 E6.4968
G1 X86.569 Y81.191 E6.5108
G1 X86.744 Y80.811 E6.5247
G1 X87.052 Y80.037 E6.5524
G1 X87.305 Y79.245 E6.5800
G1 X87.412 Y78.840 E6.5940
G1 X87.504 Y78.431 E6.6079
G1 X87.645 Y77.613 E6.6355
G1 X87.694 Y77.195 E6.6495
G1 X87.749 Y76.365 E6.6772
G1 X87.746 Y75.531 E6.7049
G1 X87.686 Y74.700 E6.7327
G1 X87.567 Y73.876 E6.7603
G1 X87.486 Y73.463 E6.7743
G1 X87.283 Y72.658 E6.8019
G1 X87.160 Y72.258 E6.8159
G1 X87.023 Y71.862 E6.8298
G1 X86.710 Y71.091 E6.8575
G1 X86.343 Y70.342 E6.8852
G1 X85.926 Y69.622 E6.9129
G1 X85.697 Y69.270 E6.9269
G1 X85.207 Y68.597 E6.9545
G1 X84.672 Y67.960 E6.9822
G1 X84.385 Y67.652 E6.9962
G1 X83.788 Y67.075 E7.0238
G1 X83.472 Y66.800 E7.0377
G1 X83.147 Y66.537 E7.0517
G1 X82.474 Y66.047 E7.0794
G1 X81.769 Y65.605 E7.1070
G1 X81.401 Y65.401 E7.1210
G1 X80.654 Y65.035 E7.1487
G1 X79.883 Y64.722 E7.1764
G1 X79.487 Y64.585 E7.1903
G1 X79.087 Y64.462 E7.2042
G1 X78.280 Y64.258 E7.2319
G1 X77.459 Y64.111 E7.2596
G1 X76.632 Y64.022 E7.2873
G1 X76.214 Y63.999 E7.3012
G1 X75.795 Y63.990 E7.3152
G1 X74.963 Y64.016 E7.3428
G1 X74.135 Y64.100 E7.3705
G1 X73.722 Y64.163 E7.3845
G1 X73.310 Y64.242 E7.3984
G1 X72.502 Y64.439 E7.4261
G1 X71.707 Y64.693 E7.4538
G1 X70.933 Y65.001 E7.4815
G1 X70.551 Y65.177 E7.4955
G1 X69.816 Y65.563 E7.5231
G1 X69.454 Y65.777 E7.5371
G1 X68.763 Y66.238 E7.5647
G1 X68.425 Y66.489 E7.5787
G1 X67.784 Y67.019 E7.6064
G1 X67.183 Y67.592 E7.6340
G1 X66.893 Y67.899 E7.6481
G1 X66.355 Y68.530 E7.6756
G1 X66.099 Y68.865 E7.6897
G1 X65.629 Y69.551 E7.7173
G1 X65.207 Y70.267 E7.7450
G1 X65.014 Y70.639 E7.7589
G1 X64.834 Y71.017 E7.7728
G1 X64.516 Y71.785 E7.8005
G1 X64.251 Y72.576 E7.8282
G1 X64.041 Y73.383 E7.8560
G1 X63.889 Y74.201 E7.8836
G1 X63.834 Y74.618 E7.8976
G1 X63.767 Y75.448 E7.9253
G1 X63.758 Y76.280 E7.9530
G1 X63.776 Y76.700 E7.9670
G1 X63.854 Y77.527 E7.9946
G1 X63.915 Y77.943 E8.0086
G1 X64.078 Y78.757 E8.0362
G1 X64.182 Y79.164 E8.0502
G1 X64.430 Y79.959 E8.0779
G1 X64.733 Y80.736 E8.1056
G1 X65.089 Y81.488 E8.1333
G1 X65.287 Y81.857 E8.1472
G1 X65.498 Y82.218 E8.1611
G1 X65.861 Y82.772 E8.1832
G1 X55.602 Y93.031 E8.6657
G1 X52.262 Y89.690 E8.8228
G1 X61.477 Y80.474 E9.2563
G1 X48.414 Y67.410 E9.8708
; inner perimeter
G1 X60.215 Y57.657 F4200
G92 E0
G1 X64.458 Y61.900 E0.1996 F1215
G1 X71.140 Y55.218 E0.5139
G1 X66.898 Y50.975 E0.7134
G1 X60.215 Y57.657 E1.0277
; outer perimeter
G1 X60.781 Y57.657 F4200
G92 E0
G1 X64.458 Y61.334 E0.1730 F1080
G1 X70.574 Y55.218 E0.4607
G1 X66.898 Y51.541 E0.6336
G1 X60.781 Y57.657 E0.9213
G92 E0
G1 E-1.0000 F1800
; inner perimeter
G1 X76.867 Y54.301 F4200
G1 E0.0000 F1800
G92 E0
G1 X81.251 Y58.685 E0.2062 F1215
G1 X85.941 Y53.996 E0.4268
G1 X81.557 Y49.612 E0.6330
G1 X76.867 Y54.301 E0.8536
; outer perimeter
G1 X77.433 Y54.301 F4200
G92 E0
G1 X81.251 Y58.119 E0.1796 F1080
G1 X85.375 Y53.996 E0.3736
G1 X81.557 Y50.177 E0.5532
G1 X77.433 Y54.301 E0.7471
; solid layer
