; G-Code generated by Simplify3D(R) Version 3.0.2
; Sep 7, 2015 at 11:25:03 AM
; Settings Summary
;   processName,Process1
;   applyToModels,Tool_Holder_Nut_Trap,Tool_Holder_Nut_Trap(2)
;   profileName,PrinterBot Simple Metal Custom (modified)
;   profileVersion,2015-05-01 08:00:00
;   baseProfile,Default (modified)
;   printMaterial,PLA
;   printQuality,Medium
;   printExtruders,
;   extruderName,Primary Extruder
;   extruderToolheadNumber,0
;   extruderDiameter,0.4
;   extruderAutoWidth,0
;   extruderWidth,0.4
;   extrusionMultiplier,1
;   extruderUseRetract,1
;   extruderRetractionDistance,1
;   extruderExtraRestartDistance,0
;   extruderRetractionZLift,0
;   extruderRetractionSpeed,1800
;   extruderUseCoasting,0
;   extruderCoastingDistance,0.2
;   extruderUseWipe,0
;   extruderWipeDistance,5
;   primaryExtruder,0
;   layerHeight,0.2
;   topSolidLayers,3
;   bottomSolidLayers,3
;   perimeterOutlines,2
;   printPerimetersInsideOut,1
;   startPointOption,2
;   startPointOriginX,0
;   startPointOriginY,0
;   startPointOriginZ,300
;   sequentialIslands,0
;   spiralVaseMode,0
;   firstLayerHeightPercentage,90
;   firstLayerWidthPercentage,100
;   firstLayerUnderspeed,0.5
;   useRaft,0
;   raftExtruder,0
;   raftLayers,3
;   raftOffset,3
;   raftSeparationDistance,0.14
;   raftInfill,85
;   disableRaftBaseLayers,0
;   useSkirt,1
;   skirtExtruder,0
;   skirtLayers,1
;   skirtOutlines,4
;   skirtOffset,4
;   usePrimePillar,0
;   primePillarExtruder,999
;   primePillarWidth,12
;   primePillarLocation,7
;   primePillarSpeedMultiplier,1
;   useOozeShield,0
;   oozeShieldExtruder,999
;   oozeShieldOffset,2
;   oozeShieldOutlines,1
;   oozeShieldSidewallShape,1
;   oozeShieldSidewallAngle,30
;   oozeShieldSpeedMultiplier,1
;   infillExtruder,0
;   internalInfillPattern,Rectilinear
;   externalInfillPattern,Rectilinear
;   infillPercentage,50
;   outlineOverlapPercentage,15
;   infillExtrusionWidthPercentage,100
;   minInfillLength,5
;   infillLayerInterval,1
;   infillAngles,45,-45
;   overlapInfillAngles,0
;   generateSupport,0
;   supportExtruder,0
;   supportInfillPercentage,30
;   supportExtraInflation,0
;   denseSupportLayers,0
;   denseSupportInfillPercentage,70
;   supportLayerInterval,1
;   supportHorizontalPartOffset,0.3
;   supportUpperSeparationLayers,1
;   supportLowerSeparationLayers,1
;   supportType,0
;   supportGridSpacing,4
;   maxOverhangAngle,45
;   supportAngles,0
;   temperatureName,Primary Extruder,Heated Bed
;   temperatureNumber,0,1
;   temperatureSetpointCount,2,3
;   temperatureSetpointLayers,1,2,1,2,3
;   temperatureSetpointTemperatures,210,200,70,65,63
;   temperatureStabilizeAtStartup,1,1
;   temperatureHeatedBed,0,1
;   temperatureRelayBetweenLayers,0,0
;   temperatureRelayBetweenLoops,0,0
;   fanLayers,1,2
;   fanSpeeds,0,100
;   blipFanToFullPower,1
;   adjustSpeedForCooling,1
;   minSpeedLayerTime,15
;   minCoolingSpeedSlowdown,20
;   increaseFanForCooling,0
;   minFanLayerTime,45
;   maxCoolingFanSpeed,100
;   increaseFanForBridging,0
;   bridgingFanSpeed,100
;   use5D,1
;   relativeEdistances,0
;   allowEaxisZeroing,1
;   independentExtruderAxes,0
;   includeM10123,0
;   stickySupport,1
;   applyToolheadOffsets,0
;   gcodeXoffset,0
;   gcodeYoffset,0
;   gcodeZoffset,0
;   overrideMachineDefinition,1
;   machineTypeOverride,0
;   strokeXoverride,150
;   strokeYoverride,150
;   strokeZoverride,150
;   originOffsetXoverride,0
;   originOffsetYoverride,0
;   originOffsetZoverride,0
;   homeXdirOverride,-1
;   homeYdirOverride,-1
;   homeZdirOverride,-1
;   flipXoverride,1
;   flipYoverride,-1
;   flipZoverride,1
;   toolheadOffsets,0,0|0,0|0,0|0,0|0,0|0,0
;   overrideFirmwareConfiguration,1
;   firmwareTypeOverride,RepRap (Marlin/Repetier/Sprinter)
;   GPXconfigOverride,r2
;   baudRateOverride,250000
;   overridePrinterModels,1
;   printerModelsOverride
;   startingGcode,G28 X0 Y0 ; home X and Y axes,G29 ; probe z
;   layerChangeGcode,
;   retractionGcode,
;   toolChangeGcode,
;   endingGcode,M104 S0 T0 ; turn off extruder,M140 S0 T1 ; turn off bed,G28 X0 Y0 ; home,M84 ; disable motors
;   createX3G,0
;   celebration,0
;   celebrationSong,Random Song
;   createMB5G,0
;   postProcessing,
;   defaultSpeed,2700
;   outlineUnderspeed,0.8
;   solidInfillUnderspeed,0.8
;   supportUnderspeed,0.8
;   rapidXYspeed,4200
;   rapidZspeed,1002
;   minBridgingArea,50
;   bridgingExtraInflation,0
;   bridgingExtrusionMultiplier,1
;   bridgingSpeedMultiplier,1
;   filamentDiameter,1.75
;   filamentPricePerKg,22
;   filamentDensity,1.25
;   useMinPrintHeight,0
;   minPrintHeight,0
;   useMaxPrintHeight,0
;   maxPrintHeight,0
;   useDiaphragm,0
;   diaphragmLayerInterval,20
;   robustSlicing,1
;   mergeAllIntoSolid,0
;   onlyRetractWhenCrossingOutline,1
;   retractBetweenLayers,1
;   useRetractionMinTravel,0
;   retractionMinTravel,3
;   retractWhileWiping,0
;   onlyWipeOutlines,1
;   avoidCrossingOutline,0
;   maxMovementDetourFactor,3
;   toolChangeRetractionDistance,12
;   toolChangeExtraRestartDistance,-0.5
;   toolChangeRetractionSpeed,600
;   allowThinWallGapFill,1
;   thinWallAllowedOverlapPercentage,10
;   horizontalSizeCompensation,0
G90
M82
M106 S0
M140 S70
M190 S70
M104 S210 T0
M109 S210 T0
G28 X0 Y0 ; home X and Y axes
G29 ; probe z
G92 E0
G1 E-1.0000 F1800
G1 Z0.180 F1002
; layer 1, Z = 0.18
T0
; tool H0.200 W0.400
; skirt
G1 X21.750 Y46.717 F4200
G1 E0.0000 F540
G92 E0
G1 X22.265 Y46.504 E0.0185 F1350
G1 X127.735 Y46.504 E3.5265
G1 X128.250 Y46.717 E3.5450
G1 X130.987 Y49.454 E3.6738
G1 X131.200 Y49.968 E3.6923
G1 X131.200 Y74.416 E4.5054
G1 X130.987 Y74.931 E4.5239
G1 X130.918 Y75.000 E4.5272
G1 X130.987 Y75.069 E4.5305
G1 X131.200 Y75.584 E4.5490
G1 X131.200 Y100.032 E5.3621
G1 X130.987 Y100.546 E5.3807
G1 X128.250 Y103.283 E5.5094
G1 X127.735 Y103.496 E5.5279
G1 X22.265 Y103.496 E9.0359
G1 X21.750 Y103.283 E9.0544
G1 X19.013 Y100.546 E9.1831
G1 X18.800 Y100.032 E9.2017
G1 X18.800 Y75.584 E10.0148
G1 X19.013 Y75.069 E10.0333
G1 X19.082 Y75.000 E10.0366
G1 X19.013 Y74.931 E10.0398
G1 X18.800 Y74.416 E10.0584
G1 X18.800 Y49.968 E10.8715
G1 X19.013 Y49.454 E10.8900
G1 X21.750 Y46.717 E11.0188
G1 X21.977 Y47.056 F4200
G92 E0
G1 X22.344 Y46.904 E0.0132 F1350
G1 X127.656 Y46.904 E3.5159
G1 X128.023 Y47.056 E3.5291
G1 X130.648 Y49.680 E3.6526
G1 X130.800 Y50.048 E3.6658
G1 X130.800 Y74.337 E4.4737
G1 X130.648 Y74.704 E4.4869
G1 X130.352 Y75.000 E4.5008
G1 X130.648 Y75.296 E4.5147
G1 X130.800 Y75.663 E4.5280
G1 X130.800 Y99.952 E5.3358
G1 X130.648 Y100.320 E5.3490
G1 X128.023 Y102.944 E5.4725
G1 X127.656 Y103.096 E5.4857
G1 X22.344 Y103.096 E8.9884
G1 X21.977 Y102.944 E9.0016
G1 X19.352 Y100.320 E9.1251
G1 X19.200 Y99.952 E9.1383
G1 X19.200 Y75.663 E9.9462
G1 X19.352 Y75.296 E9.9594
G1 X19.648 Y75.000 E9.9733
G1 X19.352 Y74.704 E9.9872
G1 X19.200 Y74.337 E10.0004
G1 X19.200 Y50.048 E10.8083
G1 X19.352 Y49.680 E10.8215
G1 X21.977 Y47.056 E10.9450
G1 X22.203 Y47.395 F4200
G92 E0
G1 X22.424 Y47.304 E0.0079 F1350
G1 X127.576 Y47.304 E3.5053
G1 X127.797 Y47.395 E3.5133
G1 X130.309 Y49.907 E3.6314
G1 X130.400 Y50.127 E3.6394
G1 X130.400 Y74.257 E4.4419
G1 X130.309 Y74.478 E4.4499
G1 X129.786 Y75.000 E4.4744
G1 X130.309 Y75.522 E4.4990
G1 X130.400 Y75.743 E4.5069
G1 X130.400 Y99.873 E5.3095
G1 X130.309 Y100.093 E5.3174
G1 X127.797 Y102.605 E5.4356
G1 X127.576 Y102.696 E5.4435
G1 X22.424 Y102.696 E8.9409
G1 X22.203 Y102.605 E8.9488
G1 X19.691 Y100.093 E9.0670
G1 X19.600 Y99.873 E9.0749
G1 X19.600 Y75.743 E9.8775
G1 X19.691 Y75.522 E9.8854
G1 X20.214 Y75.000 E9.9100
G1 X19.691 Y74.478 E9.9346
G1 X19.600 Y74.257 E9.9425
G1 X19.600 Y50.127 E10.7451
G1 X19.691 Y49.907 E10.7530
G1 X22.203 Y47.395 E10.8712
G1 X22.430 Y47.734 F4200
G92 E0
G1 X22.503 Y47.704 E0.0026 F1350
G1 X127.497 Y47.704 E3.4947
G1 X127.570 Y47.734 E3.4974
G1 X129.970 Y50.133 E3.6102
G1 X130.000 Y50.207 E3.6129
G1 X130.000 Y74.178 E4.4102
G1 X129.970 Y74.251 E4.4128
G1 X129.221 Y75.000 E4.4480
G1 X129.970 Y75.749 E4.4833
G1 X130.000 Y75.822 E4.4859
G1 X130.000 Y99.793 E5.2832
G1 X129.970 Y99.867 E5.2858
G1 X127.570 Y102.266 E5.3987
G1 X127.497 Y102.296 E5.4013
G1 X22.503 Y102.296 E8.8934
G1 X22.430 Y102.266 E8.8961
G1 X20.030 Y99.867 E9.0089
G1 X20.000 Y99.793 E9.0116
G1 X20.000 Y75.822 E9.8088
G1 X20.030 Y75.749 E9.8115
G1 X20.779 Y75.000 E9.8467
G1 X20.030 Y74.251 E9.8819
G1 X20.000 Y74.178 E9.8846
G1 X20.000 Y50.207 E10.6819
G1 X20.030 Y50.133 E10.6845
G1 X22.430 Y47.734 E10.7974
G92 E0
G1 E-1.0000 F1800
; inner perimeter
G1 X24.800 Y52.504 F4200
G1 E0.0000 F1800
G92 E0
G1 X125.200 Y52.504 E3.3393 F1215
G1 X125.200 Y71.881 E3.9838
G1 X24.800 Y71.881 E7.3231
G1 X24.800 Y52.504 E7.9676
; outer perimeter
G1 X24.400 Y52.104 F4200
G92 E0
G1 X125.600 Y52.104 E3.3659 F1080
G1 X125.600 Y72.281 E4.0370
G1 X24.400 Y72.281 E7.4030
G1 X24.400 Y52.104 E8.0741
; inner perimeter
G1 X40.609 Y57.617 F4200
G92 E0
G1 X37.967 Y62.192 E0.1757 F1215
G1 X40.609 Y66.767 E0.3514
G1 X45.891 Y66.767 E0.5271
G1 X48.533 Y62.192 E0.7028
G1 X45.891 Y57.617 E0.8785
G1 X40.609 Y57.617 E1.0542
; outer perimeter
G1 X40.840 Y58.017 F4200
G92 E0
G1 X38.429 Y62.192 E0.1603 F1080
G1 X40.840 Y66.367 E0.3207
G1 X45.660 Y66.367 E0.4810
G1 X48.071 Y62.192 E0.6414
G1 X45.660 Y58.017 E0.8017
G1 X40.840 Y58.017 E0.9621
G92 E0
G1 E-1.0000 F1800
; inner perimeter
G1 X114.167 Y62.192 F4200
G1 E0.0000 F1800
G92 E0
G1 X116.809 Y66.767 E0.1757 F1215
G1 X122.091 Y66.767 E0.3514
G1 X124.733 Y62.192 E0.5271
G1 X122.091 Y57.617 E0.7028
G1 X116.809 Y57.617 E0.8785
G1 X114.167 Y62.192 E1.0542
; outer perimeter
G1 X114.629 Y62.192 F4200
G92 E0
G1 X117.040 Y66.367 E0.1603 F1080
G1 X121.860 Y66.367 E0.3207
G1 X124.271 Y62.192 E0.4810
G1 X121.860 Y58.017 E0.6414
G1 X117.040 Y58.017 E0.8017
G1 X114.629 Y62.192 E0.9621
; solid layer
G1 X117.047 Y57.277 F4200
G92 E0
G1 X121.481 Y52.844 E0.2085 F1080
G1 X122.047 Y52.844 E0.2274
G1 X117.613 Y57.277 E0.4359
G1 X118.179 Y57.277 E0.4547
G1 X122.612 Y52.844 E0.6633
G1 X123.178 Y52.844 E0.6821
G1 X118.744 Y57.277 E0.8906
G1 X119.310 Y57.277 E0.9094
G1 X123.744 Y52.844 E1.1180
G1 X124.309 Y52.844 E1.1368
G1 X119.876 Y57.277 E1.3454
G1 X120.441 Y57.277 E1.3642
G1 X124.860 Y52.859 E1.5720
G1 X124.860 Y53.424 E1.5908
G1 X121.007 Y57.277 E1.7721
G1 X121.573 Y57.277 E1.7909
G1 X124.860 Y53.990 E1.9455
G1 X124.860 Y54.556 E1.9643
G1 X122.138 Y57.277 E2.0923
G1 X122.288 Y57.277 E2.0973
G1 X122.440 Y57.541 E2.1074
G1 X124.860 Y55.121 E2.2212
G1 X124.860 Y55.687 E2.2401
G1 X122.647 Y57.900 E2.3441
G1 X122.854 Y58.259 E2.3579
G1 X124.860 Y56.253 E2.4523
G1 X124.860 Y56.818 E2.4711
G1 X123.061 Y58.617 E2.5557
G1 X123.268 Y58.976 E2.5695
G1 X124.860 Y57.384 E2.6443
G1 X124.860 Y57.950 E2.6631
G1 X123.475 Y59.334 E2.7283
G1 X123.682 Y59.693 E2.7420
G1 X124.860 Y58.515 E2.7974
G1 X124.860 Y59.081 E2.8162
G1 X123.889 Y60.052 E2.8619
G1 X124.097 Y60.410 E2.8757
G1 X124.860 Y59.647 E2.9116
G1 X124.860 Y60.213 E2.9304
G1 X124.304 Y60.769 E2.9566
G1 X124.511 Y61.128 E2.9703
G1 X124.860 Y60.778 E2.9868
G1 X124.860 Y61.344 E3.0056
G1 X124.718 Y61.486 E3.0123
G1 X124.328 Y63.573 F4200
G92 E0
G1 X124.860 Y63.041 E0.0250 F1080
G1 X124.860 Y63.607 E0.0438
G1 X123.556 Y64.911 E0.1052
G1 X124.845 Y71.541 F4200
G92 E0
G1 X124.860 Y71.526 E0.0007 F1080
G1 X124.860 Y70.961 E0.0195
G1 X124.280 Y71.541 E0.0468
G1 X123.714 Y71.541 E0.0656
G1 X124.860 Y70.395 E0.1195
G1 X124.860 Y69.829 E0.1383
G1 X123.148 Y71.541 E0.2189
G1 X122.583 Y71.541 E0.2377
G1 X124.860 Y69.264 E0.3448
G1 X124.860 Y68.698 E0.3636
G1 X122.017 Y71.541 E0.4973
G1 X121.451 Y71.541 E0.5161
G1 X124.860 Y68.132 E0.6765
G1 X124.860 Y67.566 E0.6953
G1 X120.886 Y71.541 E0.8822
G1 X120.320 Y71.541 E0.9011
G1 X124.860 Y67.001 E1.1146
G1 X124.860 Y66.435 E1.1334
G1 X119.754 Y71.541 E1.3736
G1 X119.188 Y71.541 E1.3924
G1 X124.860 Y65.869 E1.6592
G1 X124.860 Y65.304 E1.6780
G1 X118.623 Y71.541 E1.9714
G1 X118.057 Y71.541 E1.9902
G1 X124.860 Y64.738 E2.3102
G1 X124.860 Y64.172 E2.3290
G1 X122.783 Y66.249 E2.4267
G1 X122.288 Y67.107 E2.4596
G1 X121.925 Y67.107 E2.4717
G1 X117.491 Y71.541 E2.6802
G1 X116.926 Y71.541 E2.6991
G1 X121.359 Y67.107 E2.9076
G1 X120.794 Y67.107 E2.9264
G1 X116.360 Y71.541 E3.1350
G1 X115.794 Y71.541 E3.1538
G1 X120.228 Y67.107 E3.3623
G1 X119.662 Y67.107 E3.3811
G1 X115.229 Y71.541 E3.5897
G1 X114.663 Y71.541 E3.6085
G1 X119.097 Y67.107 E3.8170
G1 X118.531 Y67.107 E3.8359
G1 X114.097 Y71.541 E4.0444
G1 X113.532 Y71.541 E4.0632
G1 X117.965 Y67.107 E4.2718
G1 X117.400 Y67.107 E4.2906
G1 X112.966 Y71.541 E4.4991
G1 X112.400 Y71.541 E4.5179
G1 X116.834 Y67.107 E4.7265
G1 X116.612 Y67.107 E4.7339
G1 X116.486 Y66.889 E4.7422
G1 X111.835 Y71.541 E4.9611
G1 X111.269 Y71.541 E4.9799
G1 X116.279 Y66.530 E5.2155
G1 X116.072 Y66.172 E5.2293
G1 X110.703 Y71.541 E5.4819
G1 X110.137 Y71.541 E5.5007
G1 X115.865 Y65.813 E5.7701
G1 X115.658 Y65.455 E5.7839
G1 X109.572 Y71.541 E6.0701
G1 X109.006 Y71.541 E6.0890
G1 X115.451 Y65.096 E6.3921
G1 X115.244 Y64.737 E6.4059
G1 X108.440 Y71.541 E6.7259
G1 X107.875 Y71.541 E6.7447
G1 X115.037 Y64.379 E7.0816
G1 X114.830 Y64.020 E7.0954
G1 X107.309 Y71.541 E7.4491
G1 X106.743 Y71.541 E7.4680
G1 X114.623 Y63.661 E7.8386
G1 X114.416 Y63.303 E7.8524
G1 X106.178 Y71.541 E8.2398
G1 X105.612 Y71.541 E8.2587
G1 X114.209 Y62.944 E8.6630
G1 X114.002 Y62.586 E8.6768
G1 X105.046 Y71.541 E9.0980
G1 X104.481 Y71.541 E9.1169
G1 X113.795 Y62.227 E9.5550
G1 X113.775 Y62.192 E9.5563
G1 X114.473 Y60.983 E9.6027
G1 X103.915 Y71.541 E10.0993
G1 X103.349 Y71.541 E10.1181
G1 X115.245 Y59.645 E10.6777
G1 X116.018 Y58.306 E10.7291
G1 X102.784 Y71.541 E11.3516
G1 X102.218 Y71.541 E11.3704
G1 X120.915 Y52.844 E12.2499
G1 X120.350 Y52.844 E12.2687
G1 X101.652 Y71.541 E13.1482
G1 X101.087 Y71.541 E13.1670
G1 X119.784 Y52.844 E14.0464
G1 X119.218 Y52.844 E14.0653
G1 X100.521 Y71.541 E14.9447
G1 X99.955 Y71.541 E14.9635
G1 X118.653 Y52.844 E15.8430
G1 X118.087 Y52.844 E15.8618
G1 X99.389 Y71.541 E16.7413
G1 X98.824 Y71.541 E16.7601
G1 X117.521 Y52.844 E17.6396
G1 X116.955 Y52.844 E17.6584
G1 X98.258 Y71.541 E18.5379
G1 X97.692 Y71.541 E18.5567
G1 X116.390 Y52.844 E19.4361
G1 X115.824 Y52.844 E19.4550
G1 X97.127 Y71.541 E20.3344
G1 X96.561 Y71.541 E20.3532
G1 X115.258 Y52.844 E21.2327
G1 X114.693 Y52.844 E21.2515
G1 X95.995 Y71.541 E22.1310
G1 X95.430 Y71.541 E22.1498
G1 X114.127 Y52.844 E23.0293
G1 X113.561 Y52.844 E23.0481
G1 X94.864 Y71.541 E23.9276
G1 X94.298 Y71.541 E23.9464
G1 X112.996 Y52.844 E24.8258
G1 X112.430 Y52.844 E24.8447
G1 X93.733 Y71.541 E25.7241
G1 X93.167 Y71.541 E25.7429
G1 X111.864 Y52.844 E26.6224
G1 X111.299 Y52.844 E26.6412
G1 X92.601 Y71.541 E27.5207
G1 X92.036 Y71.541 E27.5395
G1 X110.733 Y52.844 E28.4190
G1 X110.167 Y52.844 E28.4378
G1 X91.470 Y71.541 E29.3173
G1 X90.904 Y71.541 E29.3361
G1 X109.602 Y52.844 E30.2155
G1 X109.036 Y52.844 E30.2344
G1 X90.339 Y71.541 E31.1138
G1 X89.773 Y71.541 E31.1326
G1 X108.470 Y52.844 E32.0121
G1 X107.905 Y52.844 E32.0309
G1 X89.207 Y71.541 E32.9104
G1 X88.641 Y71.541 E32.9292
G1 X107.339 Y52.844 E33.8087
G1 X106.773 Y52.844 E33.8275
G1 X88.076 Y71.541 E34.7069
G1 X87.510 Y71.541 E34.7258
G1 X106.207 Y52.844 E35.6052
G1 X105.642 Y52.844 E35.6240
G1 X86.944 Y71.541 E36.5035
G1 X86.379 Y71.541 E36.5223
G1 X105.076 Y52.844 E37.4018
G1 X104.510 Y52.844 E37.4206
G1 X85.813 Y71.541 E38.3001
G1 X85.247 Y71.541 E38.3189
G1 X103.945 Y52.844 E39.1984
G1 X103.379 Y52.844 E39.2172
G1 X84.682 Y71.541 E40.0966
G1 X84.116 Y71.541 E40.1155
G1 X102.813 Y52.844 E40.9949
G1 X102.248 Y52.844 E41.0137
G1 X83.550 Y71.541 E41.8932
G1 X82.985 Y71.541 E41.9120
G1 X101.682 Y52.844 E42.7915
G1 X101.116 Y52.844 E42.8103
G1 X82.419 Y71.541 E43.6898
G1 X81.853 Y71.541 E43.7086
G1 X100.551 Y52.844 E44.5881
G1 X99.985 Y52.844 E44.6069
G1 X81.288 Y71.541 E45.4863
G1 X80.722 Y71.541 E45.5052
G1 X99.419 Y52.844 E46.3846
G1 X98.854 Y52.844 E46.4034
G1 X80.156 Y71.541 E47.2829
G1 X79.590 Y71.541 E47.3017
G1 X98.288 Y52.844 E48.1812
G1 X97.722 Y52.844 E48.2000
G1 X79.025 Y71.541 E49.0795
G1 X78.459 Y71.541 E49.0983
G1 X97.157 Y52.844 E49.9778
G1 X96.591 Y52.844 E49.9966
