; G-Code generated by Simplify3D(R) Version 3.0.2
; Sep 7, 2015 at 11:32:52 AM
; Settings Summary
;   processName,Process1
;   applyToModels,Z_Knob
;   profileName,PrinterBot Simple Metal Custom (modified)
;   profileVersion,2015-05-01 08:00:00
;   baseProfile,Default (modified)
;   printMaterial,PLA
;   printQuality,Medium
;   printExtruders,
;   extruderName,Primary Extruder
;   extruderToolheadNumber,0
;   extruderDiameter,0.4
;   extruderAutoWidth,0
;   extruderWidth,0.4
;   extrusionMultiplier,1
;   extruderUseRetract,1
;   extruderRetractionDistance,1
;   extruderExtraRestartDistance,0
;   extruderRetractionZLift,0
;   extruderRetractionSpeed,1800
;   extruderUseCoasting,0
;   extruderCoastingDistance,0.2
;   extruderUseWipe,0
;   extruderWipeDistance,5
;   primaryExtruder,0
;   layerHeight,0.2
;   topSolidLayers,3
;   bottomSolidLayers,3
;   perimeterOutlines,2
;   printPerimetersInsideOut,1
;   startPointOption,2
;   startPointOriginX,0
;   startPointOriginY,0
;   startPointOriginZ,300
;   sequentialIslands,0
;   spiralVaseMode,0
;   firstLayerHeightPercentage,90
;   firstLayerWidthPercentage,100
;   firstLayerUnderspeed,0.5
;   useRaft,0
;   raftExtruder,0
;   raftLayers,3
;   raftOffset,3
;   raftSeparationDistance,0.14
;   raftInfill,85
;   disableRaftBaseLayers,0
;   useSkirt,1
;   skirtExtruder,0
;   skirtLayers,1
;   skirtOutlines,4
;   skirtOffset,4
;   usePrimePillar,0
;   primePillarExtruder,999
;   primePillarWidth,12
;   primePillarLocation,7
;   primePillarSpeedMultiplier,1
;   useOozeShield,0
;   oozeShieldExtruder,999
;   oozeShieldOffset,2
;   oozeShieldOutlines,1
;   oozeShieldSidewallShape,1
;   oozeShieldSidewallAngle,30
;   oozeShieldSpeedMultiplier,1
;   infillExtruder,0
;   internalInfillPattern,Rectilinear
;   externalInfillPattern,Rectilinear
;   infillPercentage,50
;   outlineOverlapPercentage,15
;   infillExtrusionWidthPercentage,100
;   minInfillLength,5
;   infillLayerInterval,1
;   infillAngles,45,-45
;   overlapInfillAngles,0
;   generateSupport,0
;   supportExtruder,0
;   supportInfillPercentage,30
;   supportExtraInflation,0
;   denseSupportLayers,0
;   denseSupportInfillPercentage,70
;   supportLayerInterval,1
;   supportHorizontalPartOffset,0.3
;   supportUpperSeparationLayers,1
;   supportLowerSeparationLayers,1
;   supportType,0
;   supportGridSpacing,4
;   maxOverhangAngle,45
;   supportAngles,0
;   temperatureName,Primary Extruder,Heated Bed
;   temperatureNumber,0,1
;   temperatureSetpointCount,2,3
;   temperatureSetpointLayers,1,2,1,2,3
;   temperatureSetpointTemperatures,210,200,70,65,63
;   temperatureStabilizeAtStartup,1,1
;   temperatureHeatedBed,0,1
;   temperatureRelayBetweenLayers,0,0
;   temperatureRelayBetweenLoops,0,0
;   fanLayers,1,2
;   fanSpeeds,0,100
;   blipFanToFullPower,1
;   adjustSpeedForCooling,1
;   minSpeedLayerTime,15
;   minCoolingSpeedSlowdown,20
;   increaseFanForCooling,0
;   minFanLayerTime,45
;   maxCoolingFanSpeed,100
;   increaseFanForBridging,0
;   bridgingFanSpeed,100
;   use5D,1
;   relativeEdistances,0
;   allowEaxisZeroing,1
;   independentExtruderAxes,0
;   includeM10123,0
;   stickySupport,1
;   applyToolheadOffsets,0
;   gcodeXoffset,0
;   gcodeYoffset,0
;   gcodeZoffset,0
;   overrideMachineDefinition,1
;   machineTypeOverride,0
;   strokeXoverride,150
;   strokeYoverride,150
;   strokeZoverride,150
;   originOffsetXoverride,0
;   originOffsetYoverride,0
;   originOffsetZoverride,0
;   homeXdirOverride,-1
;   homeYdirOverride,-1
;   homeZdirOverride,-1
;   flipXoverride,1
;   flipYoverride,-1
;   flipZoverride,1
;   toolheadOffsets,0,0|0,0|0,0|0,0|0,0|0,0
;   overrideFirmwareConfiguration,1
;   firmwareTypeOverride,RepRap (Marlin/Repetier/Sprinter)
;   GPXconfigOverride,r2
;   baudRateOverride,250000
;   overridePrinterModels,1
;   printerModelsOverride
;   startingGcode,G28 X0 Y0 ; home X and Y axes,G29 ; probe z
;   layerChangeGcode,
;   retractionGcode,
;   toolChangeGcode,
;   endingGcode,M104 S0 T0 ; turn off extruder,M140 S0 T1 ; turn off bed,G28 X0 Y0 ; home,M84 ; disable motors
;   createX3G,0
;   celebration,0
;   celebrationSong,Random Song
;   createMB5G,0
;   postProcessing,
;   defaultSpeed,2700
;   outlineUnderspeed,0.8
;   solidInfillUnderspeed,0.8
;   supportUnderspeed,0.8
;   rapidXYspeed,4200
;   rapidZspeed,1002
;   minBridgingArea,50
;   bridgingExtraInflation,0
;   bridgingExtrusionMultiplier,1
;   bridgingSpeedMultiplier,1
;   filamentDiameter,1.75
;   filamentPricePerKg,22
;   filamentDensity,1.25
;   useMinPrintHeight,0
;   minPrintHeight,0
;   useMaxPrintHeight,0
;   maxPrintHeight,0
;   useDiaphragm,0
;   diaphragmLayerInterval,20
;   robustSlicing,1
;   mergeAllIntoSolid,0
;   onlyRetractWhenCrossingOutline,1
;   retractBetweenLayers,1
;   useRetractionMinTravel,0
;   retractionMinTravel,3
;   retractWhileWiping,0
;   onlyWipeOutlines,1
;   avoidCrossingOutline,0
;   maxMovementDetourFactor,3
;   toolChangeRetractionDistance,12
;   toolChangeExtraRestartDistance,-0.5
;   toolChangeRetractionSpeed,600
;   allowThinWallGapFill,1
;   thinWallAllowedOverlapPercentage,10
;   horizontalSizeCompensation,0
G90
M82
M106 S0
M140 S70
M190 S70
M104 S210 T0
M109 S210 T0
G28 X0 Y0 ; home X and Y axes
G29 ; probe z
G92 E0
G1 E-1.0000 F1800
G1 Z0.180 F1002
; layer 1, Z = 0.18
T0
; tool H0.200 W0.400
; skirt
G1 X62.555 Y62.731 F4200
G1 E0.0000 F540
G92 E0
G1 X62.729 Y62.557 E0.0082 F1350
G1 X62.755 Y62.532 E0.0094
G1 X63.860 Y61.536 E0.0589
G1 X63.885 Y61.515 E0.0600
G1 X64.060 Y61.372 E0.0675
G1 X64.086 Y61.352 E0.0686
G1 X65.121 Y60.585 E0.1114
G1 X65.149 Y60.565 E0.1125
G1 X65.337 Y60.439 E0.1201
G1 X65.366 Y60.421 E0.1212
G1 X66.654 Y59.646 E0.1712
G1 X66.686 Y59.628 E0.1724
G1 X66.903 Y59.513 E0.1806
G1 X66.935 Y59.497 E0.1818
G1 X68.283 Y58.868 E0.2313
G1 X68.314 Y58.854 E0.2324
G1 X68.522 Y58.769 E0.2399
G1 X68.554 Y58.757 E0.2410
G1 X69.769 Y58.326 E0.2839
G1 X69.801 Y58.315 E0.2850
G1 X70.019 Y58.249 E0.2926
G1 X70.051 Y58.241 E0.2937
G1 X71.508 Y57.877 E0.3436
G1 X71.544 Y57.869 E0.3449
G1 X71.785 Y57.822 E0.3530
G1 X71.821 Y57.816 E0.3542
G1 X73.304 Y57.607 E0.4041
G1 X73.341 Y57.603 E0.4053
G1 X73.585 Y57.582 E0.4135
G1 X73.622 Y57.579 E0.4147
G1 X75.102 Y57.527 E0.4639
G1 X75.127 Y57.526 E0.4647
G1 X75.292 Y57.526 E0.4702
G1 X75.317 Y57.527 E0.4711
G1 X75.902 Y57.547 E0.4905
G1 X75.926 Y57.548 E0.4913
G1 X76.089 Y57.560 E0.4968
G1 X76.113 Y57.562 E0.4976
G1 X77.550 Y57.712 E0.5456
G1 X77.584 Y57.717 E0.5468
G1 X77.806 Y57.751 E0.5543
G1 X77.839 Y57.757 E0.5554
G1 X79.106 Y58.013 E0.5984
G1 X79.139 Y58.021 E0.5995
G1 X79.359 Y58.077 E0.6070
G1 X79.392 Y58.086 E0.6082
G1 X80.826 Y58.525 E0.6581
G1 X80.861 Y58.536 E0.6593
G1 X81.091 Y58.620 E0.6674
G1 X81.125 Y58.633 E0.6686
G1 X82.503 Y59.217 E0.7184
G1 X82.536 Y59.232 E0.7196
G1 X82.756 Y59.340 E0.7278
G1 X82.789 Y59.357 E0.7290
G1 X84.105 Y60.085 E0.7790
G1 X84.134 Y60.102 E0.7801
G1 X84.327 Y60.221 E0.7877
G1 X84.355 Y60.239 E0.7888
G1 X85.417 Y60.968 E0.8316
G1 X85.444 Y60.988 E0.8328
G1 X85.624 Y61.125 E0.8403
G1 X85.650 Y61.146 E0.8414
G1 X86.783 Y62.095 E0.8905
G1 X86.808 Y62.117 E0.8916
G1 X86.973 Y62.270 E0.8991
G1 X86.997 Y62.293 E0.9002
G1 X87.899 Y63.209 E0.9430
G1 X87.922 Y63.234 E0.9441
G1 X88.073 Y63.403 E0.9517
G1 X88.095 Y63.429 E0.9528
G1 X89.042 Y64.598 E1.0029
G1 X89.065 Y64.627 E1.0041
G1 X89.209 Y64.826 E1.0122
G1 X89.230 Y64.856 E1.0135
G1 X90.041 Y66.105 E1.0630
G1 X90.059 Y66.133 E1.0641
G1 X90.172 Y66.327 E1.0716
G1 X90.189 Y66.357 E1.0727
G1 X90.783 Y67.498 E1.1155
G1 X90.798 Y67.528 E1.1166
G1 X90.893 Y67.734 E1.1242
G1 X90.907 Y67.765 E1.1253
G1 X91.470 Y69.159 E1.1753
G1 X91.483 Y69.193 E1.1765
G1 X91.563 Y69.425 E1.1847
G1 X91.574 Y69.460 E1.1859
G1 X91.985 Y70.891 E1.2354
G1 X91.993 Y70.924 E1.2365
G1 X92.045 Y71.143 E1.2440
G1 X92.052 Y71.176 E1.2451
G1 X92.286 Y72.434 E1.2877
G1 X92.291 Y72.464 E1.2887
G1 X92.320 Y72.669 E1.2956
G1 X92.323 Y72.699 E1.2966
G1 X92.445 Y73.962 E1.3388
G1 X92.447 Y73.996 E1.3399
G1 X92.458 Y74.220 E1.3474
G1 X92.459 Y74.254 E1.3485
G1 X92.459 Y75.742 E1.3980
G1 X92.459 Y75.779 E1.3992
G1 X92.446 Y76.024 E1.4074
G1 X92.443 Y76.061 E1.4086
G1 X92.286 Y77.563 E1.4589
G1 X92.281 Y77.597 E1.4600
G1 X92.247 Y77.821 E1.4675
G1 X92.241 Y77.854 E1.4687
G1 X91.986 Y79.108 E1.5112
G1 X91.979 Y79.141 E1.5123
G1 X91.923 Y79.359 E1.5198
G1 X91.914 Y79.391 E1.5209
G1 X91.483 Y80.805 E1.5701
G1 X91.472 Y80.837 E1.5712
G1 X91.396 Y81.049 E1.5787
G1 X91.384 Y81.080 E1.5798
G1 X90.891 Y82.272 E1.6227
G1 X90.877 Y82.303 E1.6238
G1 X90.781 Y82.508 E1.6314
G1 X90.766 Y82.538 E1.6325
G1 X90.064 Y83.859 E1.6822
G1 X90.046 Y83.890 E1.6835
G1 X89.919 Y84.101 E1.6916
G1 X89.900 Y84.131 E1.6928
G1 X89.065 Y85.370 E1.7425
G1 X89.046 Y85.398 E1.7436
G1 X88.911 Y85.579 E1.7511
G1 X88.890 Y85.605 E1.7523
G1 X88.070 Y86.600 E1.7951
G1 X88.049 Y86.626 E1.7963
G1 X87.897 Y86.793 E1.8038
G1 X87.874 Y86.817 E1.8049
G1 X86.821 Y87.870 E1.8544
G1 X86.795 Y87.895 E1.8556
G1 X86.613 Y88.059 E1.8638
G1 X86.585 Y88.083 E1.8650
G1 X85.427 Y89.022 E1.9146
G1 X85.403 Y89.041 E1.9156
G1 X85.238 Y89.164 E1.9224
G1 X85.213 Y89.181 E1.9234
G1 X84.336 Y89.773 E1.9586
G1 X84.310 Y89.790 E1.9597
G1 X84.135 Y89.898 E1.9665
G1 X84.108 Y89.913 E1.9675
G1 X82.812 Y90.632 E2.0168
G1 X82.779 Y90.649 E2.0180
G1 X82.559 Y90.757 E2.0262
G1 X82.526 Y90.772 E2.0274
G1 X81.148 Y91.358 E2.0772
G1 X81.116 Y91.370 E2.0783
G1 X80.904 Y91.448 E2.0859
G1 X80.873 Y91.459 E2.0870
G1 X79.644 Y91.847 E2.1298
G1 X79.612 Y91.857 E2.1309
G1 X79.394 Y91.914 E2.1384
G1 X79.361 Y91.922 E2.1396
G1 X77.907 Y92.232 E2.1890
G1 X77.871 Y92.238 E2.1902
G1 X77.629 Y92.277 E2.1984
G1 X77.593 Y92.282 E2.1996
G1 X76.089 Y92.441 E2.2499
G1 X76.056 Y92.444 E2.2510
G1 X75.829 Y92.457 E2.2585
G1 X75.795 Y92.458 E2.2597
G1 X74.514 Y92.469 E2.3023
G1 X74.480 Y92.468 E2.3034
G1 X74.256 Y92.460 E2.3109
G1 X74.222 Y92.458 E2.3120
G1 X72.742 Y92.329 E2.3614
G1 X72.705 Y92.325 E2.3626
G1 X72.462 Y92.291 E2.3708
G1 X72.426 Y92.285 E2.3720
G1 X70.940 Y91.997 E2.4224
G1 X70.907 Y91.989 E2.4235
G1 X70.686 Y91.936 E2.4310
G1 X70.654 Y91.927 E2.4322
G1 X69.427 Y91.563 E2.4747
G1 X69.395 Y91.553 E2.4758
G1 X69.183 Y91.479 E2.4833
G1 X69.152 Y91.467 E2.4844
G1 X67.784 Y90.915 E2.5335
G1 X67.753 Y90.902 E2.5346
G1 X67.549 Y90.808 E2.5421
G1 X67.519 Y90.793 E2.5432
G1 X66.376 Y90.200 E2.5860
G1 X66.346 Y90.183 E2.5872
G1 X66.150 Y90.069 E2.5947
G1 X66.121 Y90.051 E2.5958
G1 X64.868 Y89.237 E2.6455
G1 X64.840 Y89.219 E2.6467
G1 X64.657 Y89.087 E2.6541
G1 X64.631 Y89.067 E2.6553
G1 X63.640 Y88.280 E2.6973
G1 X63.614 Y88.258 E2.6985
G1 X63.445 Y88.110 E2.7059
G1 X63.420 Y88.087 E2.7070
G1 X62.341 Y87.046 E2.7569
G1 X62.317 Y87.022 E2.7581
G1 X62.161 Y86.857 E2.7656
G1 X62.139 Y86.832 E2.7667
G1 X61.306 Y85.857 E2.8094
G1 X61.285 Y85.831 E2.8105
G1 X61.147 Y85.653 E2.8180
G1 X61.127 Y85.626 E2.8191
G1 X60.274 Y84.409 E2.8685
G1 X60.254 Y84.378 E2.8698
G1 X60.123 Y84.170 E2.8779
G1 X60.105 Y84.139 E2.8791
G1 X59.371 Y82.817 E2.9294
G1 X59.355 Y82.787 E2.9305
G1 X59.255 Y82.583 E2.9381
G1 X59.241 Y82.553 E2.9392
G1 X58.730 Y81.378 E2.9818
G1 X58.717 Y81.347 E2.9829
G1 X58.637 Y81.137 E2.9904
G1 X58.626 Y81.105 E2.9915
G1 X58.166 Y79.692 E3.0410
G1 X58.156 Y79.657 E3.0422
G1 X58.092 Y79.420 E3.0503
G1 X58.084 Y79.384 E3.0516
G1 X57.770 Y77.913 E3.1016
G1 X57.763 Y77.879 E3.1027
G1 X57.727 Y77.656 E3.1103
G1 X57.722 Y77.622 E3.1114
G1 X57.576 Y76.344 E3.1542
G1 X57.573 Y76.310 E3.1553
G1 X57.558 Y76.085 E3.1628
G1 X57.557 Y76.052 E3.1639
G1 X57.530 Y74.575 E3.2131
G1 X57.531 Y74.541 E3.2142
G1 X57.537 Y74.317 E3.2216
G1 X57.539 Y74.283 E3.2228
G1 X57.639 Y72.999 E3.2656
G1 X57.643 Y72.966 E3.2667
G1 X57.671 Y72.741 E3.2743
G1 X57.676 Y72.707 E3.2754
G1 X57.937 Y71.226 E3.3254
G1 X57.944 Y71.190 E3.3266
G1 X58.000 Y70.951 E3.3348
G1 X58.009 Y70.915 E3.3360
G1 X58.418 Y69.485 E3.3855
G1 X58.428 Y69.453 E3.3866
G1 X58.501 Y69.240 E3.3941
G1 X58.512 Y69.208 E3.3952
G1 X58.984 Y68.009 E3.4381
G1 X58.997 Y67.978 E3.4392
G1 X59.090 Y67.771 E3.4467
G1 X59.104 Y67.741 E3.4479
G1 X59.777 Y66.420 E3.4972
G1 X59.791 Y66.393 E3.4982
G1 X59.892 Y66.215 E3.5050
G1 X59.908 Y66.189 E3.5060
G1 X60.450 Y65.320 E3.5401
G1 X60.465 Y65.297 E3.5410
G1 X60.569 Y65.145 E3.5471
G1 X60.584 Y65.123 E3.5480
G1 X61.337 Y64.104 E3.5901
G1 X61.358 Y64.078 E3.5912
G1 X61.501 Y63.902 E3.5988
G1 X61.523 Y63.876 E3.5999
G1 X62.530 Y62.758 E3.6500
G1 X62.555 Y62.731 E3.6512
G1 X62.842 Y63.010 F4200
G92 E0
G1 X63.008 Y62.844 E0.0078 F1350
G1 X63.027 Y62.826 E0.0087
G1 X64.124 Y61.837 E0.0578
G1 X64.142 Y61.821 E0.0586
G1 X64.309 Y61.685 E0.0658
G1 X64.328 Y61.670 E0.0666
G1 X65.355 Y60.909 E0.1091
G1 X65.375 Y60.895 E0.1099
G1 X65.556 Y60.774 E0.1171
G1 X65.576 Y60.761 E0.1179
G1 X66.856 Y59.992 E0.1676
G1 X66.879 Y59.979 E0.1685
G1 X67.086 Y59.869 E0.1763
G1 X67.109 Y59.857 E0.1772
G1 X68.448 Y59.232 E0.2263
G1 X68.470 Y59.222 E0.2271
G1 X68.669 Y59.141 E0.2343
G1 X68.692 Y59.132 E0.2351
G1 X69.898 Y58.704 E0.2776
G1 X69.921 Y58.697 E0.2784
G1 X70.129 Y58.634 E0.2857
G1 X70.153 Y58.627 E0.2865
G1 X71.600 Y58.267 E0.3361
G1 X71.625 Y58.261 E0.3370
G1 X71.856 Y58.216 E0.3448
G1 X71.882 Y58.212 E0.3456
G1 X73.355 Y58.004 E0.3951
G1 X73.381 Y58.001 E0.3960
G1 X73.615 Y57.980 E0.4038
G1 X73.641 Y57.979 E0.4047
G1 X75.113 Y57.927 E0.4537
G1 X75.130 Y57.926 E0.4542
G1 X75.289 Y57.926 E0.4595
G1 X75.306 Y57.927 E0.4601
G1 X75.884 Y57.947 E0.4793
G1 X75.902 Y57.948 E0.4799
G1 X76.057 Y57.959 E0.4851
G1 X76.075 Y57.960 E0.4857
G1 X77.504 Y58.110 E0.5335
G1 X77.528 Y58.113 E0.5343
G1 X77.741 Y58.145 E0.5414
G1 X77.764 Y58.150 E0.5422
G1 X79.022 Y58.405 E0.5849
G1 X79.045 Y58.410 E0.5857
G1 X79.256 Y58.463 E0.5929
G1 X79.279 Y58.470 E0.5937
G1 X80.704 Y58.906 E0.6433
G1 X80.729 Y58.914 E0.6442
G1 X80.949 Y58.994 E0.6520
G1 X80.974 Y59.004 E0.6528
G1 X82.342 Y59.584 E0.7023
G1 X82.365 Y59.594 E0.7031
G1 X82.576 Y59.697 E0.7109
G1 X82.600 Y59.709 E0.7118
G1 X83.907 Y60.432 E0.7615
G1 X83.928 Y60.445 E0.7623
G1 X84.113 Y60.559 E0.7695
G1 X84.133 Y60.572 E0.7703
G1 X85.187 Y61.295 E0.8128
G1 X85.206 Y61.309 E0.8136
G1 X85.378 Y61.440 E0.8208
G1 X85.397 Y61.455 E0.8216
G1 X86.522 Y62.398 E0.8705
G1 X86.540 Y62.414 E0.8712
G1 X86.698 Y62.560 E0.8784
G1 X86.715 Y62.577 E0.8792
G1 X87.610 Y63.487 E0.9217
G1 X87.627 Y63.504 E0.9225
G1 X87.772 Y63.666 E0.9297
G1 X87.787 Y63.684 E0.9305
G1 X88.728 Y64.846 E0.9802
G1 X88.744 Y64.867 E0.9811
G1 X88.883 Y65.057 E0.9889
G1 X88.897 Y65.079 E0.9898
G1 X89.703 Y66.319 E1.0390
G1 X89.716 Y66.339 E1.0398
G1 X89.824 Y66.525 E1.0469
G1 X89.836 Y66.546 E1.0477
G1 X90.427 Y67.678 E1.0902
G1 X90.437 Y67.700 E1.0910
G1 X90.528 Y67.897 E1.0982
G1 X90.538 Y67.919 E1.0990
G1 X91.097 Y69.304 E1.1487
G1 X91.106 Y69.328 E1.1496
G1 X91.183 Y69.551 E1.1574
G1 X91.191 Y69.576 E1.1582
G1 X91.599 Y70.997 E1.2074
G1 X91.605 Y71.020 E1.2082
G1 X91.655 Y71.230 E1.2154
G1 X91.660 Y71.254 E1.2162
G1 X91.892 Y72.503 E1.2585
G1 X91.895 Y72.525 E1.2592
G1 X91.923 Y72.720 E1.2658
G1 X91.926 Y72.742 E1.2665
G1 X92.046 Y73.996 E1.3084
G1 X92.048 Y74.020 E1.3092
G1 X92.058 Y74.235 E1.3163
G1 X92.059 Y74.259 E1.3171
G1 X92.059 Y75.737 E1.3663
G1 X92.059 Y75.763 E1.3672
G1 X92.047 Y75.998 E1.3750
G1 X92.045 Y76.024 E1.3759
G1 X91.888 Y77.517 E1.4258
G1 X91.885 Y77.541 E1.4266
G1 X91.852 Y77.756 E1.4338
G1 X91.848 Y77.779 E1.4346
G1 X91.595 Y79.024 E1.4769
G1 X91.590 Y79.047 E1.4777
G1 X91.537 Y79.256 E1.4848
G1 X91.530 Y79.279 E1.4856
G1 X91.101 Y80.683 E1.5345
G1 X91.094 Y80.706 E1.5353
G1 X91.021 Y80.909 E1.5424
G1 X91.012 Y80.931 E1.5432
G1 X90.523 Y82.114 E1.5858
G1 X90.513 Y82.137 E1.5866
G1 X90.421 Y82.333 E1.5938
G1 X90.410 Y82.354 E1.5946
G1 X89.713 Y83.666 E1.6440
G1 X89.700 Y83.689 E1.6449
G1 X89.579 Y83.890 E1.6527
G1 X89.565 Y83.912 E1.6536
G1 X88.736 Y85.143 E1.7029
G1 X88.722 Y85.162 E1.7037
G1 X88.593 Y85.336 E1.7109
G1 X88.578 Y85.355 E1.7117
G1 X87.765 Y86.342 E1.7543
G1 X87.749 Y86.360 E1.7551
G1 X87.604 Y86.520 E1.7623
G1 X87.587 Y86.538 E1.7631
G1 X86.542 Y87.584 E1.8122
G1 X86.523 Y87.602 E1.8131
