; G-Code generated by Simplify3D(R) Version 3.0.2
; Oct 30, 2015 at 10:34:07 AM
; Settings Summary
;   processName,Process1
;   applyToModels,electronicsCaseFront
;   profileName,PrinterBot Simple Metal Custom (modified)
;   profileVersion,2015-05-01 08:00:00
;   baseProfile,Default (modified)
;   printMaterial,PLA
;   printQuality,Medium
;   printExtruders,
;   extruderName,Primary Extruder
;   extruderToolheadNumber,0
;   extruderDiameter,0.4
;   extruderAutoWidth,0
;   extruderWidth,0.4
;   extrusionMultiplier,1
;   extruderUseRetract,1
;   extruderRetractionDistance,1.5
;   extruderExtraRestartDistance,0.1
;   extruderRetractionZLift,0
;   extruderRetractionSpeed,1800
;   extruderUseCoasting,0
;   extruderCoastingDistance,0.2
;   extruderUseWipe,0
;   extruderWipeDistance,5
;   primaryExtruder,0
;   layerHeight,0.3
;   topSolidLayers,3
;   bottomSolidLayers,3
;   perimeterOutlines,2
;   printPerimetersInsideOut,1
;   startPointOption,2
;   startPointOriginX,0
;   startPointOriginY,0
;   startPointOriginZ,300
;   sequentialIslands,0
;   spiralVaseMode,0
;   firstLayerHeightPercentage,60
;   firstLayerWidthPercentage,100
;   firstLayerUnderspeed,0.5
;   useRaft,0
;   raftExtruder,0
;   raftLayers,3
;   raftOffset,3
;   raftSeparationDistance,0.14
;   raftInfill,85
;   disableRaftBaseLayers,0
;   useSkirt,1
;   skirtExtruder,0
;   skirtLayers,1
;   skirtOutlines,3
;   skirtOffset,2
;   usePrimePillar,0
;   primePillarExtruder,999
;   primePillarWidth,12
;   primePillarLocation,7
;   primePillarSpeedMultiplier,1
;   useOozeShield,0
;   oozeShieldExtruder,999
;   oozeShieldOffset,2
;   oozeShieldOutlines,1
;   oozeShieldSidewallShape,1
;   oozeShieldSidewallAngle,30
;   oozeShieldSpeedMultiplier,1
;   infillExtruder,0
;   internalInfillPattern,Rectilinear
;   externalInfillPattern,Rectilinear
;   infillPercentage,15
;   outlineOverlapPercentage,15
;   infillExtrusionWidthPercentage,100
;   minInfillLength,5
;   infillLayerInterval,1
;   infillAngles,45,-45
;   overlapInfillAngles,0
;   generateSupport,0
;   supportExtruder,0
;   supportInfillPercentage,30
;   supportExtraInflation,0.4
;   denseSupportLayers,0
;   denseSupportInfillPercentage,70
;   supportLayerInterval,1
;   supportHorizontalPartOffset,0.3
;   supportUpperSeparationLayers,1
;   supportLowerSeparationLayers,1
;   supportType,0
;   supportGridSpacing,4
;   maxOverhangAngle,45
;   supportAngles,0
;   temperatureName,Primary Extruder,Heated Bed
;   temperatureNumber,0,1
;   temperatureSetpointCount,2,3
;   temperatureSetpointLayers,1,2,1,2,3
;   temperatureSetpointTemperatures,210,200,70,65,63
;   temperatureStabilizeAtStartup,1,1
;   temperatureHeatedBed,0,1
;   temperatureRelayBetweenLayers,0,0
;   temperatureRelayBetweenLoops,0,0
;   fanLayers,1,2,3
;   fanSpeeds,0,0,100
;   blipFanToFullPower,1
;   adjustSpeedForCooling,1
;   minSpeedLayerTime,15
;   minCoolingSpeedSlowdown,20
;   increaseFanForCooling,0
;   minFanLayerTime,45
;   maxCoolingFanSpeed,100
;   increaseFanForBridging,0
;   bridgingFanSpeed,100
;   use5D,1
;   relativeEdistances,0
;   allowEaxisZeroing,1
;   independentExtruderAxes,0
;   includeM10123,0
;   stickySupport,1
;   applyToolheadOffsets,0
;   gcodeXoffset,0
;   gcodeYoffset,0
;   gcodeZoffset,0
;   overrideMachineDefinition,1
;   machineTypeOverride,0
;   strokeXoverride,150
;   strokeYoverride,150
;   strokeZoverride,150
;   originOffsetXoverride,0
;   originOffsetYoverride,0
;   originOffsetZoverride,0
;   homeXdirOverride,-1
;   homeYdirOverride,-1
;   homeZdirOverride,-1
;   flipXoverride,1
;   flipYoverride,-1
;   flipZoverride,1
;   toolheadOffsets,0,0|0,0|0,0|0,0|0,0|0,0
;   overrideFirmwareConfiguration,1
;   firmwareTypeOverride,RepRap (Marlin/Repetier/Sprinter)
;   GPXconfigOverride,r2
;   baudRateOverride,250000
;   overridePrinterModels,1
;   printerModelsOverride
;   startingGcode,G28 X0 Y0 ; home X and Y axes,G29 ; probe z,M201 X1000 Y1000 ; acceleration settings
;   layerChangeGcode,
;   retractionGcode,
;   toolChangeGcode,
;   endingGcode,M104 S0 T0 ; turn off extruder,M140 S0 T1 ; turn off bed,G28 X0 Y0 ; home,M84 ; disable motors
;   createX3G,0
;   celebration,0
;   celebrationSong,Random Song
;   createMB5G,0
;   postProcessing,
;   defaultSpeed,3300
;   outlineUnderspeed,0.8
;   solidInfillUnderspeed,0.8
;   supportUnderspeed,0.8
;   rapidXYspeed,4800
;   rapidZspeed,1002
;   minBridgingArea,50
;   bridgingExtraInflation,0
;   bridgingExtrusionMultiplier,1
;   bridgingSpeedMultiplier,0.8
;   filamentDiameter,1.74
;   filamentPricePerKg,22
;   filamentDensity,1.25
;   useMinPrintHeight,0
;   minPrintHeight,0
;   useMaxPrintHeight,0
;   maxPrintHeight,0
;   useDiaphragm,0
;   diaphragmLayerInterval,20
;   robustSlicing,1
;   mergeAllIntoSolid,0
;   onlyRetractWhenCrossingOutline,1
;   retractBetweenLayers,1
;   useRetractionMinTravel,0
;   retractionMinTravel,3
;   retractWhileWiping,0
;   onlyWipeOutlines,1
;   avoidCrossingOutline,0
;   maxMovementDetourFactor,3
;   toolChangeRetractionDistance,12
;   toolChangeExtraRestartDistance,-0.5
;   toolChangeRetractionSpeed,600
;   allowThinWallGapFill,1
;   thinWallAllowedOverlapPercentage,10
;   horizontalSizeCompensation,0
G90
M82
M106 S0
M140 S70
M190 S70
M104 S210 T0
M109 S210 T0
G28 X0 Y0 ; home X and Y axes
G29 ; probe z
M201 X1000 Y1000 ; acceleration settings
G92 E0
G1 E-1.5000 F1800
G1 Z0.180 F1002
; layer 1, Z = 0.18
T0
; tool H0.300 W0.400
; skirt
G1 X9.828 Y5.714 F4800
G1 E0.1000 F540
G92 E0
G1 X9.938 Y5.550 E0.0099 F1650
G1 X10.730 Y4.758 E0.0665
G1 X10.893 Y4.649 E0.0764
G1 X11.810 Y4.269 E0.1265
G1 X12.004 Y4.231 E0.1364
G1 X137.996 Y4.231 E6.4947
G1 X138.190 Y4.269 E6.5046
G1 X139.107 Y4.649 E6.5547
G1 X139.270 Y4.758 E6.5647
G1 X140.062 Y5.550 E6.6212
G1 X140.172 Y5.714 E6.6311
G1 X140.552 Y6.631 E6.6812
G1 X140.590 Y6.824 E6.6912
G1 X140.590 Y145.707 E13.6999
G1 X140.438 Y146.074 E13.7200
G1 X138.985 Y147.527 E13.8237
G1 X138.617 Y147.679 E13.8438
G1 X11.383 Y147.679 E20.2647
G1 X11.015 Y147.527 E20.2848
G1 X9.562 Y146.074 E20.3885
G1 X9.410 Y145.707 E20.4085
G1 X9.410 Y6.824 E27.4173
G1 X9.448 Y6.631 E27.4272
G1 X9.828 Y5.714 E27.4773
G1 X10.183 Y5.903 F4800
G92 E0
G1 X10.248 Y5.805 E0.0060 F1650
G1 X10.985 Y5.069 E0.0585
G1 X11.083 Y5.003 E0.0645
G1 X11.927 Y4.654 E0.1106
G1 X12.043 Y4.631 E0.1166
G1 X137.957 Y4.631 E6.4708
G1 X138.073 Y4.654 E6.4768
G1 X138.917 Y5.003 E6.5229
G1 X139.015 Y5.069 E6.5289
G1 X139.752 Y5.805 E6.5814
G1 X139.817 Y5.903 E6.5874
G1 X140.167 Y6.748 E6.6335
G1 X140.190 Y6.864 E6.6395
G1 X140.190 Y145.627 E13.6422
G1 X140.099 Y145.848 E13.6543
G1 X138.758 Y147.188 E13.7499
G1 X138.538 Y147.279 E13.7620
G1 X11.462 Y147.279 E20.1749
G1 X11.242 Y147.188 E20.1869
G1 X9.901 Y145.848 E20.2826
G1 X9.810 Y145.627 E20.2946
G1 X9.810 Y6.864 E27.2974
G1 X9.833 Y6.748 E27.3033
G1 X10.183 Y5.903 E27.3495
G1 X10.537 Y6.093 F4800
G92 E0
G1 X10.559 Y6.060 E0.0020 F1650
G1 X11.240 Y5.380 E0.0506
G1 X11.272 Y5.358 E0.0525
G1 X12.044 Y5.038 E0.0947
G1 X12.082 Y5.031 E0.0967
G1 X137.918 Y5.031 E6.4470
G1 X137.956 Y5.038 E6.4490
G1 X138.728 Y5.358 E6.4911
G1 X138.760 Y5.380 E6.4931
G1 X139.441 Y6.060 E6.5417
G1 X139.463 Y6.093 E6.5436
G1 X139.782 Y6.864 E6.5858
G1 X139.790 Y6.903 E6.5878
G1 X139.790 Y145.548 E13.5845
G1 X139.760 Y145.621 E13.5885
G1 X138.532 Y146.849 E13.6762
G1 X138.458 Y146.879 E13.6802
G1 X11.542 Y146.879 E20.0851
G1 X11.468 Y146.849 E20.0891
G1 X10.240 Y145.621 E20.1767
G1 X10.210 Y145.548 E20.1807
G1 X10.210 Y6.903 E27.1775
G1 X10.218 Y6.864 E27.1794
G1 X10.537 Y6.093 E27.2216
G92 E0
G1 E-1.5000 F1800
; inner perimeter
G1 X13.010 Y7.831 F4800
G1 E0.1000 F1800
G92 E0
G1 X136.990 Y7.831 E6.2567 F1485
G1 X136.990 Y144.079 E13.1325
G1 X13.010 Y144.079 E19.3892
G1 X13.010 Y7.831 E26.2651
; outer perimeter
G1 X12.610 Y7.431 F4800
G92 E0
G1 X137.390 Y7.431 E6.2971 F1320
G1 X137.390 Y144.479 E13.2133
G1 X12.610 Y144.479 E19.5103
G1 X12.610 Y7.431 E26.4266
; inner perimeter
G1 X31.928 Y14.811 F4800
G92 E0
G1 X31.928 Y54.831 E2.0196 F1485
G1 X118.010 Y54.831 E6.3638
G1 X118.010 Y14.811 E8.3834
G1 X31.928 Y14.811 E12.7275
; outer perimeter
G1 X32.328 Y15.211 F4800
G92 E0
G1 X32.328 Y54.431 E1.9792 F1320
G1 X117.610 Y54.431 E6.2830
G1 X117.610 Y15.211 E8.2623
G1 X32.328 Y15.211 E12.5661
; inner perimeter
G1 X25.197 Y37.064 F4800
G92 E0
G1 X24.658 Y37.478 E0.0343 F1485
G1 X24.244 Y38.018 E0.0686
G1 X23.984 Y38.646 E0.1030
G1 X23.895 Y39.321 E0.1373
G1 X23.984 Y39.995 E0.1716
G1 X24.244 Y40.623 E0.2059
G1 X24.658 Y41.163 E0.2402
G1 X25.197 Y41.577 E0.2746
G1 X25.826 Y41.837 E0.3089
G1 X26.500 Y41.926 E0.3432
G1 X27.174 Y41.837 E0.3775
G1 X27.803 Y41.577 E0.4118
G1 X28.342 Y41.163 E0.4462
G1 X28.756 Y40.623 E0.4805
G1 X29.016 Y39.995 E0.5148
G1 X29.105 Y39.321 E0.5491
G1 X29.016 Y38.646 E0.5835
G1 X28.756 Y38.018 E0.6178
G1 X28.342 Y37.478 E0.6521
G1 X27.803 Y37.064 E0.6864
G1 X27.174 Y36.804 E0.7207
G1 X26.500 Y36.715 E0.7551
G1 X25.826 Y36.804 E0.7894
G1 X25.197 Y37.064 E0.8237
; outer perimeter
G1 X25.399 Y37.414 F4800
G92 E0
G1 X24.943 Y37.764 E0.0290 F1320
G1 X24.593 Y38.220 E0.0580
G1 X24.373 Y38.751 E0.0870
G1 X24.298 Y39.321 E0.1160
G1 X24.373 Y39.890 E0.1450
G1 X24.593 Y40.421 E0.1740
G1 X24.943 Y40.877 E0.2030
G1 X25.399 Y41.227 E0.2320
G1 X25.930 Y41.447 E0.2611
G1 X26.500 Y41.522 E0.2901
G1 X27.070 Y41.447 E0.3191
G1 X27.601 Y41.227 E0.3481
G1 X28.057 Y40.877 E0.3771
G1 X28.407 Y40.421 E0.4061
G1 X28.627 Y39.890 E0.4351
G1 X28.702 Y39.321 E0.4641
G1 X28.627 Y38.751 E0.4931
G1 X28.407 Y38.220 E0.5221
G1 X28.057 Y37.764 E0.5511
G1 X27.601 Y37.414 E0.5801
G1 X27.070 Y37.194 E0.6091
G1 X26.500 Y37.119 E0.6381
G1 X25.930 Y37.194 E0.6671
G1 X25.399 Y37.414 E0.6961
G92 E0
G1 E-1.5000 F1800
; inner perimeter
G1 X20.497 Y67.173 F4800
G1 E0.1000 F1800
G92 E0
G1 X20.085 Y67.344 E0.0225 F1485
G1 X19.732 Y67.615 E0.0449
G1 X19.461 Y67.968 E0.0674
G1 X19.291 Y68.379 E0.0899
G1 X19.233 Y68.821 E0.1123
G1 X19.291 Y69.262 E0.1348
G1 X19.461 Y69.673 E0.1573
G1 X19.732 Y70.026 E0.1797
G1 X20.085 Y70.297 E0.2022
G1 X20.497 Y70.468 E0.2246
G1 X20.938 Y70.526 E0.2471
G1 X21.379 Y70.468 E0.2696
G1 X21.791 Y70.297 E0.2920
G1 X22.144 Y70.026 E0.3145
G1 X22.415 Y69.673 E0.3370
G1 X22.585 Y69.262 E0.3594
G1 X22.643 Y68.821 E0.3819
G1 X22.585 Y68.379 E0.4044
G1 X22.415 Y67.968 E0.4268
G1 X22.144 Y67.615 E0.4493
G1 X21.791 Y67.344 E0.4717
G1 X21.379 Y67.173 E0.4942
G1 X20.938 Y67.115 E0.5167
G1 X20.497 Y67.173 E0.5391
; outer perimeter
G1 X20.601 Y67.563 F4800
G92 E0
G1 X20.287 Y67.693 E0.0171 F1320
G1 X20.018 Y67.900 E0.0343
G1 X19.811 Y68.170 E0.0514
G1 X19.681 Y68.484 E0.0686
G1 X19.636 Y68.821 E0.0857
G1 X19.681 Y69.157 E0.1029
G1 X19.811 Y69.471 E0.1200
G1 X20.018 Y69.741 E0.1372
G1 X20.287 Y69.948 E0.1543
G1 X20.601 Y70.078 E0.1715
G1 X20.938 Y70.122 E0.1886
G1 X21.275 Y70.078 E0.2058
G1 X21.589 Y69.948 E0.2229
G1 X21.859 Y69.741 E0.2401
G1 X22.065 Y69.471 E0.2572
G1 X22.195 Y69.157 E0.2744
G1 X22.240 Y68.821 E0.2915
G1 X22.195 Y68.484 E0.3087
G1 X22.065 Y68.170 E0.3258
G1 X21.859 Y67.900 E0.3430
G1 X21.589 Y67.693 E0.3601
G1 X21.275 Y67.563 E0.3773
G1 X20.938 Y67.519 E0.3944
G1 X20.601 Y67.563 E0.4116
G92 E0
G1 E-1.5000 F1800
; inner perimeter
G1 X24.428 Y72.311 F4800
G1 E0.1000 F1800
G92 E0
G1 X24.428 Y123.331 E2.5747 F1485
G1 X66.448 Y123.331 E4.6953
G1 X66.448 Y72.311 E7.2700
G1 X24.428 Y72.311 E9.3906
; outer perimeter
G1 X24.828 Y72.711 F4800
G92 E0
G1 X24.828 Y122.931 E2.5344 F1320
G1 X66.048 Y122.931 E4.6145
G1 X66.048 Y72.711 E7.1489
G1 X24.828 Y72.711 E9.2291
; inner perimeter
G1 X68.732 Y67.615 F4800
G92 E0
G1 X68.461 Y67.968 E0.0225 F1485
G1 X68.291 Y68.379 E0.0449
G1 X68.233 Y68.821 E0.0674
G1 X68.291 Y69.262 E0.0899
G1 X68.461 Y69.673 E0.1123
G1 X68.732 Y70.026 E0.1348
G1 X69.086 Y70.297 E0.1573
G1 X69.497 Y70.468 E0.1797
G1 X69.938 Y70.526 E0.2022
G1 X70.379 Y70.468 E0.2246
G1 X70.791 Y70.297 E0.2471
G1 X71.144 Y70.026 E0.2696
G1 X71.415 Y69.673 E0.2920
G1 X71.585 Y69.262 E0.3145
G1 X71.643 Y68.821 E0.3370
G1 X71.585 Y68.379 E0.3594
G1 X71.415 Y67.968 E0.3819
G1 X71.144 Y67.615 E0.4044
G1 X70.791 Y67.344 E0.4268
G1 X70.379 Y67.173 E0.4493
G1 X69.938 Y67.115 E0.4717
G1 X69.497 Y67.173 E0.4942
G1 X69.085 Y67.344 E0.5167
G1 X68.732 Y67.615 E0.5391
; outer perimeter
G1 X69.018 Y67.900 F4800
G92 E0
G1 X68.811 Y68.170 E0.0171 F1320
G1 X68.681 Y68.484 E0.0343
G1 X68.636 Y68.821 E0.0514
G1 X68.681 Y69.157 E0.0686
G1 X68.811 Y69.471 E0.0857
G1 X69.018 Y69.741 E0.1029
G1 X69.287 Y69.948 E0.1200
G1 X69.601 Y70.078 E0.1372
G1 X69.938 Y70.122 E0.1543
G1 X70.275 Y70.078 E0.1715
G1 X70.589 Y69.948 E0.1886
G1 X70.859 Y69.741 E0.2058
G1 X71.065 Y69.471 E0.2229
G1 X71.195 Y69.157 E0.2401
G1 X71.240 Y68.821 E0.2572
G1 X71.195 Y68.484 E0.2744
G1 X71.065 Y68.170 E0.2915
G1 X70.859 Y67.900 E0.3087
G1 X70.589 Y67.693 E0.3258
G1 X70.275 Y67.563 E0.3430
G1 X69.938 Y67.519 E0.3601
G1 X69.601 Y67.563 E0.3773
G1 X69.287 Y67.693 E0.3944
G1 X69.018 Y67.900 E0.4116
; inner perimeter
G1 X78.893 Y57.268 F4800
G92 E0
G1 X78.683 Y57.776 E0.0277 F1485
G1 X78.611 Y58.321 E0.0555
G1 X78.683 Y58.865 E0.0832
G1 X78.893 Y59.373 E0.1109
G1 X79.227 Y59.809 E0.1387
G1 X79.663 Y60.144 E0.1664
G1 X80.171 Y60.354 E0.1941
G1 X80.716 Y60.426 E0.2219
G1 X81.261 Y60.354 E0.2496
G1 X81.769 Y60.144 E0.2773
G1 X82.205 Y59.809 E0.3051
G1 X82.539 Y59.373 E0.3328
G1 X82.749 Y58.865 E0.3605
G1 X82.821 Y58.321 E0.3883
G1 X82.749 Y57.776 E0.4160
G1 X82.539 Y57.268 E0.4437
G1 X82.205 Y56.832 E0.4715
G1 X81.769 Y56.497 E0.4992
G1 X81.261 Y56.287 E0.5269
G1 X80.716 Y56.215 E0.5547
G1 X80.171 Y56.287 E0.5824
G1 X79.663 Y56.497 E0.6101
G1 X79.227 Y56.832 E0.6379
G1 X78.893 Y57.268 E0.6656
; outer perimeter
G1 X79.242 Y57.470 F4800
G92 E0
G1 X79.072 Y57.880 E0.0224 F1320
G1 X79.014 Y58.321 E0.0448
G1 X79.072 Y58.761 E0.0673
G1 X79.242 Y59.171 E0.0897
G1 X79.513 Y59.524 E0.1121
G1 X79.865 Y59.794 E0.1345
G1 X80.276 Y59.964 E0.1569
G1 X80.716 Y60.022 E0.1793
G1 X81.156 Y59.964 E0.2018
G1 X81.567 Y59.794 E0.2242
G1 X81.919 Y59.524 E0.2466
G1 X82.190 Y59.171 E0.2690
G1 X82.360 Y58.761 E0.2914
G1 X82.418 Y58.321 E0.3139
G1 X82.360 Y57.880 E0.3363
G1 X82.190 Y57.470 E0.3587
G1 X81.919 Y57.117 E0.3811
G1 X81.567 Y56.847 E0.4035
G1 X81.156 Y56.677 E0.4260
G1 X80.716 Y56.619 E0.4484
G1 X80.276 Y56.677 E0.4708
G1 X79.865 Y56.847 E0.4932
G1 X79.513 Y57.117 E0.5156
G1 X79.242 Y57.470 E0.5380
G92 E0
G1 E-1.5000 F1800
; inner perimeter
G1 X84.206 Y61.811 F4800
G1 E0.1000 F1800
G92 E0
G1 X84.206 Y129.831 E3.4326 F1485
G1 X125.510 Y129.831 E5.5171
G1 X125.510 Y61.811 E8.9497
G1 X84.206 Y61.811 E11.0341
; outer perimeter
G1 X84.606 Y62.211 F4800
G92 E0
G1 X84.606 Y129.431 E3.3923 F1320
G1 X125.110 Y129.431 E5.4363
G1 X125.110 Y62.211 E8.8286
G1 X84.606 Y62.211 E10.8726
; inner perimeter
G1 X127.177 Y57.268 F4800
G92 E0
G1 X126.967 Y57.776 E0.0277 F1485
G1 X126.895 Y58.321 E0.0555
G1 X126.967 Y58.865 E0.0832
G1 X127.177 Y59.373 E0.1109
G1 X127.511 Y59.809 E0.1387
G1 X127.947 Y60.144 E0.1664
G1 X128.455 Y60.354 E0.1941
G1 X129.000 Y60.426 E0.2219
G1 X129.545 Y60.354 E0.2496
G1 X130.053 Y60.144 E0.2773
G1 X130.489 Y59.809 E0.3051
G1 X130.823 Y59.373 E0.3328
G1 X131.033 Y58.865 E0.3605
G1 X131.105 Y58.321 E0.3883
G1 X131.033 Y57.776 E0.4160
G1 X130.823 Y57.268 E0.4437
G1 X130.489 Y56.832 E0.4715
G1 X130.053 Y56.497 E0.4992
G1 X129.545 Y56.287 E0.5269
G1 X129.000 Y56.215 E0.5547
G1 X128.455 Y56.287 E0.5824
G1 X127.947 Y56.497 E0.6101
G1 X127.511 Y56.832 E0.6379
G1 X127.177 Y57.268 E0.6656
; outer perimeter
G1 X127.526 Y57.470 F4800
G92 E0
G1 X127.356 Y57.880 E0.0224 F1320
G1 X127.298 Y58.321 E0.0448
G1 X127.356 Y58.761 E0.0673
G1 X127.526 Y59.171 E0.0897
G1 X127.797 Y59.524 E0.1121
G1 X128.149 Y59.794 E0.1345
G1 X128.560 Y59.964 E0.1569
G1 X129.000 Y60.022 E0.1793
G1 X129.440 Y59.964 E0.2018
G1 X129.851 Y59.794 E0.2242
G1 X130.203 Y59.524 E0.2466
G1 X130.474 Y59.171 E0.2690
G1 X130.644 Y58.761 E0.2914
G1 X130.702 Y58.321 E0.3139
G1 X130.644 Y57.880 E0.3363
G1 X130.474 Y57.470 E0.3587
G1 X130.203 Y57.117 E0.3811
G1 X129.851 Y56.847 E0.4035
G1 X129.440 Y56.677 E0.4260
