; G-Code generated by Simplify3D(R) Version 3.0.2
; Oct 31, 2015 at 9:15:23 AM
; Settings Summary
;   processName,Process1
;   applyToModels,electronicsCaseBack
;   profileName,PrinterBot Simple Metal Custom (modified)
;   profileVersion,2015-05-01 08:00:00
;   baseProfile,Default (modified)
;   printMaterial,PLA
;   printQuality,Medium
;   printExtruders,
;   extruderName,Primary Extruder
;   extruderToolheadNumber,0
;   extruderDiameter,0.4
;   extruderAutoWidth,0
;   extruderWidth,0.4
;   extrusionMultiplier,1
;   extruderUseRetract,1
;   extruderRetractionDistance,1.5
;   extruderExtraRestartDistance,0.1
;   extruderRetractionZLift,0
;   extruderRetractionSpeed,1800
;   extruderUseCoasting,0
;   extruderCoastingDistance,0.2
;   extruderUseWipe,0
;   extruderWipeDistance,5
;   primaryExtruder,0
;   layerHeight,0.3
;   topSolidLayers,3
;   bottomSolidLayers,3
;   perimeterOutlines,2
;   printPerimetersInsideOut,1
;   startPointOption,2
;   startPointOriginX,0
;   startPointOriginY,0
;   startPointOriginZ,300
;   sequentialIslands,0
;   spiralVaseMode,0
;   firstLayerHeightPercentage,60
;   firstLayerWidthPercentage,100
;   firstLayerUnderspeed,0.5
;   useRaft,0
;   raftExtruder,0
;   raftLayers,3
;   raftOffset,3
;   raftSeparationDistance,0.14
;   raftInfill,85
;   disableRaftBaseLayers,0
;   useSkirt,1
;   skirtExtruder,0
;   skirtLayers,1
;   skirtOutlines,3
;   skirtOffset,2
;   usePrimePillar,0
;   primePillarExtruder,999
;   primePillarWidth,12
;   primePillarLocation,7
;   primePillarSpeedMultiplier,1
;   useOozeShield,0
;   oozeShieldExtruder,999
;   oozeShieldOffset,2
;   oozeShieldOutlines,1
;   oozeShieldSidewallShape,1
;   oozeShieldSidewallAngle,30
;   oozeShieldSpeedMultiplier,1
;   infillExtruder,0
;   internalInfillPattern,Rectilinear
;   externalInfillPattern,Rectilinear
;   infillPercentage,15
;   outlineOverlapPercentage,15
;   infillExtrusionWidthPercentage,100
;   minInfillLength,5
;   infillLayerInterval,1
;   infillAngles,45,-45
;   overlapInfillAngles,0
;   generateSupport,0
;   supportExtruder,0
;   supportInfillPercentage,30
;   supportExtraInflation,0.4
;   denseSupportLayers,0
;   denseSupportInfillPercentage,70
;   supportLayerInterval,1
;   supportHorizontalPartOffset,0.3
;   supportUpperSeparationLayers,1
;   supportLowerSeparationLayers,1
;   supportType,0
;   supportGridSpacing,4
;   maxOverhangAngle,45
;   supportAngles,0
;   temperatureName,Primary Extruder,Heated Bed
;   temperatureNumber,0,1
;   temperatureSetpointCount,2,3
;   temperatureSetpointLayers,1,2,1,2,3
;   temperatureSetpointTemperatures,210,200,70,65,63
;   temperatureStabilizeAtStartup,1,1
;   temperatureHeatedBed,0,1
;   temperatureRelayBetweenLayers,0,0
;   temperatureRelayBetweenLoops,0,0
;   fanLayers,1,2,3
;   fanSpeeds,0,0,100
;   blipFanToFullPower,1
;   adjustSpeedForCooling,1
;   minSpeedLayerTime,15
;   minCoolingSpeedSlowdown,20
;   increaseFanForCooling,0
;   minFanLayerTime,45
;   maxCoolingFanSpeed,100
;   increaseFanForBridging,0
;   bridgingFanSpeed,100
;   use5D,1
;   relativeEdistances,0
;   allowEaxisZeroing,1
;   independentExtruderAxes,0
;   includeM10123,0
;   stickySupport,1
;   applyToolheadOffsets,0
;   gcodeXoffset,0
;   gcodeYoffset,0
;   gcodeZoffset,0
;   overrideMachineDefinition,1
;   machineTypeOverride,0
;   strokeXoverride,150
;   strokeYoverride,150
;   strokeZoverride,150
;   originOffsetXoverride,0
;   originOffsetYoverride,0
;   originOffsetZoverride,0
;   homeXdirOverride,-1
;   homeYdirOverride,-1
;   homeZdirOverride,-1
;   flipXoverride,1
;   flipYoverride,-1
;   flipZoverride,1
;   toolheadOffsets,0,0|0,0|0,0|0,0|0,0|0,0
;   overrideFirmwareConfiguration,1
;   firmwareTypeOverride,RepRap (Marlin/Repetier/Sprinter)
;   GPXconfigOverride,r2
;   baudRateOverride,250000
;   overridePrinterModels,1
;   printerModelsOverride
;   startingGcode,G28 X0 Y0 ; home X and Y axes,G29 ; probe z,M201 X1000 Y1000 ; acceleration settings
;   layerChangeGcode,
;   retractionGcode,
;   toolChangeGcode,
;   endingGcode,M104 S0 T0 ; turn off extruder,M140 S0 T1 ; turn off bed,G28 X0 Y0 ; home,M84 ; disable motors
;   createX3G,0
;   celebration,0
;   celebrationSong,Random Song
;   createMB5G,0
;   postProcessing,
;   defaultSpeed,3300
;   outlineUnderspeed,0.8
;   solidInfillUnderspeed,0.8
;   supportUnderspeed,0.8
;   rapidXYspeed,4800
;   rapidZspeed,1002
;   minBridgingArea,50
;   bridgingExtraInflation,0
;   bridgingExtrusionMultiplier,1
;   bridgingSpeedMultiplier,0.8
;   filamentDiameter,1.74
;   filamentPricePerKg,22
;   filamentDensity,1.25
;   useMinPrintHeight,0
;   minPrintHeight,0
;   useMaxPrintHeight,0
;   maxPrintHeight,0
;   useDiaphragm,0
;   diaphragmLayerInterval,20
;   robustSlicing,1
;   mergeAllIntoSolid,0
;   onlyRetractWhenCrossingOutline,1
;   retractBetweenLayers,1
;   useRetractionMinTravel,0
;   retractionMinTravel,3
;   retractWhileWiping,0
;   onlyWipeOutlines,1
;   avoidCrossingOutline,0
;   maxMovementDetourFactor,3
;   toolChangeRetractionDistance,12
;   toolChangeExtraRestartDistance,-0.5
;   toolChangeRetractionSpeed,600
;   allowThinWallGapFill,1
;   thinWallAllowedOverlapPercentage,10
;   horizontalSizeCompensation,0
G90
M82
M106 S0
M140 S70
M190 S70
M104 S210 T0
M109 S210 T0
G28 X0 Y0 ; home X and Y axes
G29 ; probe z
M201 X1000 Y1000 ; acceleration settings
G92 E0
G1 E-1.5000 F1800
G1 Z0.180 F1002
; layer 1, Z = 0.18
T0
; tool H0.300 W0.400
; skirt
G1 X11.383 Y27.500 F4800
G1 E0.1000 F540
G92 E0
G1 X138.617 Y27.500 E6.4209 F1650
G1 X138.985 Y27.652 E6.4410
G1 X140.438 Y29.105 E6.5447
G1 X140.590 Y29.473 E6.5648
G1 X140.590 Y117.996 E11.0322
G1 X140.552 Y118.190 E11.0421
G1 X140.172 Y119.107 E11.0922
G1 X140.062 Y119.270 E11.1021
G1 X139.270 Y120.062 E11.1586
G1 X139.107 Y120.172 E11.1686
G1 X138.190 Y120.552 E11.2187
G1 X137.996 Y120.590 E11.2286
G1 X12.004 Y120.590 E17.5869
G1 X11.810 Y120.552 E17.5968
G1 X10.893 Y120.172 E17.6469
G1 X10.730 Y120.062 E17.6569
G1 X9.938 Y119.270 E17.7134
G1 X9.828 Y119.107 E17.7233
G1 X9.448 Y118.190 E17.7734
G1 X9.410 Y117.996 E17.7833
G1 X9.410 Y29.473 E22.2507
G1 X9.562 Y29.105 E22.2708
G1 X11.015 Y27.652 E22.3745
G1 X11.383 Y27.500 E22.3946
G1 X11.462 Y27.900 F4800
G92 E0
G1 X138.538 Y27.900 E6.4129 F1650
G1 X138.758 Y27.991 E6.4250
G1 X140.099 Y29.332 E6.5206
G1 X140.190 Y29.552 E6.5327
G1 X140.190 Y117.957 E10.9940
G1 X140.167 Y118.073 E11.0000
G1 X139.817 Y118.917 E11.0461
G1 X139.752 Y119.015 E11.0521
G1 X139.015 Y119.752 E11.1046
G1 X138.917 Y119.817 E11.1106
G1 X138.073 Y120.167 E11.1567
G1 X137.957 Y120.190 E11.1627
G1 X12.043 Y120.190 E17.5169
G1 X11.927 Y120.167 E17.5229
G1 X11.083 Y119.817 E17.5690
G1 X10.985 Y119.752 E17.5750
G1 X10.248 Y119.015 E17.6275
G1 X10.183 Y118.917 E17.6335
G1 X9.833 Y118.073 E17.6796
G1 X9.810 Y117.957 E17.6856
G1 X9.810 Y29.552 E22.1469
G1 X9.901 Y29.332 E22.1590
G1 X11.242 Y27.991 E22.2546
G1 X11.462 Y27.900 E22.2667
G1 X11.542 Y28.300 F4800
G92 E0
G1 X138.458 Y28.300 E6.4049 F1650
G1 X138.532 Y28.330 E6.4089
G1 X139.760 Y29.558 E6.4965
G1 X139.790 Y29.632 E6.5005
G1 X139.790 Y117.918 E10.9559
G1 X139.782 Y117.956 E10.9579
G1 X139.463 Y118.728 E11.0000
G1 X139.441 Y118.760 E11.0020
G1 X138.760 Y119.441 E11.0506
G1 X138.728 Y119.463 E11.0526
G1 X137.956 Y119.782 E11.0947
G1 X137.918 Y119.790 E11.0967
G1 X12.082 Y119.790 E17.4470
G1 X12.044 Y119.782 E17.4490
G1 X11.272 Y119.463 E17.4911
G1 X11.240 Y119.441 E17.4931
G1 X10.559 Y118.760 E17.5417
G1 X10.537 Y118.728 E17.5437
G1 X10.218 Y117.956 E17.5858
G1 X10.210 Y117.918 E17.5878
G1 X10.210 Y29.632 E22.0432
G1 X10.240 Y29.558 E22.0472
G1 X11.468 Y28.330 E22.1348
G1 X11.542 Y28.300 E22.1388
G92 E0
G1 E-1.5000 F1800
; inner perimeter
G1 X13.010 Y31.100 F4800
G1 E0.1000 F1800
G92 E0
G1 X136.990 Y31.100 E6.2567 F1485
G1 X136.990 Y116.990 E10.5912
G1 X13.010 Y116.990 E16.8478
G1 X13.010 Y31.100 E21.1823
; outer perimeter
G1 X12.610 Y30.700 F4800
G92 E0
G1 X137.390 Y30.700 E6.2971 F1320
G1 X137.390 Y117.390 E10.6719
G1 X12.610 Y117.390 E16.9690
G1 X12.610 Y30.700 E21.3438
; inner perimeter
G1 X33.658 Y45.517 F4800
G92 E0
G1 X33.244 Y46.056 E0.0343 F1485
G1 X32.984 Y46.685 E0.0686
G1 X32.895 Y47.359 E0.1030
G1 X32.984 Y48.033 E0.1373
G1 X33.244 Y48.662 E0.1716
G1 X33.658 Y49.201 E0.2059
G1 X34.197 Y49.615 E0.2402
G1 X34.826 Y49.875 E0.2746
G1 X35.500 Y49.964 E0.3089
G1 X36.174 Y49.875 E0.3432
G1 X36.803 Y49.615 E0.3775
G1 X37.342 Y49.201 E0.4118
G1 X37.756 Y48.662 E0.4462
G1 X38.016 Y48.033 E0.4805
G1 X38.105 Y47.359 E0.5148
G1 X38.016 Y46.685 E0.5491
G1 X37.756 Y46.056 E0.5835
G1 X37.342 Y45.517 E0.6178
G1 X36.803 Y45.103 E0.6521
G1 X36.174 Y44.843 E0.6864
G1 X35.500 Y44.754 E0.7207
G1 X34.826 Y44.843 E0.7551
G1 X34.197 Y45.103 E0.7894
G1 X33.658 Y45.517 E0.8237
; outer perimeter
G1 X33.943 Y45.802 F4800
G92 E0
G1 X33.593 Y46.258 E0.0290 F1320
G1 X33.373 Y46.789 E0.0580
G1 X33.298 Y47.359 E0.0870
G1 X33.373 Y47.929 E0.1160
G1 X33.593 Y48.460 E0.1450
G1 X33.943 Y48.916 E0.1740
G1 X34.399 Y49.266 E0.2030
G1 X34.930 Y49.486 E0.2320
G1 X35.500 Y49.561 E0.2611
G1 X36.070 Y49.486 E0.2901
G1 X36.601 Y49.266 E0.3191
G1 X37.057 Y48.916 E0.3481
G1 X37.407 Y48.460 E0.3771
G1 X37.627 Y47.929 E0.4061
G1 X37.702 Y47.359 E0.4351
G1 X37.627 Y46.789 E0.4641
G1 X37.407 Y46.258 E0.4931
G1 X37.057 Y45.802 E0.5221
G1 X36.601 Y45.452 E0.5511
G1 X36.070 Y45.232 E0.5801
G1 X35.500 Y45.157 E0.6091
G1 X34.930 Y45.232 E0.6381
G1 X34.399 Y45.452 E0.6671
G1 X33.943 Y45.802 E0.6961
; inner perimeter
G1 X26.990 Y57.782 F4800
G92 E0
G1 X26.990 Y85.910 E1.4195 F1485
G1 X40.907 Y92.869 E2.2047
G1 X121.510 Y92.869 E6.2724
G1 X121.510 Y50.849 E8.3929
G1 X40.909 Y50.849 E12.4604
G1 X26.990 Y57.782 E13.2452
; outer perimeter
G1 X27.390 Y58.030 F4800
G92 E0
G1 X27.390 Y85.663 E1.3945 F1320
G1 X41.002 Y92.469 E2.1625
G1 X121.110 Y92.469 E6.2052
G1 X121.110 Y51.249 E8.2854
G1 X41.004 Y51.249 E12.3280
G1 X27.390 Y58.030 E13.0955
; inner perimeter
G1 X16.500 Y75.254 F4800
G92 E0
G1 X15.955 Y75.325 E0.0277 F1485
G1 X15.447 Y75.536 E0.0555
G1 X15.011 Y75.870 E0.0832
G1 X14.677 Y76.306 E0.1109
G1 X14.467 Y76.814 E0.1387
G1 X14.395 Y77.359 E0.1664
G1 X14.467 Y77.904 E0.1941
G1 X14.677 Y78.412 E0.2219
G1 X15.011 Y78.848 E0.2496
G1 X15.447 Y79.182 E0.2773
G1 X15.955 Y79.392 E0.3051
G1 X16.500 Y79.464 E0.3328
G1 X17.045 Y79.392 E0.3605
G1 X17.553 Y79.182 E0.3883
G1 X17.989 Y78.848 E0.4160
G1 X18.323 Y78.411 E0.4437
G1 X18.533 Y77.904 E0.4715
G1 X18.605 Y77.359 E0.4992
G1 X18.533 Y76.814 E0.5269
G1 X18.323 Y76.306 E0.5547
G1 X17.989 Y75.870 E0.5824
G1 X17.553 Y75.536 E0.6101
G1 X17.045 Y75.325 E0.6379
G1 X16.500 Y75.254 E0.6656
; outer perimeter
G1 X16.500 Y75.657 F4800
G92 E0
G1 X16.060 Y75.715 E0.0224 F1320
G1 X15.649 Y75.885 E0.0448
G1 X15.297 Y76.156 E0.0673
G1 X15.026 Y76.508 E0.0897
G1 X14.856 Y76.918 E0.1121
G1 X14.798 Y77.359 E0.1345
G1 X14.856 Y77.799 E0.1569
G1 X15.026 Y78.210 E0.1793
G1 X15.297 Y78.562 E0.2018
G1 X15.649 Y78.833 E0.2242
G1 X16.060 Y79.003 E0.2466
G1 X16.500 Y79.061 E0.2690
G1 X16.940 Y79.003 E0.2914
G1 X17.351 Y78.833 E0.3139
G1 X17.703 Y78.562 E0.3363
G1 X17.974 Y78.210 E0.3587
G1 X18.144 Y77.799 E0.3811
G1 X18.202 Y77.359 E0.4035
G1 X18.144 Y76.918 E0.4260
G1 X17.974 Y76.508 E0.4484
G1 X17.703 Y76.156 E0.4708
G1 X17.351 Y75.885 E0.4932
G1 X16.940 Y75.715 E0.5156
G1 X16.500 Y75.657 E0.5380
G92 E0
G1 E-1.5000 F1800
; inner perimeter
G1 X34.826 Y93.843 F4800
G1 E0.1000 F1800
G92 E0
G1 X34.197 Y94.103 E0.0343 F1485
G1 X33.658 Y94.517 E0.0686
G1 X33.244 Y95.056 E0.1030
G1 X32.984 Y95.685 E0.1373
G1 X32.895 Y96.359 E0.1716
G1 X32.984 Y97.033 E0.2059
G1 X33.244 Y97.662 E0.2402
G1 X33.658 Y98.201 E0.2746
G1 X34.197 Y98.615 E0.3089
G1 X34.826 Y98.875 E0.3432
G1 X35.500 Y98.964 E0.3775
G1 X36.174 Y98.875 E0.4118
G1 X36.803 Y98.615 E0.4462
G1 X37.342 Y98.201 E0.4805
G1 X37.756 Y97.662 E0.5148
G1 X38.016 Y97.033 E0.5491
G1 X38.105 Y96.359 E0.5835
G1 X38.016 Y95.685 E0.6178
G1 X37.756 Y95.056 E0.6521
G1 X37.342 Y94.517 E0.6864
G1 X36.803 Y94.103 E0.7207
G1 X36.174 Y93.843 E0.7551
G1 X35.500 Y93.754 E0.7894
G1 X34.826 Y93.843 E0.8237
; outer perimeter
G1 X34.930 Y94.232 F4800
G92 E0
G1 X34.399 Y94.452 E0.0290 F1320
G1 X33.943 Y94.802 E0.0580
G1 X33.593 Y95.258 E0.0870
G1 X33.373 Y95.789 E0.1160
G1 X33.298 Y96.359 E0.1450
G1 X33.373 Y96.929 E0.1740
G1 X33.593 Y97.460 E0.2030
G1 X33.943 Y97.916 E0.2320
G1 X34.399 Y98.266 E0.2611
G1 X34.930 Y98.486 E0.2901
G1 X35.500 Y98.561 E0.3191
G1 X36.070 Y98.486 E0.3481
G1 X36.601 Y98.266 E0.3771
G1 X37.057 Y97.916 E0.4061
G1 X37.407 Y97.460 E0.4351
G1 X37.627 Y96.929 E0.4641
G1 X37.702 Y96.359 E0.4931
G1 X37.627 Y95.789 E0.5221
G1 X37.407 Y95.258 E0.5511
G1 X37.057 Y94.802 E0.5801
G1 X36.601 Y94.452 E0.6091
G1 X36.070 Y94.232 E0.6381
G1 X35.500 Y94.157 E0.6671
G1 X34.930 Y94.232 E0.6961
; inner perimeter
G1 X25.826 Y100.984 F4800
G92 E0
G1 X25.197 Y101.244 E0.0343 F1485
G1 X24.658 Y101.658 E0.0686
G1 X24.244 Y102.197 E0.1030
G1 X23.984 Y102.826 E0.1373
G1 X23.895 Y103.500 E0.1716
G1 X23.984 Y104.174 E0.2059
G1 X24.244 Y104.803 E0.2402
G1 X24.658 Y105.342 E0.2746
G1 X25.197 Y105.756 E0.3089
G1 X25.826 Y106.016 E0.3432
G1 X26.500 Y106.105 E0.3775
G1 X27.174 Y106.016 E0.4119
G1 X27.803 Y105.756 E0.4462
G1 X28.342 Y105.342 E0.4805
G1 X28.756 Y104.803 E0.5148
G1 X29.016 Y104.174 E0.5491
G1 X29.105 Y103.500 E0.5835
G1 X29.016 Y102.826 E0.6178
G1 X28.756 Y102.197 E0.6521
G1 X28.342 Y101.658 E0.6864
G1 X27.803 Y101.244 E0.7207
G1 X27.174 Y100.984 E0.7551
G1 X26.500 Y100.895 E0.7894
G1 X25.826 Y100.984 E0.8237
; outer perimeter
G1 X25.930 Y101.373 F4800
G92 E0
G1 X25.399 Y101.593 E0.0290 F1320
G1 X24.943 Y101.943 E0.0580
G1 X24.593 Y102.399 E0.0870
G1 X24.373 Y102.930 E0.1160
G1 X24.298 Y103.500 E0.1450
G1 X24.373 Y104.070 E0.1740
G1 X24.593 Y104.601 E0.2030
G1 X24.943 Y105.057 E0.2320
G1 X25.399 Y105.407 E0.2611
G1 X25.930 Y105.627 E0.2901
G1 X26.500 Y105.702 E0.3191
G1 X27.070 Y105.627 E0.3481
G1 X27.601 Y105.407 E0.3771
G1 X28.057 Y105.057 E0.4061
G1 X28.407 Y104.601 E0.4351
G1 X28.627 Y104.070 E0.4641
G1 X28.702 Y103.500 E0.4931
G1 X28.627 Y102.930 E0.5221
G1 X28.407 Y102.399 E0.5511
G1 X28.057 Y101.943 E0.5801
G1 X27.601 Y101.593 E0.6091
G1 X27.070 Y101.373 E0.6381
G1 X26.500 Y101.298 E0.6671
G1 X25.930 Y101.373 E0.6961
G92 E0
G1 E-1.5000 F1800
; inner perimeter
G1 X16.500 Y111.395 F4800
G1 E0.1000 F1800
G92 E0
G1 X15.955 Y111.467 E0.0277 F1485
G1 X15.447 Y111.677 E0.0555
G1 X15.011 Y112.011 E0.0832
G1 X14.677 Y112.447 E0.1109
G1 X14.467 Y112.955 E0.1387
G1 X14.395 Y113.500 E0.1664
G1 X14.467 Y114.045 E0.1941
G1 X14.677 Y114.553 E0.2219
G1 X15.011 Y114.989 E0.2496
G1 X15.447 Y115.323 E0.2773
G1 X15.955 Y115.533 E0.3051
G1 X16.500 Y115.605 E0.3328
G1 X17.045 Y115.533 E0.3605
G1 X17.553 Y115.323 E0.3883
G1 X17.989 Y114.989 E0.4160
G1 X18.323 Y114.553 E0.4437
G1 X18.533 Y114.045 E0.4715
G1 X18.605 Y113.500 E0.4992
G1 X18.533 Y112.955 E0.5269
G1 X18.323 Y112.447 E0.5547
G1 X17.989 Y112.011 E0.5824
G1 X17.553 Y111.677 E0.6101
G1 X17.045 Y111.467 E0.6379
G1 X16.500 Y111.395 E0.6656
; outer perimeter
G1 X16.500 Y111.798 F4800
G92 E0
G1 X16.060 Y111.856 E0.0224 F1320
G1 X15.649 Y112.026 E0.0448
G1 X15.297 Y112.297 E0.0673
G1 X15.026 Y112.649 E0.0897
G1 X14.856 Y113.060 E0.1121
G1 X14.798 Y113.500 E0.1345
G1 X14.856 Y113.940 E0.1569
G1 X15.026 Y114.351 E0.1793
G1 X15.297 Y114.703 E0.2018
G1 X15.649 Y114.974 E0.2242
G1 X16.060 Y115.144 E0.2466
G1 X16.500 Y115.202 E0.2690
G1 X16.940 Y115.144 E0.2914
G1 X17.351 Y114.974 E0.3139
G1 X17.703 Y114.703 E0.3363
G1 X17.974 Y114.351 E0.3587
G1 X18.144 Y113.940 E0.3811
G1 X18.202 Y113.500 E0.4035
G1 X18.144 Y113.060 E0.4260
G1 X17.974 Y112.649 E0.4484
G1 X17.703 Y112.297 E0.4708
G1 X17.351 Y112.026 E0.4932
G1 X16.940 Y111.856 E0.5156
G1 X16.500 Y111.798 E0.5380
; inner perimeter
G1 X121.244 Y102.197 F4800
G92 E0
G1 X120.984 Y102.826 E0.0343 F1485
G1 X120.895 Y103.500 E0.0686
G1 X120.984 Y104.174 E0.1030
G1 X121.244 Y104.803 E0.1373
G1 X121.658 Y105.342 E0.1716
G1 X122.197 Y105.756 E0.2059
G1 X122.826 Y106.016 E0.2402
G1 X123.500 Y106.105 E0.2746
G1 X124.174 Y106.016 E0.3089
