; G-Code generated by Simplify3D(R) Version 3.0.2
; Oct 30, 2015 at 5:06:00 PM
; Settings Summary
;   processName,Process1
;   applyToModels,standoff,standoff(2),standoff(3),standoff(4),standoff(5),standoff(6),standoff(7),standoff(8),standoff(9),standoff(10),standoff(11),standoff(2)(2),standoff(3)(2),standoff(4)(2),standoff(5)(2),standoff(6)(2),standoff(7)(2),standoff(8)(2),standoff(9)(2),standoff(10)(2)
;   profileName,PrinterBot Simple Metal Custom (modified)
;   profileVersion,2015-05-01 08:00:00
;   baseProfile,Default (modified)
;   printMaterial,PLA
;   printQuality,Medium
;   printExtruders,
;   extruderName,Primary Extruder
;   extruderToolheadNumber,0
;   extruderDiameter,0.4
;   extruderAutoWidth,0
;   extruderWidth,0.4
;   extrusionMultiplier,1
;   extruderUseRetract,1
;   extruderRetractionDistance,1.5
;   extruderExtraRestartDistance,0.1
;   extruderRetractionZLift,0
;   extruderRetractionSpeed,1800
;   extruderUseCoasting,0
;   extruderCoastingDistance,0.2
;   extruderUseWipe,0
;   extruderWipeDistance,5
;   primaryExtruder,0
;   layerHeight,0.3
;   topSolidLayers,3
;   bottomSolidLayers,3
;   perimeterOutlines,2
;   printPerimetersInsideOut,1
;   startPointOption,2
;   startPointOriginX,0
;   startPointOriginY,0
;   startPointOriginZ,300
;   sequentialIslands,0
;   spiralVaseMode,0
;   firstLayerHeightPercentage,60
;   firstLayerWidthPercentage,100
;   firstLayerUnderspeed,0.5
;   useRaft,0
;   raftExtruder,0
;   raftLayers,3
;   raftOffset,3
;   raftSeparationDistance,0.14
;   raftInfill,85
;   disableRaftBaseLayers,0
;   useSkirt,1
;   skirtExtruder,0
;   skirtLayers,1
;   skirtOutlines,3
;   skirtOffset,2
;   usePrimePillar,0
;   primePillarExtruder,999
;   primePillarWidth,12
;   primePillarLocation,7
;   primePillarSpeedMultiplier,1
;   useOozeShield,0
;   oozeShieldExtruder,999
;   oozeShieldOffset,2
;   oozeShieldOutlines,1
;   oozeShieldSidewallShape,1
;   oozeShieldSidewallAngle,30
;   oozeShieldSpeedMultiplier,1
;   infillExtruder,0
;   internalInfillPattern,Rectilinear
;   externalInfillPattern,Rectilinear
;   infillPercentage,15
;   outlineOverlapPercentage,15
;   infillExtrusionWidthPercentage,100
;   minInfillLength,5
;   infillLayerInterval,1
;   infillAngles,45,-45
;   overlapInfillAngles,0
;   generateSupport,0
;   supportExtruder,0
;   supportInfillPercentage,30
;   supportExtraInflation,0.4
;   denseSupportLayers,0
;   denseSupportInfillPercentage,70
;   supportLayerInterval,1
;   supportHorizontalPartOffset,0.3
;   supportUpperSeparationLayers,1
;   supportLowerSeparationLayers,1
;   supportType,0
;   supportGridSpacing,4
;   maxOverhangAngle,45
;   supportAngles,0
;   temperatureName,Primary Extruder,Heated Bed
;   temperatureNumber,0,1
;   temperatureSetpointCount,2,3
;   temperatureSetpointLayers,1,2,1,2,3
;   temperatureSetpointTemperatures,210,200,70,65,63
;   temperatureStabilizeAtStartup,1,1
;   temperatureHeatedBed,0,1
;   temperatureRelayBetweenLayers,0,0
;   temperatureRelayBetweenLoops,0,0
;   fanLayers,1,2,3
;   fanSpeeds,0,0,100
;   blipFanToFullPower,1
;   adjustSpeedForCooling,1
;   minSpeedLayerTime,15
;   minCoolingSpeedSlowdown,20
;   increaseFanForCooling,0
;   minFanLayerTime,45
;   maxCoolingFanSpeed,100
;   increaseFanForBridging,0
;   bridgingFanSpeed,100
;   use5D,1
;   relativeEdistances,0
;   allowEaxisZeroing,1
;   independentExtruderAxes,0
;   includeM10123,0
;   stickySupport,1
;   applyToolheadOffsets,0
;   gcodeXoffset,0
;   gcodeYoffset,0
;   gcodeZoffset,0
;   overrideMachineDefinition,1
;   machineTypeOverride,0
;   strokeXoverride,150
;   strokeYoverride,150
;   strokeZoverride,150
;   originOffsetXoverride,0
;   originOffsetYoverride,0
;   originOffsetZoverride,0
;   homeXdirOverride,-1
;   homeYdirOverride,-1
;   homeZdirOverride,-1
;   flipXoverride,1
;   flipYoverride,-1
;   flipZoverride,1
;   toolheadOffsets,0,0|0,0|0,0|0,0|0,0|0,0
;   overrideFirmwareConfiguration,1
;   firmwareTypeOverride,RepRap (Marlin/Repetier/Sprinter)
;   GPXconfigOverride,r2
;   baudRateOverride,250000
;   overridePrinterModels,1
;   printerModelsOverride
;   startingGcode,G28 X0 Y0 ; home X and Y axes,G29 ; probe z,M201 X1000 Y1000 ; acceleration settings
;   layerChangeGcode,
;   retractionGcode,
;   toolChangeGcode,
;   endingGcode,M104 S0 T0 ; turn off extruder,M140 S0 T1 ; turn off bed,G28 X0 Y0 ; home,M84 ; disable motors
;   createX3G,0
;   celebration,0
;   celebrationSong,Random Song
;   createMB5G,0
;   postProcessing,
;   defaultSpeed,3300
;   outlineUnderspeed,0.8
;   solidInfillUnderspeed,0.8
;   supportUnderspeed,0.8
;   rapidXYspeed,4800
;   rapidZspeed,1002
;   minBridgingArea,50
;   bridgingExtraInflation,0
;   bridgingExtrusionMultiplier,1
;   bridgingSpeedMultiplier,0.8
;   filamentDiameter,1.74
;   filamentPricePerKg,22
;   filamentDensity,1.25
;   useMinPrintHeight,0
;   minPrintHeight,0
;   useMaxPrintHeight,0
;   maxPrintHeight,0
;   useDiaphragm,0
;   diaphragmLayerInterval,20
;   robustSlicing,1
;   mergeAllIntoSolid,0
;   onlyRetractWhenCrossingOutline,1
;   retractBetweenLayers,1
;   useRetractionMinTravel,0
;   retractionMinTravel,3
;   retractWhileWiping,0
;   onlyWipeOutlines,1
;   avoidCrossingOutline,0
;   maxMovementDetourFactor,3
;   toolChangeRetractionDistance,12
;   toolChangeExtraRestartDistance,-0.5
;   toolChangeRetractionSpeed,600
;   allowThinWallGapFill,1
;   thinWallAllowedOverlapPercentage,10
;   horizontalSizeCompensation,0
G90
M82
M106 S0
M140 S70
M190 S70
M104 S210 T0
M109 S210 T0
G28 X0 Y0 ; home X and Y axes
G29 ; probe z
M201 X1000 Y1000 ; acceleration settings
G92 E0
G1 E-1.5000 F1800
G1 Z0.180 F1002
; layer 1, Z = 0.18
T0
; tool H0.300 W0.400
; skirt
G1 X59.311 Y38.257 F4800
G1 E0.1000 F540
G92 E0
G1 X59.677 Y37.839 E0.0281 F1650
G1 X59.700 Y37.815 E0.0297
G1 X59.815 Y37.700 E0.0380
G1 X59.839 Y37.677 E0.0396
G1 X60.257 Y37.310 E0.0677
G1 X60.283 Y37.290 E0.0693
G1 X60.412 Y37.190 E0.0776
G1 X60.439 Y37.171 E0.0793
G1 X60.901 Y36.862 E0.1073
G1 X60.929 Y36.845 E0.1090
G1 X61.071 Y36.763 E0.1172
G1 X61.100 Y36.747 E0.1189
G1 X61.599 Y36.502 E0.1469
G1 X61.628 Y36.488 E0.1486
G1 X61.780 Y36.425 E0.1569
G1 X61.810 Y36.414 E0.1585
G1 X62.337 Y36.235 E0.1866
G1 X62.368 Y36.226 E0.1882
G1 X62.526 Y36.183 E0.1965
G1 X62.558 Y36.176 E0.1981
G1 X63.103 Y36.067 E0.2262
G1 X63.136 Y36.062 E0.2278
G1 X63.298 Y36.041 E0.2361
G1 X63.331 Y36.037 E0.2378
G1 X63.885 Y36.001 E0.2658
G1 X63.918 Y36.000 E0.2675
G1 X64.082 Y36.000 E0.2757
G1 X64.115 Y36.001 E0.2774
G1 X64.669 Y36.037 E0.3054
G1 X64.702 Y36.041 E0.3071
G1 X64.864 Y36.062 E0.3154
G1 X64.897 Y36.067 E0.3170
G1 X65.442 Y36.176 E0.3451
G1 X65.474 Y36.183 E0.3467
G1 X65.632 Y36.226 E0.3550
G1 X65.663 Y36.235 E0.3566
G1 X66.190 Y36.414 E0.3847
G1 X66.220 Y36.425 E0.3863
G1 X66.372 Y36.488 E0.3946
G1 X66.402 Y36.502 E0.3963
G1 X66.900 Y36.747 E0.4243
G1 X66.929 Y36.763 E0.4260
G1 X67.071 Y36.845 E0.4342
G1 X67.099 Y36.862 E0.4359
G1 X67.561 Y37.171 E0.4640
G1 X67.588 Y37.190 E0.4656
G1 X67.718 Y37.290 E0.4739
G1 X67.743 Y37.310 E0.4755
G1 X68.161 Y37.677 E0.5036
G1 X68.185 Y37.700 E0.5052
G1 X68.301 Y37.815 E0.5135
G1 X68.323 Y37.839 E0.5151
G1 X68.690 Y38.257 E0.5432
G1 X68.710 Y38.282 E0.5449
G1 X68.810 Y38.412 E0.5531
G1 X68.829 Y38.439 E0.5548
G1 X69.138 Y38.901 E0.5828
G1 X69.155 Y38.929 E0.5845
G1 X69.237 Y39.071 E0.5927
G1 X69.253 Y39.100 E0.5944
G1 X69.498 Y39.598 E0.6225
G1 X69.500 Y39.602 E0.6226
G1 X69.502 Y39.598 E0.6228
G1 X69.748 Y39.100 E0.6509
G1 X69.763 Y39.071 E0.6526
G1 X69.845 Y38.929 E0.6608
G1 X69.862 Y38.901 E0.6625
G1 X70.171 Y38.439 E0.6905
G1 X70.190 Y38.412 E0.6922
G1 X70.290 Y38.282 E0.7004
G1 X70.310 Y38.257 E0.7021
G1 X70.677 Y37.839 E0.7302
G1 X70.700 Y37.815 E0.7318
G1 X70.815 Y37.699 E0.7401
G1 X70.839 Y37.677 E0.7417
G1 X71.257 Y37.310 E0.7698
G1 X71.282 Y37.290 E0.7714
G1 X71.412 Y37.190 E0.7797
G1 X71.439 Y37.171 E0.7813
G1 X71.901 Y36.862 E0.8094
G1 X71.929 Y36.845 E0.8111
G1 X72.071 Y36.763 E0.8193
G1 X72.100 Y36.747 E0.8210
G1 X72.598 Y36.502 E0.8490
G1 X72.628 Y36.488 E0.8507
G1 X72.779 Y36.425 E0.8589
G1 X72.810 Y36.414 E0.8606
G1 X73.337 Y36.235 E0.8887
G1 X73.368 Y36.226 E0.8903
G1 X73.526 Y36.183 E0.8986
G1 X73.558 Y36.176 E0.9002
G1 X74.103 Y36.067 E0.9283
G1 X74.136 Y36.062 E0.9299
G1 X74.298 Y36.041 E0.9382
G1 X74.331 Y36.037 E0.9399
G1 X74.885 Y36.001 E0.9679
G1 X74.918 Y36.000 E0.9696
G1 X75.082 Y36.000 E0.9778
G1 X75.115 Y36.001 E0.9795
G1 X75.669 Y36.037 E1.0075
G1 X75.702 Y36.041 E1.0092
G1 X75.864 Y36.062 E1.0174
G1 X75.897 Y36.067 E1.0191
G1 X76.442 Y36.176 E1.0472
G1 X76.474 Y36.183 E1.0488
G1 X76.632 Y36.226 E1.0571
G1 X76.663 Y36.235 E1.0587
G1 X77.190 Y36.414 E1.0868
G1 X77.220 Y36.425 E1.0884
G1 X77.372 Y36.488 E1.0967
G1 X77.401 Y36.502 E1.0983
G1 X77.900 Y36.747 E1.1264
G1 X77.929 Y36.763 E1.1281
G1 X78.071 Y36.845 E1.1363
G1 X78.099 Y36.862 E1.1380
G1 X78.561 Y37.171 E1.1660
G1 X78.588 Y37.190 E1.1677
G1 X78.718 Y37.290 E1.1760
G1 X78.743 Y37.310 E1.1776
G1 X79.161 Y37.677 E1.2057
G1 X79.185 Y37.699 E1.2073
G1 X79.300 Y37.815 E1.2156
G1 X79.323 Y37.839 E1.2172
G1 X79.690 Y38.257 E1.2453
G1 X79.710 Y38.283 E1.2470
G1 X79.810 Y38.412 E1.2552
G1 X79.829 Y38.439 E1.2569
G1 X80.138 Y38.901 E1.2849
G1 X80.155 Y38.929 E1.2866
G1 X80.237 Y39.071 E1.2948
G1 X80.252 Y39.100 E1.2965
G1 X80.498 Y39.598 E1.3246
G1 X80.500 Y39.602 E1.3247
G1 X80.502 Y39.598 E1.3249
G1 X80.748 Y39.100 E1.3530
G1 X80.763 Y39.071 E1.3546
G1 X80.845 Y38.929 E1.3629
G1 X80.862 Y38.901 E1.3646
G1 X81.171 Y38.439 E1.3926
G1 X81.190 Y38.412 E1.3943
G1 X81.290 Y38.282 E1.4025
G1 X81.310 Y38.257 E1.4042
G1 X81.677 Y37.839 E1.4322
G1 X81.700 Y37.815 E1.4339
G1 X81.815 Y37.699 E1.4422
G1 X81.839 Y37.677 E1.4438
G1 X82.257 Y37.310 E1.4719
G1 X82.282 Y37.290 E1.4735
G1 X82.412 Y37.190 E1.4818
G1 X82.439 Y37.171 E1.4834
G1 X82.901 Y36.862 E1.5115
G1 X82.929 Y36.845 E1.5132
G1 X83.071 Y36.763 E1.5214
G1 X83.100 Y36.747 E1.5231
G1 X83.598 Y36.502 E1.5511
G1 X83.628 Y36.488 E1.5528
G1 X83.779 Y36.425 E1.5610
G1 X83.810 Y36.414 E1.5627
G1 X84.337 Y36.235 E1.5908
G1 X84.368 Y36.226 E1.5924
G1 X84.526 Y36.183 E1.6007
G1 X84.558 Y36.176 E1.6023
G1 X85.103 Y36.067 E1.6304
G1 X85.136 Y36.062 E1.6320
G1 X85.298 Y36.041 E1.6403
G1 X85.331 Y36.037 E1.6419
G1 X85.885 Y36.001 E1.6700
G1 X85.918 Y36.000 E1.6717
G1 X86.082 Y36.000 E1.6799
G1 X86.115 Y36.001 E1.6816
G1 X86.669 Y36.037 E1.7096
G1 X86.702 Y36.041 E1.7113
G1 X86.864 Y36.062 E1.7195
G1 X86.897 Y36.067 E1.7212
G1 X87.442 Y36.176 E1.7493
G1 X87.474 Y36.183 E1.7509
G1 X87.632 Y36.226 E1.7592
G1 X87.663 Y36.235 E1.7608
G1 X88.190 Y36.414 E1.7889
G1 X88.220 Y36.425 E1.7905
G1 X88.372 Y36.488 E1.7988
G1 X88.401 Y36.502 E1.8004
G1 X88.900 Y36.747 E1.8285
G1 X88.929 Y36.763 E1.8302
G1 X89.071 Y36.845 E1.8384
G1 X89.099 Y36.862 E1.8401
G1 X89.561 Y37.171 E1.8681
G1 X89.588 Y37.190 E1.8698
G1 X89.718 Y37.290 E1.8780
G1 X89.743 Y37.310 E1.8797
G1 X90.161 Y37.677 E1.9078
G1 X90.185 Y37.699 E1.9094
G1 X90.300 Y37.815 E1.9177
G1 X90.323 Y37.839 E1.9193
G1 X90.690 Y38.257 E1.9474
G1 X90.710 Y38.282 E1.9490
G1 X90.810 Y38.412 E1.9573
G1 X90.829 Y38.439 E1.9590
G1 X91.138 Y38.901 E1.9870
G1 X91.155 Y38.929 E1.9887
G1 X91.237 Y39.071 E1.9969
G1 X91.252 Y39.100 E1.9986
G1 X91.498 Y39.598 E2.0266
G1 X91.512 Y39.628 E2.0283
G1 X91.575 Y39.779 E2.0366
G1 X91.586 Y39.810 E2.0382
G1 X91.765 Y40.337 E2.0663
G1 X91.774 Y40.368 E2.0679
G1 X91.817 Y40.526 E2.0762
G1 X91.824 Y40.558 E2.0778
G1 X91.933 Y41.103 E2.1059
G1 X91.938 Y41.136 E2.1075
G1 X91.959 Y41.298 E2.1158
G1 X91.963 Y41.331 E2.1175
G1 X91.999 Y41.885 E2.1455
G1 X92.000 Y41.918 E2.1472
G1 X92.000 Y42.082 E2.1554
G1 X91.999 Y42.115 E2.1571
G1 X91.963 Y42.669 E2.1851
G1 X91.959 Y42.702 E2.1868
G1 X91.938 Y42.864 E2.1951
G1 X91.933 Y42.897 E2.1967
G1 X91.824 Y43.442 E2.2248
G1 X91.817 Y43.474 E2.2264
G1 X91.774 Y43.632 E2.2347
G1 X91.765 Y43.663 E2.2363
G1 X91.586 Y44.190 E2.2644
G1 X91.575 Y44.220 E2.2661
G1 X91.512 Y44.372 E2.2743
G1 X91.498 Y44.401 E2.2760
G1 X91.252 Y44.900 E2.3040
G1 X91.237 Y44.929 E2.3057
G1 X91.155 Y45.071 E2.3139
G1 X91.138 Y45.099 E2.3156
G1 X90.829 Y45.561 E2.3437
G1 X90.810 Y45.588 E2.3453
G1 X90.710 Y45.717 E2.3536
G1 X90.690 Y45.743 E2.3552
G1 X90.323 Y46.161 E2.3833
G1 X90.300 Y46.185 E2.3849
G1 X90.185 Y46.300 E2.3932
G1 X90.161 Y46.323 E2.3948
G1 X89.743 Y46.690 E2.4229
G1 X89.717 Y46.710 E2.4246
G1 X89.588 Y46.810 E2.4328
G1 X89.561 Y46.829 E2.4345
G1 X89.099 Y47.138 E2.4625
G1 X89.071 Y47.155 E2.4642
G1 X88.929 Y47.237 E2.4724
G1 X88.900 Y47.252 E2.4741
G1 X88.401 Y47.498 E2.5022
G1 X88.398 Y47.500 E2.5023
G1 X88.402 Y47.502 E2.5025
G1 X88.900 Y47.747 E2.5306
G1 X88.929 Y47.763 E2.5323
G1 X89.071 Y47.845 E2.5405
G1 X89.099 Y47.862 E2.5422
G1 X89.561 Y48.171 E2.5702
G1 X89.588 Y48.190 E2.5719
G1 X89.718 Y48.290 E2.5801
G1 X89.743 Y48.310 E2.5818
G1 X90.161 Y48.677 E2.6099
G1 X90.185 Y48.699 E2.6115
G1 X90.301 Y48.815 E2.6198
G1 X90.323 Y48.839 E2.6214
G1 X90.690 Y49.257 E2.6495
G1 X90.710 Y49.282 E2.6511
G1 X90.810 Y49.412 E2.6594
G1 X90.829 Y49.439 E2.6610
G1 X91.138 Y49.901 E2.6891
G1 X91.155 Y49.929 E2.6908
G1 X91.237 Y50.071 E2.6990
G1 X91.253 Y50.100 E2.7007
G1 X91.498 Y50.598 E2.7287
G1 X91.512 Y50.628 E2.7304
G1 X91.575 Y50.779 E2.7386
G1 X91.586 Y50.810 E2.7403
G1 X91.765 Y51.337 E2.7684
G1 X91.774 Y51.368 E2.7700
G1 X91.817 Y51.526 E2.7783
G1 X91.824 Y51.558 E2.7799
G1 X91.933 Y52.103 E2.8080
G1 X91.938 Y52.136 E2.8096
G1 X91.959 Y52.298 E2.8179
G1 X91.963 Y52.331 E2.8195
G1 X91.999 Y52.885 E2.8476
G1 X92.000 Y52.918 E2.8493
G1 X92.000 Y53.082 E2.8575
G1 X91.999 Y53.115 E2.8592
G1 X91.963 Y53.669 E2.8872
G1 X91.959 Y53.702 E2.8889
G1 X91.938 Y53.864 E2.8971
G1 X91.933 Y53.897 E2.8988
G1 X91.824 Y54.442 E2.9269
G1 X91.817 Y54.474 E2.9285
G1 X91.774 Y54.632 E2.9368
G1 X91.765 Y54.663 E2.9384
G1 X91.586 Y55.190 E2.9665
G1 X91.575 Y55.221 E2.9681
G1 X91.512 Y55.372 E2.9764
G1 X91.498 Y55.401 E2.9781
G1 X91.253 Y55.900 E3.0061
G1 X91.237 Y55.929 E3.0078
G1 X91.155 Y56.071 E3.0160
G1 X91.138 Y56.099 E3.0177
G1 X90.829 Y56.561 E3.0457
G1 X90.810 Y56.588 E3.0474
G1 X90.710 Y56.717 E3.0557
G1 X90.690 Y56.743 E3.0573
G1 X90.323 Y57.161 E3.0854
G1 X90.301 Y57.185 E3.0870
G1 X90.185 Y57.300 E3.0953
G1 X90.161 Y57.323 E3.0969
G1 X89.743 Y57.690 E3.1250
G1 X89.718 Y57.710 E3.1267
G1 X89.588 Y57.810 E3.1349
G1 X89.561 Y57.829 E3.1366
G1 X89.099 Y58.138 E3.1646
G1 X89.071 Y58.155 E3.1663
G1 X88.929 Y58.237 E3.1745
G1 X88.900 Y58.252 E3.1762
G1 X88.402 Y58.498 E3.2043
G1 X88.398 Y58.500 E3.2044
G1 X88.402 Y58.502 E3.2046
G1 X88.900 Y58.747 E3.2327
G1 X88.929 Y58.763 E3.2343
G1 X89.071 Y58.845 E3.2426
G1 X89.099 Y58.862 E3.2443
G1 X89.561 Y59.171 E3.2723
G1 X89.588 Y59.190 E3.2740
G1 X89.718 Y59.290 E3.2822
G1 X89.743 Y59.310 E3.2839
G1 X90.161 Y59.677 E3.3119
G1 X90.185 Y59.699 E3.3136
G1 X90.301 Y59.815 E3.3219
G1 X90.323 Y59.839 E3.3235
G1 X90.690 Y60.257 E3.3516
G1 X90.710 Y60.282 E3.3532
G1 X90.810 Y60.412 E3.3615
G1 X90.829 Y60.439 E3.3631
G1 X91.138 Y60.901 E3.3912
G1 X91.155 Y60.929 E3.3929
G1 X91.237 Y61.071 E3.4011
G1 X91.253 Y61.100 E3.4028
G1 X91.498 Y61.598 E3.4308
G1 X91.512 Y61.628 E3.4325
G1 X91.575 Y61.779 E3.4407
G1 X91.586 Y61.810 E3.4424
G1 X91.765 Y62.337 E3.4705
G1 X91.774 Y62.368 E3.4721
G1 X91.817 Y62.526 E3.4804
G1 X91.824 Y62.558 E3.4820
G1 X91.933 Y63.103 E3.5101
G1 X91.938 Y63.136 E3.5117
G1 X91.959 Y63.298 E3.5200
G1 X91.963 Y63.331 E3.5216
G1 X91.999 Y63.885 E3.5497
G1 X92.000 Y63.918 E3.5514
G1 X92.000 Y64.082 E3.5596
G1 X91.999 Y64.115 E3.5613
G1 X91.963 Y64.669 E3.5893
G1 X91.959 Y64.702 E3.5910
G1 X91.938 Y64.864 E3.5992
G1 X91.933 Y64.897 E3.6009
G1 X91.824 Y65.442 E3.6290
G1 X91.817 Y65.474 E3.6306
G1 X91.774 Y65.632 E3.6389
G1 X91.765 Y65.663 E3.6405
G1 X91.586 Y66.190 E3.6686
G1 X91.575 Y66.220 E3.6702
G1 X91.512 Y66.372 E3.6785
G1 X91.498 Y66.401 E3.6801
G1 X91.253 Y66.900 E3.7082
G1 X91.237 Y66.929 E3.7099
G1 X91.155 Y67.071 E3.7181
G1 X91.138 Y67.099 E3.7198
G1 X90.829 Y67.561 E3.7478
G1 X90.810 Y67.588 E3.7495
G1 X90.710 Y67.717 E3.7577
G1 X90.690 Y67.743 E3.7594
G1 X90.323 Y68.161 E3.7875
