; G-Code generated by Simplify3D(R) Version 3.0.2
; Oct 7, 2015 at 10:56:30 AM
; Settings Summary
;   processName,Process1
;   applyToModels,660_upper_clamp,660_lower_clamp
;   profileName,PrinterBot Simple Metal Custom (modified)
;   profileVersion,2015-05-01 08:00:00
;   baseProfile,Default (modified)
;   printMaterial,PLA
;   printQuality,Medium
;   printExtruders,
;   extruderName,Primary Extruder
;   extruderToolheadNumber,0
;   extruderDiameter,0.4
;   extruderAutoWidth,0
;   extruderWidth,0.4
;   extrusionMultiplier,1
;   extruderUseRetract,1
;   extruderRetractionDistance,1.5
;   extruderExtraRestartDistance,0.1
;   extruderRetractionZLift,0
;   extruderRetractionSpeed,1800
;   extruderUseCoasting,0
;   extruderCoastingDistance,0.2
;   extruderUseWipe,0
;   extruderWipeDistance,5
;   primaryExtruder,0
;   layerHeight,0.2
;   topSolidLayers,3
;   bottomSolidLayers,3
;   perimeterOutlines,2
;   printPerimetersInsideOut,1
;   startPointOption,2
;   startPointOriginX,0
;   startPointOriginY,0
;   startPointOriginZ,300
;   sequentialIslands,0
;   spiralVaseMode,0
;   firstLayerHeightPercentage,60
;   firstLayerWidthPercentage,100
;   firstLayerUnderspeed,0.5
;   useRaft,0
;   raftExtruder,0
;   raftLayers,3
;   raftOffset,3
;   raftSeparationDistance,0.14
;   raftInfill,85
;   disableRaftBaseLayers,0
;   useSkirt,1
;   skirtExtruder,0
;   skirtLayers,1
;   skirtOutlines,5
;   skirtOffset,4
;   usePrimePillar,0
;   primePillarExtruder,999
;   primePillarWidth,12
;   primePillarLocation,7
;   primePillarSpeedMultiplier,1
;   useOozeShield,0
;   oozeShieldExtruder,999
;   oozeShieldOffset,2
;   oozeShieldOutlines,1
;   oozeShieldSidewallShape,1
;   oozeShieldSidewallAngle,30
;   oozeShieldSpeedMultiplier,1
;   infillExtruder,0
;   internalInfillPattern,Rectilinear
;   externalInfillPattern,Rectilinear
;   infillPercentage,70
;   outlineOverlapPercentage,15
;   infillExtrusionWidthPercentage,100
;   minInfillLength,5
;   infillLayerInterval,1
;   infillAngles,45,-45
;   overlapInfillAngles,0
;   generateSupport,0
;   supportExtruder,0
;   supportInfillPercentage,30
;   supportExtraInflation,0.4
;   denseSupportLayers,0
;   denseSupportInfillPercentage,70
;   supportLayerInterval,1
;   supportHorizontalPartOffset,0.3
;   supportUpperSeparationLayers,1
;   supportLowerSeparationLayers,1
;   supportType,0
;   supportGridSpacing,4
;   maxOverhangAngle,45
;   supportAngles,0
;   temperatureName,Primary Extruder,Heated Bed
;   temperatureNumber,0,1
;   temperatureSetpointCount,2,3
;   temperatureSetpointLayers,1,2,1,2,3
;   temperatureSetpointTemperatures,210,200,70,65,63
;   temperatureStabilizeAtStartup,1,1
;   temperatureHeatedBed,0,1
;   temperatureRelayBetweenLayers,0,0
;   temperatureRelayBetweenLoops,0,0
;   fanLayers,1,2,3
;   fanSpeeds,0,0,100
;   blipFanToFullPower,1
;   adjustSpeedForCooling,1
;   minSpeedLayerTime,15
;   minCoolingSpeedSlowdown,20
;   increaseFanForCooling,0
;   minFanLayerTime,45
;   maxCoolingFanSpeed,100
;   increaseFanForBridging,0
;   bridgingFanSpeed,100
;   use5D,1
;   relativeEdistances,0
;   allowEaxisZeroing,1
;   independentExtruderAxes,0
;   includeM10123,0
;   stickySupport,1
;   applyToolheadOffsets,0
;   gcodeXoffset,0
;   gcodeYoffset,0
;   gcodeZoffset,0
;   overrideMachineDefinition,1
;   machineTypeOverride,0
;   strokeXoverride,150
;   strokeYoverride,150
;   strokeZoverride,150
;   originOffsetXoverride,0
;   originOffsetYoverride,0
;   originOffsetZoverride,0
;   homeXdirOverride,-1
;   homeYdirOverride,-1
;   homeZdirOverride,-1
;   flipXoverride,1
;   flipYoverride,-1
;   flipZoverride,1
;   toolheadOffsets,0,0|0,0|0,0|0,0|0,0|0,0
;   overrideFirmwareConfiguration,1
;   firmwareTypeOverride,RepRap (Marlin/Repetier/Sprinter)
;   GPXconfigOverride,r2
;   baudRateOverride,250000
;   overridePrinterModels,1
;   printerModelsOverride
;   startingGcode,G28 X0 Y0 ; home X and Y axes,G29 ; probe z,M201 X1000 Y1000 ; acceleration settings
;   layerChangeGcode,
;   retractionGcode,
;   toolChangeGcode,
;   endingGcode,M104 S0 T0 ; turn off extruder,M140 S0 T1 ; turn off bed,G28 X0 Y0 ; home,M84 ; disable motors
;   createX3G,0
;   celebration,0
;   celebrationSong,Random Song
;   createMB5G,0
;   postProcessing,
;   defaultSpeed,2700
;   outlineUnderspeed,0.8
;   solidInfillUnderspeed,0.8
;   supportUnderspeed,0.8
;   rapidXYspeed,4200
;   rapidZspeed,1002
;   minBridgingArea,50
;   bridgingExtraInflation,0
;   bridgingExtrusionMultiplier,1
;   bridgingSpeedMultiplier,0.8
;   filamentDiameter,1.72
;   filamentPricePerKg,22
;   filamentDensity,1.25
;   useMinPrintHeight,0
;   minPrintHeight,0
;   useMaxPrintHeight,0
;   maxPrintHeight,0
;   useDiaphragm,0
;   diaphragmLayerInterval,20
;   robustSlicing,1
;   mergeAllIntoSolid,0
;   onlyRetractWhenCrossingOutline,1
;   retractBetweenLayers,1
;   useRetractionMinTravel,0
;   retractionMinTravel,3
;   retractWhileWiping,0
;   onlyWipeOutlines,1
;   avoidCrossingOutline,0
;   maxMovementDetourFactor,3
;   toolChangeRetractionDistance,12
;   toolChangeExtraRestartDistance,-0.5
;   toolChangeRetractionSpeed,600
;   allowThinWallGapFill,1
;   thinWallAllowedOverlapPercentage,10
;   horizontalSizeCompensation,0
G90
M82
M106 S0
M140 S70
M190 S70
M104 S210 T0
M109 S210 T0
G28 X0 Y0 ; home X and Y axes
G29 ; probe z
M201 X1000 Y1000 ; acceleration settings
G92 E0
G1 E-1.5000 F1800
G1 Z0.120 F1002
; layer 1, Z = 0.12
T0
; tool H0.200 W0.400
; skirt
G1 X9.448 Y5.955 F4200
G1 E0.1000 F540
G92 E0
G1 X12.298 Y3.106 E0.1387 F1350
G1 X12.959 Y2.832 E0.1634
G1 X30.567 Y2.832 E0.7696
G1 X31.191 Y3.072 E0.7927
G1 X33.972 Y5.586 E0.9217
G1 X34.274 Y6.182 E0.9448
G1 X34.695 Y10.334 E1.0884
G1 X35.100 Y12.293 E1.1573
G1 X35.704 Y14.199 E1.2262
G1 X36.128 Y15.176 E1.2628
G1 X36.886 Y15.326 E1.2894
G1 X36.972 Y15.348 E1.2925
G1 X37.434 Y15.488 E1.3091
G1 X37.517 Y15.518 E1.3121
G1 X38.382 Y15.877 E1.3444
G1 X38.481 Y15.925 E1.3482
G1 X39.006 Y16.223 E1.3690
G1 X39.099 Y16.283 E1.3728
G1 X40.005 Y16.957 E1.4116
G1 X40.073 Y17.012 E1.4147
G1 X40.427 Y17.333 E1.4311
G1 X40.489 Y17.395 E1.4341
G1 X42.154 Y19.230 E1.5194
G1 X43.449 Y20.388 E1.5793
G1 X44.859 Y21.406 E1.6391
G1 X46.367 Y22.272 E1.6990
G1 X47.957 Y22.976 E1.7589
G1 X49.612 Y23.511 E1.8188
G1 X51.313 Y23.870 E1.8786
G1 X53.042 Y24.051 E1.9385
G1 X54.781 Y24.051 E1.9983
G1 X56.510 Y23.870 E2.0582
G1 X58.211 Y23.511 E2.1181
G1 X59.866 Y22.976 E2.1779
G1 X61.456 Y22.272 E2.2378
G1 X62.964 Y21.406 E2.2977
G1 X64.373 Y20.388 E2.3575
G1 X65.669 Y19.230 E2.4174
G1 X67.331 Y17.398 E2.5025
G1 X67.393 Y17.337 E2.5055
G1 X67.744 Y17.018 E2.5219
G1 X67.811 Y16.962 E2.5249
G1 X68.715 Y16.289 E2.5637
G1 X68.808 Y16.228 E2.5675
G1 X69.332 Y15.930 E2.5883
G1 X69.432 Y15.881 E2.5921
G1 X70.296 Y15.521 E2.6243
G1 X70.380 Y15.491 E2.6274
G1 X70.841 Y15.351 E2.6440
G1 X70.927 Y15.329 E2.6471
G1 X71.696 Y15.175 E2.6740
G1 X72.119 Y14.199 E2.7107
G1 X72.723 Y12.293 E2.7795
G1 X73.128 Y10.334 E2.8484
G1 X73.549 Y6.182 E2.9921
G1 X73.851 Y5.586 E3.0151
G1 X76.632 Y3.072 E3.1442
G1 X77.256 Y2.832 E3.1672
G1 X94.864 Y2.832 E3.7734
G1 X95.525 Y3.106 E3.7981
G1 X98.375 Y5.955 E3.9368
G1 X98.649 Y6.617 E3.9615
G1 X98.649 Y16.397 E4.2982
G1 X98.375 Y17.058 E4.3229
G1 X97.867 Y17.566 E4.3476
G1 X102.499 Y17.566 E4.5071
G1 X103.161 Y17.840 E4.5317
G1 X106.010 Y20.690 E4.6705
G1 X106.284 Y21.351 E4.6951
G1 X106.284 Y31.131 E5.0318
G1 X106.010 Y31.793 E5.0565
G1 X103.161 Y34.642 E5.1953
G1 X102.499 Y34.916 E5.2199
G1 X97.856 Y34.916 E5.3798
G1 X96.690 Y38.426 E5.5071
G1 X96.675 Y38.467 E5.5086
G1 X96.590 Y38.687 E5.5167
G1 X96.574 Y38.727 E5.5182
G1 X94.924 Y42.451 E5.6584
G1 X94.905 Y42.490 E5.6599
G1 X94.800 Y42.700 E5.6680
G1 X94.779 Y42.738 E5.6695
G1 X92.787 Y46.275 E5.8093
G1 X92.764 Y46.312 E5.8108
G1 X92.639 Y46.511 E5.8189
G1 X92.615 Y46.548 E5.8204
G1 X90.282 Y49.889 E5.9607
G1 X90.257 Y49.924 E5.9622
G1 X90.113 Y50.110 E5.9703
G1 X90.086 Y50.144 E5.9718
G1 X87.454 Y53.234 E6.1115
G1 X87.425 Y53.266 E6.1130
G1 X87.263 Y53.438 E6.1211
G1 X87.233 Y53.469 E6.1226
G1 X84.304 Y56.303 E6.2629
G1 X84.273 Y56.332 E6.2644
G1 X84.096 Y56.487 E6.2725
G1 X84.063 Y56.515 E6.2740
G1 X80.889 Y59.045 E6.4138
G1 X80.854 Y59.071 E6.4153
G1 X80.663 Y59.209 E6.4234
G1 X80.628 Y59.233 E6.4248
G1 X77.224 Y61.448 E6.5647
G1 X77.187 Y61.471 E6.5662
G1 X76.984 Y61.590 E6.5743
G1 X76.946 Y61.611 E6.5758
G1 X73.334 Y63.494 E6.7160
G1 X73.296 Y63.513 E6.7175
G1 X73.082 Y63.611 E6.7256
G1 X73.042 Y63.629 E6.7271
G1 X69.279 Y65.151 E6.8668
G1 X69.239 Y65.167 E6.8683
G1 X69.016 Y65.245 E6.8764
G1 X68.975 Y65.258 E6.8779
G1 X65.068 Y66.416 E7.0182
G1 X65.027 Y66.428 E7.0197
G1 X64.798 Y66.484 E7.0278
G1 X64.756 Y66.493 E7.0293
G1 X60.771 Y67.268 E7.1691
G1 X60.728 Y67.276 E7.1706
G1 X60.495 Y67.310 E7.1787
G1 X60.452 Y67.315 E7.1802
G1 X56.396 Y67.705 E7.3205
G1 X56.353 Y67.708 E7.3220
G1 X56.117 Y67.719 E7.3301
G1 X56.074 Y67.720 E7.3316
G1 X52.015 Y67.720 E7.4713
G1 X51.972 Y67.719 E7.4728
G1 X51.736 Y67.707 E7.4809
G1 X51.693 Y67.704 E7.4824
G1 X47.637 Y67.312 E7.6227
G1 X47.594 Y67.306 E7.6242
G1 X47.361 Y67.273 E7.6323
G1 X47.319 Y67.265 E7.6338
G1 X43.335 Y66.489 E7.7736
G1 X43.293 Y66.480 E7.7750
G1 X43.064 Y66.424 E7.7832
G1 X43.022 Y66.412 E7.7846
G1 X39.131 Y65.257 E7.9244
G1 X39.090 Y65.244 E7.9259
G1 X38.867 Y65.166 E7.9340
G1 X38.827 Y65.151 E7.9355
G1 X35.050 Y63.621 E8.0758
G1 X35.010 Y63.604 E8.0773
G1 X34.797 Y63.505 E8.0854
G1 X34.758 Y63.486 E8.0869
G1 X31.159 Y61.609 E8.2266
G1 X31.121 Y61.588 E8.2281
G1 X30.917 Y61.469 E8.2363
G1 X30.881 Y61.446 E8.2377
G1 X27.466 Y59.223 E8.3780
G1 X27.430 Y59.198 E8.3795
G1 X27.239 Y59.060 E8.3876
G1 X27.205 Y59.034 E8.3891
G1 X24.031 Y56.503 E8.5289
G1 X23.998 Y56.476 E8.5304
G1 X23.821 Y56.320 E8.5385
G1 X23.789 Y56.290 E8.5400
G1 X20.862 Y53.455 E8.6803
G1 X20.832 Y53.424 E8.6818
G1 X20.671 Y53.253 E8.6899
G1 X20.642 Y53.220 E8.6914
G1 X18.011 Y50.130 E8.8311
G1 X17.984 Y50.096 E8.8326
G1 X17.840 Y49.910 E8.8407
G1 X17.815 Y49.875 E8.8422
G1 X15.492 Y46.546 E8.9820
G1 X15.468 Y46.510 E8.9834
G1 X15.342 Y46.310 E8.9916
G1 X15.320 Y46.273 E8.9931
G1 X13.321 Y42.723 E9.1333
G1 X13.300 Y42.685 E9.1348
G1 X13.195 Y42.474 E9.1429
G1 X13.176 Y42.435 E9.1444
G1 X11.533 Y38.724 E9.2842
G1 X11.516 Y38.684 E9.2857
G1 X11.431 Y38.464 E9.2938
G1 X11.417 Y38.423 E9.2953
G1 X10.252 Y34.916 E9.4225
G1 X5.609 Y34.916 E9.5824
G1 X4.947 Y34.642 E9.6071
G1 X2.097 Y31.793 E9.7458
G1 X1.823 Y31.131 E9.7705
G1 X1.823 Y21.351 E10.1072
G1 X2.097 Y20.690 E10.1318
G1 X4.947 Y17.840 E10.2706
G1 X5.609 Y17.566 E10.2952
G1 X9.956 Y17.566 E10.4449
G1 X9.448 Y17.058 E10.4697
G1 X9.174 Y16.397 E10.4943
G1 X9.174 Y6.617 E10.8310
G1 X9.448 Y5.955 E10.8557
G1 X9.787 Y6.182 F4200
G92 E0
G1 X12.524 Y3.445 E0.1333 F1350
G1 X13.039 Y3.232 E0.1524
G1 X30.492 Y3.232 E0.7534
G1 X30.978 Y3.419 E0.7713
G1 X33.649 Y5.832 E0.8952
G1 X33.883 Y6.297 E0.9131
G1 X34.299 Y10.395 E1.0550
G1 X34.712 Y12.394 E1.1253
G1 X35.329 Y14.340 E1.1955
G1 X35.848 Y15.536 E1.2404
G1 X35.897 Y15.541 E1.2421
G1 X35.964 Y15.551 E1.2445
G1 X36.798 Y15.717 E1.2737
G1 X36.865 Y15.734 E1.2761
G1 X37.308 Y15.868 E1.2921
G1 X37.373 Y15.891 E1.2944
G1 X38.217 Y16.241 E1.3259
G1 X38.295 Y16.279 E1.3289
G1 X38.798 Y16.565 E1.3488
G1 X38.870 Y16.612 E1.3518
G1 X39.759 Y17.272 E1.3899
G1 X39.811 Y17.315 E1.3922
G1 X40.151 Y17.623 E1.4080
G1 X40.199 Y17.671 E1.4103
G1 X41.871 Y19.514 E1.4960
G1 X43.198 Y20.701 E1.5573
G1 X44.642 Y21.743 E1.6186
G1 X46.186 Y22.629 E1.6799
G1 X47.814 Y23.350 E1.7412
G1 X49.509 Y23.898 E1.8025
G1 X51.250 Y24.266 E1.8638
G1 X53.021 Y24.451 E1.9251
G1 X54.802 Y24.451 E1.9864
G1 X56.573 Y24.266 E2.0477
G1 X58.315 Y23.898 E2.1090
G1 X60.009 Y23.350 E2.1704
G1 X61.637 Y22.629 E2.2317
G1 X63.181 Y21.743 E2.2930
G1 X64.624 Y20.701 E2.3543
G1 X65.952 Y19.514 E2.4155
G1 X67.621 Y17.674 E2.5011
G1 X67.669 Y17.626 E2.5034
G1 X68.006 Y17.320 E2.5191
G1 X68.058 Y17.277 E2.5214
G1 X68.944 Y16.617 E2.5595
G1 X69.017 Y16.570 E2.5624
G1 X69.520 Y16.284 E2.5824
G1 X69.597 Y16.246 E2.5853
G1 X70.441 Y15.894 E2.6168
G1 X70.506 Y15.871 E2.6192
G1 X70.949 Y15.736 E2.6351
G1 X71.015 Y15.719 E2.6375
G1 X71.851 Y15.552 E2.6668
G1 X71.918 Y15.542 E2.6692
G1 X71.975 Y15.536 E2.6711
G1 X72.494 Y14.340 E2.7160
G1 X73.111 Y12.394 E2.7863
G1 X73.524 Y10.395 E2.8566
G1 X73.939 Y6.297 E2.9984
G1 X74.174 Y5.832 E3.0163
G1 X76.845 Y3.419 E3.1403
G1 X77.331 Y3.232 E3.1582
G1 X94.784 Y3.232 E3.7591
G1 X95.299 Y3.445 E3.7783
G1 X98.036 Y6.182 E3.9116
G1 X98.249 Y6.696 E3.9308
G1 X98.249 Y16.317 E4.2620
G1 X98.036 Y16.832 E4.2812
G1 X96.901 Y17.966 E4.3364
G1 X102.420 Y17.966 E4.5264
G1 X102.934 Y18.179 E4.5456
G1 X105.671 Y20.916 E4.6789
G1 X105.884 Y21.431 E4.6980
G1 X105.884 Y31.051 E5.0293
G1 X105.671 Y31.566 E5.0485
G1 X102.934 Y34.303 E5.1817
G1 X102.420 Y34.516 E5.2009
G1 X97.568 Y34.516 E5.3679
G1 X96.312 Y38.295 E5.5051
G1 X96.300 Y38.327 E5.5062
G1 X96.219 Y38.538 E5.5140
G1 X96.206 Y38.569 E5.5152
G1 X94.560 Y42.284 E5.6551
G1 X94.546 Y42.315 E5.6562
G1 X94.444 Y42.516 E5.6640
G1 X94.428 Y42.546 E5.6652
G1 X92.440 Y46.074 E5.8046
G1 X92.423 Y46.103 E5.8058
G1 X92.303 Y46.294 E5.8135
G1 X92.284 Y46.323 E5.8147
G1 X89.957 Y49.656 E5.9547
G1 X89.937 Y49.683 E5.9558
G1 X89.799 Y49.862 E5.9636
G1 X89.778 Y49.888 E5.9648
G1 X87.152 Y52.971 E6.1042
G1 X87.130 Y52.996 E6.1053
G1 X86.975 Y53.161 E6.1131
G1 X86.951 Y53.185 E6.1143
G1 X84.030 Y56.012 E6.2543
G1 X84.005 Y56.035 E6.2554
G1 X83.835 Y56.184 E6.2632
G1 X83.810 Y56.205 E6.2644
G1 X80.643 Y58.729 E6.4038
G1 X80.616 Y58.749 E6.4049
G1 X80.433 Y58.881 E6.4127
G1 X80.406 Y58.900 E6.4139
G1 X77.010 Y61.110 E6.5534
G1 X76.981 Y61.128 E6.5545
G1 X76.786 Y61.242 E6.5623
G1 X76.757 Y61.258 E6.5635
G1 X73.154 Y63.137 E6.7034
G1 X73.123 Y63.152 E6.7045
G1 X72.918 Y63.246 E6.7123
G1 X72.887 Y63.260 E6.7135
G1 X69.134 Y64.779 E6.8529
G1 X69.102 Y64.791 E6.8540
G1 X68.889 Y64.865 E6.8618
G1 X68.857 Y64.876 E6.8630
G1 X64.959 Y66.032 E7.0030
G1 X64.927 Y66.040 E7.0041
G1 X64.707 Y66.094 E7.0119
G1 X64.674 Y66.101 E7.0130
G1 X60.700 Y66.875 E7.1525
G1 X60.666 Y66.880 E7.1536
G1 X60.442 Y66.913 E7.1614
G1 X60.409 Y66.917 E7.1626
G1 X56.362 Y67.306 E7.3026
G1 X56.329 Y67.309 E7.3037
G1 X56.103 Y67.320 E7.3115
G1 X56.070 Y67.320 E7.3126
G1 X52.020 Y67.320 E7.4521
G1 X51.986 Y67.319 E7.4532
G1 X51.760 Y67.308 E7.4610
G1 X51.727 Y67.306 E7.4622
G1 X47.680 Y66.914 E7.6022
G1 X47.647 Y66.910 E7.6033
G1 X47.424 Y66.877 E7.6111
G1 X47.390 Y66.872 E7.6122
G1 X43.416 Y66.097 E7.7517
G1 X43.383 Y66.090 E7.7528
G1 X43.164 Y66.036 E7.7606
G1 X43.132 Y66.027 E7.7617
G1 X39.250 Y64.875 E7.9012
G1 X39.218 Y64.865 E7.9023
G1 X39.004 Y64.790 E7.9101
G1 X38.973 Y64.778 E7.9113
G1 X35.205 Y63.252 E8.0512
G1 X35.174 Y63.239 E8.0524
G1 X34.969 Y63.144 E8.0602
G1 X34.938 Y63.130 E8.0613
G1 X31.348 Y61.256 E8.2008
G1 X31.319 Y61.240 E8.2019
G1 X31.123 Y61.126 E8.2097
G1 X31.095 Y61.108 E8.2109
G1 X27.688 Y58.890 E8.3508
G1 X27.660 Y58.871 E8.3520
G1 X27.477 Y58.739 E8.3598
G1 X27.450 Y58.719 E8.3609
G1 X24.284 Y56.194 E8.5004
G1 X24.259 Y56.172 E8.5015
G1 X24.089 Y56.023 E8.5093
G1 X24.064 Y56.000 E8.5105
G1 X21.144 Y53.171 E8.6504
G1 X21.120 Y53.147 E8.6516
G1 X20.966 Y52.982 E8.6594
G1 X20.944 Y52.957 E8.6605
G1 X18.319 Y49.874 E8.7999
G1 X18.298 Y49.848 E8.8011
G1 X18.160 Y49.669 E8.8089
G1 X18.140 Y49.642 E8.8100
G1 X15.823 Y46.321 E8.9495
G1 X15.804 Y46.293 E8.9506
G1 X15.684 Y46.102 E8.9584
G1 X15.666 Y46.073 E8.9596
G1 X13.671 Y42.531 E9.0995
G1 X13.656 Y42.501 E9.1007
G1 X13.554 Y42.299 E9.1085
G1 X13.540 Y42.269 E9.1096
G1 X11.900 Y38.566 E9.2490
G1 X11.888 Y38.535 E9.2502
G1 X11.806 Y38.324 E9.2580
G1 X11.795 Y38.292 E9.2591
G1 X10.541 Y34.516 E9.3961
G1 X5.688 Y34.516 E9.5632
G1 X5.174 Y34.303 E9.5824
G1 X2.437 Y31.566 E9.7157
G1 X2.223 Y31.051 E9.7348
G1 X2.223 Y21.431 E10.0661
G1 X2.437 Y20.916 E10.0853
G1 X5.174 Y18.179 E10.2185
G1 X5.688 Y17.966 E10.2377
G1 X10.922 Y17.966 E10.4179
G1 X9.787 Y16.832 E10.4731
G1 X9.574 Y16.317 E10.4923
G1 X9.574 Y6.696 E10.8236
G1 X9.787 Y6.182 E10.8427
G1 X10.127 Y6.409 F4200
G92 E0
