; G-Code generated by Simplify3D(R) Version 3.0.2
; Oct 7, 2015 at 10:57:08 AM
; Settings Summary
;   processName,Process1
;   applyToModels,660_lower_main
;   profileName,PrinterBot Simple Metal Custom (modified)
;   profileVersion,2015-05-01 08:00:00
;   baseProfile,Default (modified)
;   printMaterial,PLA
;   printQuality,Medium
;   printExtruders,
;   extruderName,Primary Extruder
;   extruderToolheadNumber,0
;   extruderDiameter,0.4
;   extruderAutoWidth,0
;   extruderWidth,0.4
;   extrusionMultiplier,1
;   extruderUseRetract,1
;   extruderRetractionDistance,1.5
;   extruderExtraRestartDistance,0.1
;   extruderRetractionZLift,0
;   extruderRetractionSpeed,1800
;   extruderUseCoasting,0
;   extruderCoastingDistance,0.2
;   extruderUseWipe,0
;   extruderWipeDistance,5
;   primaryExtruder,0
;   layerHeight,0.2
;   topSolidLayers,3
;   bottomSolidLayers,3
;   perimeterOutlines,2
;   printPerimetersInsideOut,1
;   startPointOption,2
;   startPointOriginX,0
;   startPointOriginY,0
;   startPointOriginZ,300
;   sequentialIslands,0
;   spiralVaseMode,0
;   firstLayerHeightPercentage,60
;   firstLayerWidthPercentage,100
;   firstLayerUnderspeed,0.5
;   useRaft,0
;   raftExtruder,0
;   raftLayers,3
;   raftOffset,3
;   raftSeparationDistance,0.14
;   raftInfill,85
;   disableRaftBaseLayers,0
;   useSkirt,1
;   skirtExtruder,0
;   skirtLayers,1
;   skirtOutlines,5
;   skirtOffset,4
;   usePrimePillar,0
;   primePillarExtruder,999
;   primePillarWidth,12
;   primePillarLocation,7
;   primePillarSpeedMultiplier,1
;   useOozeShield,0
;   oozeShieldExtruder,999
;   oozeShieldOffset,2
;   oozeShieldOutlines,1
;   oozeShieldSidewallShape,1
;   oozeShieldSidewallAngle,30
;   oozeShieldSpeedMultiplier,1
;   infillExtruder,0
;   internalInfillPattern,Rectilinear
;   externalInfillPattern,Rectilinear
;   infillPercentage,70
;   outlineOverlapPercentage,15
;   infillExtrusionWidthPercentage,100
;   minInfillLength,5
;   infillLayerInterval,1
;   infillAngles,45,-45
;   overlapInfillAngles,0
;   generateSupport,0
;   supportExtruder,0
;   supportInfillPercentage,30
;   supportExtraInflation,0.4
;   denseSupportLayers,0
;   denseSupportInfillPercentage,70
;   supportLayerInterval,1
;   supportHorizontalPartOffset,0.3
;   supportUpperSeparationLayers,1
;   supportLowerSeparationLayers,1
;   supportType,0
;   supportGridSpacing,4
;   maxOverhangAngle,45
;   supportAngles,0
;   temperatureName,Primary Extruder,Heated Bed
;   temperatureNumber,0,1
;   temperatureSetpointCount,2,3
;   temperatureSetpointLayers,1,2,1,2,3
;   temperatureSetpointTemperatures,210,200,70,65,63
;   temperatureStabilizeAtStartup,1,1
;   temperatureHeatedBed,0,1
;   temperatureRelayBetweenLayers,0,0
;   temperatureRelayBetweenLoops,0,0
;   fanLayers,1,2,3
;   fanSpeeds,0,0,100
;   blipFanToFullPower,1
;   adjustSpeedForCooling,1
;   minSpeedLayerTime,15
;   minCoolingSpeedSlowdown,20
;   increaseFanForCooling,0
;   minFanLayerTime,45
;   maxCoolingFanSpeed,100
;   increaseFanForBridging,0
;   bridgingFanSpeed,100
;   use5D,1
;   relativeEdistances,0
;   allowEaxisZeroing,1
;   independentExtruderAxes,0
;   includeM10123,0
;   stickySupport,1
;   applyToolheadOffsets,0
;   gcodeXoffset,0
;   gcodeYoffset,0
;   gcodeZoffset,0
;   overrideMachineDefinition,1
;   machineTypeOverride,0
;   strokeXoverride,150
;   strokeYoverride,150
;   strokeZoverride,150
;   originOffsetXoverride,0
;   originOffsetYoverride,0
;   originOffsetZoverride,0
;   homeXdirOverride,-1
;   homeYdirOverride,-1
;   homeZdirOverride,-1
;   flipXoverride,1
;   flipYoverride,-1
;   flipZoverride,1
;   toolheadOffsets,0,0|0,0|0,0|0,0|0,0|0,0
;   overrideFirmwareConfiguration,1
;   firmwareTypeOverride,RepRap (Marlin/Repetier/Sprinter)
;   GPXconfigOverride,r2
;   baudRateOverride,250000
;   overridePrinterModels,1
;   printerModelsOverride
;   startingGcode,G28 X0 Y0 ; home X and Y axes,G29 ; probe z,M201 X1000 Y1000 ; acceleration settings
;   layerChangeGcode,
;   retractionGcode,
;   toolChangeGcode,
;   endingGcode,M104 S0 T0 ; turn off extruder,M140 S0 T1 ; turn off bed,G28 X0 Y0 ; home,M84 ; disable motors
;   createX3G,0
;   celebration,0
;   celebrationSong,Random Song
;   createMB5G,0
;   postProcessing,
;   defaultSpeed,2700
;   outlineUnderspeed,0.8
;   solidInfillUnderspeed,0.8
;   supportUnderspeed,0.8
;   rapidXYspeed,4200
;   rapidZspeed,1002
;   minBridgingArea,50
;   bridgingExtraInflation,0
;   bridgingExtrusionMultiplier,1
;   bridgingSpeedMultiplier,0.8
;   filamentDiameter,1.72
;   filamentPricePerKg,22
;   filamentDensity,1.25
;   useMinPrintHeight,0
;   minPrintHeight,0
;   useMaxPrintHeight,0
;   maxPrintHeight,0
;   useDiaphragm,0
;   diaphragmLayerInterval,20
;   robustSlicing,1
;   mergeAllIntoSolid,0
;   onlyRetractWhenCrossingOutline,1
;   retractBetweenLayers,1
;   useRetractionMinTravel,0
;   retractionMinTravel,3
;   retractWhileWiping,0
;   onlyWipeOutlines,1
;   avoidCrossingOutline,0
;   maxMovementDetourFactor,3
;   toolChangeRetractionDistance,12
;   toolChangeExtraRestartDistance,-0.5
;   toolChangeRetractionSpeed,600
;   allowThinWallGapFill,1
;   thinWallAllowedOverlapPercentage,10
;   horizontalSizeCompensation,0
G90
M82
M106 S0
M140 S70
M190 S70
M104 S210 T0
M109 S210 T0
G28 X0 Y0 ; home X and Y axes
G29 ; probe z
M201 X1000 Y1000 ; acceleration settings
G92 E0
G1 E-1.5000 F1800
G1 Z0.120 F1002
; layer 1, Z = 0.12
T0
; tool H0.200 W0.400
; skirt
G1 X7.686 Y5.568 F4200
G1 E0.1000 F540
G92 E0
G1 X8.348 Y5.294 E0.0247 F1350
G1 X25.955 Y5.294 E0.6309
G1 X26.579 Y5.535 E0.6539
G1 X29.360 Y8.048 E0.7830
G1 X29.662 Y8.645 E0.8060
G1 X30.083 Y12.797 E0.9497
G1 X30.488 Y14.755 E1.0185
G1 X31.092 Y16.662 E1.0874
G1 X31.516 Y17.638 E1.1240
G1 X32.279 Y17.790 E1.1508
G1 X32.365 Y17.812 E1.1539
G1 X32.827 Y17.952 E1.1705
G1 X32.910 Y17.982 E1.1736
G1 X33.775 Y18.341 E1.2058
G1 X33.874 Y18.390 E1.2096
G1 X34.399 Y18.688 E1.2304
G1 X34.492 Y18.748 E1.2342
G1 X35.397 Y19.422 E1.2730
G1 X35.464 Y19.477 E1.2761
G1 X35.817 Y19.797 E1.2924
G1 X35.879 Y19.859 E1.2955
G1 X37.542 Y21.692 E1.3807
G1 X38.838 Y22.851 E1.4405
G1 X40.248 Y23.869 E1.5004
G1 X41.756 Y24.734 E1.5603
G1 X43.345 Y25.438 E1.6201
G1 X45.000 Y25.973 E1.6800
G1 X46.701 Y26.333 E1.7399
G1 X48.430 Y26.514 E1.7997
G1 X50.169 Y26.514 E1.8596
G1 X51.899 Y26.333 E1.9195
G1 X53.600 Y25.973 E1.9793
G1 X55.254 Y25.438 E2.0392
G1 X56.844 Y24.734 E2.0991
G1 X58.352 Y23.869 E2.1589
G1 X59.762 Y22.851 E2.2188
G1 X61.058 Y21.692 E2.2786
G1 X62.721 Y19.859 E2.3639
G1 X62.783 Y19.797 E2.3669
G1 X63.135 Y19.478 E2.3833
G1 X63.203 Y19.422 E2.3863
G1 X64.108 Y18.748 E2.4251
G1 X64.201 Y18.688 E2.4289
G1 X64.725 Y18.390 E2.4497
G1 X64.825 Y18.341 E2.4535
G1 X65.689 Y17.982 E2.4858
G1 X65.773 Y17.952 E2.4888
G1 X66.235 Y17.812 E2.5054
G1 X66.321 Y17.790 E2.5085
G1 X67.084 Y17.638 E2.5353
G1 X67.508 Y16.662 E2.5719
G1 X68.112 Y14.755 E2.6408
G1 X68.517 Y12.797 E2.7096
G1 X68.937 Y8.645 E2.8533
G1 X69.239 Y8.048 E2.8763
G1 X72.020 Y5.535 E3.0054
G1 X72.645 Y5.294 E3.0284
G1 X90.252 Y5.294 E3.6347
G1 X90.914 Y5.568 E3.6593
G1 X93.763 Y8.418 E3.7981
G1 X94.037 Y9.079 E3.8227
G1 X94.037 Y18.859 E4.1594
G1 X93.763 Y19.521 E4.1841
G1 X90.914 Y22.370 E4.3229
G1 X90.252 Y22.644 E4.3475
G1 X85.366 Y22.644 E4.5157
G1 X84.485 Y24.972 E4.6014
G1 X84.468 Y25.012 E4.6029
G1 X84.374 Y25.229 E4.6110
G1 X84.356 Y25.268 E4.6125
G1 X82.867 Y28.286 E4.7284
G1 X82.847 Y28.325 E4.7299
G1 X82.731 Y28.532 E4.7381
G1 X82.709 Y28.569 E4.7396
G1 X80.925 Y31.446 E4.8561
G1 X80.902 Y31.482 E4.8576
G1 X80.767 Y31.677 E4.8657
G1 X80.742 Y31.712 E4.8672
G1 X78.702 Y34.387 E4.9831
G1 X78.675 Y34.420 E4.9845
G1 X78.524 Y34.600 E4.9926
G1 X78.495 Y34.633 E4.9941
G1 X75.692 Y37.657 E5.1361
G1 X75.341 Y38.122 E5.1562
G1 X75.037 Y38.620 E5.1762
G1 X74.782 Y39.148 E5.1964
G1 X74.581 Y39.700 E5.2167
G1 X74.435 Y40.267 E5.2368
G1 X74.346 Y40.847 E5.2570
G1 X74.314 Y41.432 E5.2772
G1 X74.341 Y42.020 E5.2975
G1 X74.426 Y42.599 E5.3176
G1 X74.572 Y43.188 E5.3385
G1 X75.693 Y46.403 E5.4557
G1 X77.088 Y49.522 E5.5734
G1 X78.746 Y52.517 E5.6912
G1 X82.065 Y57.466 E5.8964
G1 X82.185 Y58.266 E5.9243
G1 X80.860 Y62.662 E6.0823
G1 X80.319 Y63.262 E6.1102
G1 X77.404 Y64.475 E6.2189
G1 X76.892 Y64.750 E6.2389
G1 X76.411 Y65.072 E6.2588
G1 X75.964 Y65.439 E6.2787
G1 X75.555 Y65.847 E6.2986
G1 X75.188 Y66.293 E6.3185
G1 X74.864 Y66.775 E6.3385
G1 X74.589 Y67.284 E6.3584
G1 X74.366 Y67.819 E6.3784
G1 X73.132 Y71.815 E6.5224
G1 X72.251 Y72.509 E6.5610
G1 X65.619 Y72.927 E6.7898
G1 X64.658 Y72.349 E6.8284
G1 X62.080 Y66.657 E7.0435
G1 X60.773 Y64.331 E7.1354
G1 X59.263 Y62.118 E7.2276
G1 X57.573 Y60.050 E7.3196
G1 X55.715 Y58.140 E7.4113
G1 X55.141 Y57.644 E7.4374
G1 X43.459 Y57.644 E7.8396
G1 X42.878 Y58.147 E7.8661
G1 X41.020 Y60.057 E7.9579
G1 X39.328 Y62.130 E8.0500
G1 X37.824 Y64.335 E8.1419
G1 X36.517 Y66.662 E8.2338
G1 X33.943 Y72.348 E8.4487
G1 X32.981 Y72.927 E8.4873
G1 X26.349 Y72.509 E8.7161
G1 X25.468 Y71.815 E8.7547
G1 X24.233 Y67.816 E8.8988
G1 X24.010 Y67.284 E8.9187
G1 X23.734 Y66.772 E8.9387
G1 X23.411 Y66.291 E8.9587
G1 X23.043 Y65.845 E8.9786
G1 X22.635 Y65.438 E8.9984
G1 X22.188 Y65.071 E9.0183
G1 X21.705 Y64.748 E9.0383
G1 X21.194 Y64.475 E9.0583
G1 X18.281 Y63.262 E9.1669
G1 X17.739 Y62.662 E9.1948
G1 X16.414 Y58.266 E9.3528
G1 X16.534 Y57.467 E9.3807
G1 X19.856 Y52.512 E9.5860
G1 X21.513 Y49.518 E9.7039
G1 X22.913 Y46.384 E9.8221
G1 X24.029 Y43.184 E9.9387
G1 X24.174 Y42.595 E9.9596
G1 X24.259 Y42.014 E9.9798
G1 X24.285 Y41.428 E10.0000
G1 X24.253 Y40.842 E10.0202
G1 X24.163 Y40.262 E10.0405
G1 X24.017 Y39.693 E10.0607
G1 X23.815 Y39.143 E10.0809
G1 X23.558 Y38.612 E10.1011
G1 X23.255 Y38.117 E10.1211
G1 X22.903 Y37.651 E10.1412
G1 X20.091 Y34.616 E10.2837
G1 X20.062 Y34.584 E10.2852
G1 X19.910 Y34.403 E10.2933
G1 X19.883 Y34.369 E10.2948
G1 X17.844 Y31.693 E10.4106
G1 X17.819 Y31.658 E10.4121
G1 X17.685 Y31.464 E10.4203
G1 X17.661 Y31.427 E10.4218
G1 X15.889 Y28.567 E10.5376
G1 X15.867 Y28.529 E10.5391
G1 X15.752 Y28.322 E10.5473
G1 X15.732 Y28.284 E10.5488
G1 X14.235 Y25.247 E10.6653
G1 X14.217 Y25.208 E10.6668
G1 X14.122 Y24.991 E10.6750
G1 X14.106 Y24.951 E10.6765
G1 X13.234 Y22.644 E10.7614
G1 X8.348 Y22.644 E10.9296
G1 X7.686 Y22.370 E10.9542
G1 X4.837 Y19.521 E11.0930
G1 X4.563 Y18.859 E11.1177
G1 X4.563 Y9.079 E11.4544
G1 X4.837 Y8.418 E11.4790
G1 X7.686 Y5.568 E11.6178
G1 X7.913 Y5.907 F4200
G92 E0
G1 X8.427 Y5.694 E0.0192 F1350
G1 X25.881 Y5.694 E0.6201
G1 X26.366 Y5.881 E0.6380
G1 X29.037 Y8.295 E0.7620
G1 X29.272 Y8.759 E0.7799
G1 X29.687 Y12.857 E0.9217
G1 X30.100 Y14.856 E0.9920
G1 X30.717 Y16.802 E1.0623
G1 X31.236 Y17.998 E1.1072
G1 X31.289 Y18.004 E1.1090
G1 X31.356 Y18.014 E1.1113
G1 X32.191 Y18.180 E1.1406
G1 X32.258 Y18.197 E1.1430
G1 X32.701 Y18.332 E1.1590
G1 X32.766 Y18.355 E1.1613
G1 X33.610 Y18.706 E1.1928
G1 X33.687 Y18.744 E1.1958
G1 X34.191 Y19.030 E1.2157
G1 X34.263 Y19.077 E1.2187
G1 X35.150 Y19.737 E1.2567
G1 X35.203 Y19.780 E1.2591
G1 X35.541 Y20.087 E1.2748
G1 X35.589 Y20.135 E1.2772
G1 X37.260 Y21.977 E1.3628
G1 X38.587 Y23.163 E1.4240
G1 X40.030 Y24.205 E1.4854
G1 X41.575 Y25.091 E1.5467
G1 X43.203 Y25.812 E1.6080
G1 X44.897 Y26.360 E1.6693
G1 X46.639 Y26.728 E1.7306
G1 X48.410 Y26.914 E1.7919
G1 X50.190 Y26.914 E1.8532
G1 X51.961 Y26.728 E1.9145
G1 X53.703 Y26.360 E1.9758
G1 X55.397 Y25.812 E2.0371
G1 X57.025 Y25.092 E2.0984
G1 X58.569 Y24.205 E2.1597
G1 X60.013 Y23.163 E2.2210
G1 X61.340 Y21.977 E2.2823
G1 X63.011 Y20.135 E2.3679
G1 X63.059 Y20.087 E2.3702
G1 X63.397 Y19.780 E2.3860
G1 X63.449 Y19.737 E2.3883
G1 X64.337 Y19.077 E2.4264
G1 X64.409 Y19.030 E2.4293
G1 X64.912 Y18.744 E2.4493
G1 X64.990 Y18.706 E2.4522
G1 X65.834 Y18.355 E2.4837
G1 X65.899 Y18.332 E2.4861
G1 X66.342 Y18.197 E2.5020
G1 X66.408 Y18.180 E2.5044
G1 X67.244 Y18.014 E2.5337
G1 X67.310 Y18.004 E2.5360
G1 X67.363 Y17.998 E2.5379
G1 X67.883 Y16.802 E2.5828
G1 X68.499 Y14.856 E2.6531
G1 X68.913 Y12.857 E2.7233
G1 X69.328 Y8.759 E2.8652
G1 X69.563 Y8.295 E2.8831
G1 X72.233 Y5.881 E3.0070
G1 X72.719 Y5.694 E3.0249
G1 X90.172 Y5.694 E3.6259
G1 X90.687 Y5.907 E3.6450
G1 X93.424 Y8.644 E3.7783
G1 X93.637 Y9.159 E3.7975
G1 X93.637 Y18.780 E4.1287
G1 X93.424 Y19.294 E4.1479
G1 X90.687 Y22.031 E4.2812
G1 X90.172 Y22.244 E4.3004
G1 X85.090 Y22.244 E4.4753
G1 X84.112 Y24.826 E4.5704
G1 X84.100 Y24.857 E4.5715
G1 X84.009 Y25.065 E4.5793
G1 X83.995 Y25.095 E4.5805
G1 X82.510 Y28.105 E4.6960
G1 X82.494 Y28.135 E4.6972
G1 X82.384 Y28.333 E4.7050
G1 X82.367 Y28.363 E4.7062
G1 X80.588 Y31.231 E4.8224
G1 X80.569 Y31.259 E4.8236
G1 X80.441 Y31.446 E4.8314
G1 X80.421 Y31.473 E4.8325
G1 X78.387 Y34.140 E4.9480
G1 X78.366 Y34.167 E4.9492
G1 X78.221 Y34.339 E4.9569
G1 X78.199 Y34.364 E4.9581
G1 X75.385 Y37.400 E5.1006
G1 X75.010 Y37.897 E5.1220
G1 X74.685 Y38.428 E5.1435
G1 X74.413 Y38.992 E5.1651
G1 X74.198 Y39.581 E5.1866
G1 X74.042 Y40.187 E5.2082
G1 X73.947 Y40.806 E5.2297
G1 X73.914 Y41.430 E5.2513
G1 X73.943 Y42.058 E5.2729
G1 X74.033 Y42.676 E5.2944
G1 X74.188 Y43.302 E5.3166
G1 X75.321 Y46.551 E5.4351
G1 X76.730 Y49.701 E5.5539
G1 X78.405 Y52.726 E5.6729
G1 X81.683 Y57.615 E5.8756
G1 X81.777 Y58.236 E5.8972
G1 X80.503 Y62.460 E6.0491
G1 X80.082 Y62.927 E6.0708
G1 X77.233 Y64.113 E6.1771
G1 X76.686 Y64.407 E6.1984
G1 X76.172 Y64.751 E6.2197
G1 X75.695 Y65.142 E6.2409
G1 X75.259 Y65.577 E6.2622
G1 X74.867 Y66.053 E6.2834
G1 X74.521 Y66.568 E6.3048
G1 X74.228 Y67.112 E6.3260
G1 X73.989 Y67.682 E6.3473
G1 X72.787 Y71.577 E6.4877
G1 X72.101 Y72.117 E6.5177
G1 X65.719 Y72.520 E6.7379
G1 X64.971 Y72.070 E6.7680
G1 X62.437 Y66.476 E6.9794
G1 X61.113 Y64.120 E7.0725
G1 X59.584 Y61.878 E7.1659
G1 X57.872 Y59.783 E7.2590
G1 X55.990 Y57.849 E7.3520
G1 X55.290 Y57.244 E7.3838
G1 X43.310 Y57.244 E7.7963
G1 X42.603 Y57.855 E7.8284
G1 X40.721 Y59.791 E7.9214
G1 X39.007 Y61.890 E8.0147
G1 X37.484 Y64.124 E8.1078
G1 X36.160 Y66.481 E8.2009
G1 X33.630 Y72.070 E8.4121
G1 X32.882 Y72.519 E8.4422
G1 X26.499 Y72.118 E8.6624
G1 X25.813 Y71.578 E8.6924
G1 X24.610 Y67.680 E8.8329
G1 X24.371 Y67.111 E8.8541
G1 X24.077 Y66.565 E8.8754
G1 X23.732 Y66.052 E8.8967
G1 X23.340 Y65.576 E8.9180
G1 X22.903 Y65.141 E8.9392
G1 X22.426 Y64.749 E8.9604
G1 X21.911 Y64.405 E8.9818
G1 X21.365 Y64.113 E9.0031
G1 X18.518 Y62.927 E9.1093
G1 X18.097 Y62.461 E9.1309
G1 X16.823 Y58.237 E9.2828
G1 X16.916 Y57.615 E9.3045
G1 X20.198 Y52.721 E9.5074
G1 X21.872 Y49.697 E9.6263
G1 X23.286 Y46.532 E9.7457
G1 X24.412 Y43.298 E9.8636
G1 X24.567 Y42.672 E9.8858
G1 X24.657 Y42.052 E9.9074
G1 X24.685 Y41.426 E9.9290
G1 X24.651 Y40.800 E9.9505
G1 X24.555 Y40.181 E9.9721
G1 X24.399 Y39.575 E9.9937
G1 X24.183 Y38.986 E10.0152
G1 X23.910 Y38.421 E10.0369
G1 X23.586 Y37.891 E10.0582
G1 X23.210 Y37.394 E10.0797
G1 X20.388 Y34.348 E10.2227
G1 X20.365 Y34.322 E10.2239
G1 X20.220 Y34.149 E10.2316
G1 X20.199 Y34.123 E10.2328
G1 X18.165 Y31.455 E10.3483
G1 X18.146 Y31.427 E10.3495
G1 X18.017 Y31.241 E10.3573
G1 X17.999 Y31.213 E10.3584
G1 X16.231 Y28.360 E10.4740
G1 X16.214 Y28.331 E10.4751
G1 X16.104 Y28.132 E10.4830
G1 X16.088 Y28.102 E10.4841
G1 X14.596 Y25.075 E10.6003
G1 X14.582 Y25.044 E10.6015
G1 X14.491 Y24.836 E10.6093
G1 X14.478 Y24.805 E10.6105
G1 X13.510 Y22.244 E10.7047
G1 X8.427 Y22.244 E10.8797
G1 X7.913 Y22.031 E10.8989
G1 X5.176 Y19.294 E11.0322
G1 X4.963 Y18.780 E11.0514
G1 X4.963 Y9.159 E11.3826
G1 X5.176 Y8.644 E11.4018
G1 X7.913 Y5.907 E11.5350
G1 X8.139 Y6.246 F4200
G92 E0
G1 X8.507 Y6.094 E0.0137 F1350
G1 X25.806 Y6.094 E0.6093
G1 X26.153 Y6.228 E0.6221
G1 X28.714 Y8.542 E0.7409
G1 X28.881 Y8.873 E0.7537
G1 X29.291 Y12.918 E0.8937
G1 X29.713 Y14.957 E0.9654
G1 X30.342 Y16.943 E1.0371
G1 X30.963 Y18.373 E1.0908
G1 X31.240 Y18.401 E1.1004
G1 X31.287 Y18.408 E1.1020
G1 X32.103 Y18.571 E1.1307
G1 X32.151 Y18.583 E1.1324
G1 X32.575 Y18.712 E1.1477
G1 X32.622 Y18.728 E1.1493
G1 X33.445 Y19.070 E1.1801
G1 X33.500 Y19.098 E1.1822
G1 X33.982 Y19.371 E1.2013
G1 X34.034 Y19.405 E1.2034
G1 X34.904 Y20.052 E1.2407
G1 X34.941 Y20.083 E1.2424
G1 X35.265 Y20.377 E1.2574
G1 X35.299 Y20.411 E1.2591
