; G-Code generated by Simplify3D(R) Version 3.0.2
; Oct 7, 2015 at 10:22:06 AM
; Settings Summary
;   processName,Process1
;   applyToModels,660_upper_main
;   profileName,PrinterBot Simple Metal Custom (modified)
;   profileVersion,2015-05-01 08:00:00
;   baseProfile,Default (modified)
;   printMaterial,PLA
;   printQuality,Medium
;   printExtruders,
;   extruderName,Primary Extruder
;   extruderToolheadNumber,0
;   extruderDiameter,0.4
;   extruderAutoWidth,0
;   extruderWidth,0.4
;   extrusionMultiplier,1
;   extruderUseRetract,1
;   extruderRetractionDistance,1.5
;   extruderExtraRestartDistance,0.1
;   extruderRetractionZLift,0
;   extruderRetractionSpeed,1800
;   extruderUseCoasting,0
;   extruderCoastingDistance,0.2
;   extruderUseWipe,0
;   extruderWipeDistance,5
;   primaryExtruder,0
;   layerHeight,0.2
;   topSolidLayers,3
;   bottomSolidLayers,3
;   perimeterOutlines,2
;   printPerimetersInsideOut,1
;   startPointOption,2
;   startPointOriginX,0
;   startPointOriginY,0
;   startPointOriginZ,300
;   sequentialIslands,0
;   spiralVaseMode,0
;   firstLayerHeightPercentage,60
;   firstLayerWidthPercentage,100
;   firstLayerUnderspeed,0.5
;   useRaft,0
;   raftExtruder,0
;   raftLayers,3
;   raftOffset,3
;   raftSeparationDistance,0.14
;   raftInfill,85
;   disableRaftBaseLayers,0
;   useSkirt,1
;   skirtExtruder,0
;   skirtLayers,1
;   skirtOutlines,5
;   skirtOffset,4
;   usePrimePillar,0
;   primePillarExtruder,999
;   primePillarWidth,12
;   primePillarLocation,7
;   primePillarSpeedMultiplier,1
;   useOozeShield,0
;   oozeShieldExtruder,999
;   oozeShieldOffset,2
;   oozeShieldOutlines,1
;   oozeShieldSidewallShape,1
;   oozeShieldSidewallAngle,30
;   oozeShieldSpeedMultiplier,1
;   infillExtruder,0
;   internalInfillPattern,Rectilinear
;   externalInfillPattern,Rectilinear
;   infillPercentage,70
;   outlineOverlapPercentage,15
;   infillExtrusionWidthPercentage,100
;   minInfillLength,5
;   infillLayerInterval,1
;   infillAngles,45,-45
;   overlapInfillAngles,0
;   generateSupport,0
;   supportExtruder,0
;   supportInfillPercentage,30
;   supportExtraInflation,0.4
;   denseSupportLayers,0
;   denseSupportInfillPercentage,70
;   supportLayerInterval,1
;   supportHorizontalPartOffset,0.3
;   supportUpperSeparationLayers,1
;   supportLowerSeparationLayers,1
;   supportType,0
;   supportGridSpacing,4
;   maxOverhangAngle,45
;   supportAngles,0
;   temperatureName,Primary Extruder,Heated Bed
;   temperatureNumber,0,1
;   temperatureSetpointCount,2,3
;   temperatureSetpointLayers,1,2,1,2,3
;   temperatureSetpointTemperatures,210,200,70,65,63
;   temperatureStabilizeAtStartup,1,1
;   temperatureHeatedBed,0,1
;   temperatureRelayBetweenLayers,0,0
;   temperatureRelayBetweenLoops,0,0
;   fanLayers,1,2,3
;   fanSpeeds,0,0,100
;   blipFanToFullPower,1
;   adjustSpeedForCooling,1
;   minSpeedLayerTime,15
;   minCoolingSpeedSlowdown,20
;   increaseFanForCooling,0
;   minFanLayerTime,45
;   maxCoolingFanSpeed,100
;   increaseFanForBridging,0
;   bridgingFanSpeed,100
;   use5D,1
;   relativeEdistances,0
;   allowEaxisZeroing,1
;   independentExtruderAxes,0
;   includeM10123,0
;   stickySupport,1
;   applyToolheadOffsets,0
;   gcodeXoffset,0
;   gcodeYoffset,0
;   gcodeZoffset,0
;   overrideMachineDefinition,1
;   machineTypeOverride,0
;   strokeXoverride,150
;   strokeYoverride,150
;   strokeZoverride,150
;   originOffsetXoverride,0
;   originOffsetYoverride,0
;   originOffsetZoverride,0
;   homeXdirOverride,-1
;   homeYdirOverride,-1
;   homeZdirOverride,-1
;   flipXoverride,1
;   flipYoverride,-1
;   flipZoverride,1
;   toolheadOffsets,0,0|0,0|0,0|0,0|0,0|0,0
;   overrideFirmwareConfiguration,1
;   firmwareTypeOverride,RepRap (Marlin/Repetier/Sprinter)
;   GPXconfigOverride,r2
;   baudRateOverride,250000
;   overridePrinterModels,1
;   printerModelsOverride
;   startingGcode,G28 X0 Y0 ; home X and Y axes,G29 ; probe z,M201 X1000 Y1000 ; acceleration settings
;   layerChangeGcode,
;   retractionGcode,
;   toolChangeGcode,
;   endingGcode,M104 S0 T0 ; turn off extruder,M140 S0 T1 ; turn off bed,G28 X0 Y0 ; home,M84 ; disable motors
;   createX3G,0
;   celebration,0
;   celebrationSong,Random Song
;   createMB5G,0
;   postProcessing,
;   defaultSpeed,2700
;   outlineUnderspeed,0.8
;   solidInfillUnderspeed,0.8
;   supportUnderspeed,0.8
;   rapidXYspeed,4200
;   rapidZspeed,1002
;   minBridgingArea,50
;   bridgingExtraInflation,0
;   bridgingExtrusionMultiplier,1
;   bridgingSpeedMultiplier,0.8
;   filamentDiameter,1.72
;   filamentPricePerKg,22
;   filamentDensity,1.25
;   useMinPrintHeight,0
;   minPrintHeight,0
;   useMaxPrintHeight,0
;   maxPrintHeight,0
;   useDiaphragm,0
;   diaphragmLayerInterval,20
;   robustSlicing,1
;   mergeAllIntoSolid,0
;   onlyRetractWhenCrossingOutline,1
;   retractBetweenLayers,1
;   useRetractionMinTravel,0
;   retractionMinTravel,3
;   retractWhileWiping,0
;   onlyWipeOutlines,1
;   avoidCrossingOutline,0
;   maxMovementDetourFactor,3
;   toolChangeRetractionDistance,12
;   toolChangeExtraRestartDistance,-0.5
;   toolChangeRetractionSpeed,600
;   allowThinWallGapFill,1
;   thinWallAllowedOverlapPercentage,10
;   horizontalSizeCompensation,0
G90
M82
M106 S0
M140 S70
M190 S70
M104 S210 T0
M109 S210 T0
G28 X0 Y0 ; home X and Y axes
G29 ; probe z
M201 X1000 Y1000 ; acceleration settings
G92 E0
G1 E-1.5000 F1800
G1 Z0.120 F1002
; layer 1, Z = 0.12
T0
; tool H0.200 W0.400
; skirt
G1 X6.539 Y5.877 F4200
G1 E0.1000 F540
G92 E0
G1 X7.200 Y5.603 E0.0247 F1350
G1 X25.709 Y5.603 E0.6619
G1 X26.338 Y5.847 E0.6851
G1 X29.127 Y8.395 E0.8152
G1 X29.426 Y8.998 E0.8384
G1 X29.863 Y13.822 E1.0052
G1 X30.371 Y16.431 E1.0967
G1 X31.143 Y18.974 E1.1882
G1 X32.170 Y21.426 E1.2797
G1 X33.441 Y23.760 E1.3712
G1 X34.943 Y25.952 E1.4627
G1 X36.661 Y27.980 E1.5542
G1 X38.577 Y29.822 E1.6457
G1 X40.671 Y31.459 E1.7372
G1 X42.927 Y32.878 E1.8290
G1 X45.302 Y34.053 E1.9202
G1 X47.806 Y34.986 E2.0122
G1 X50.375 Y35.656 E2.1036
G1 X52.999 Y36.060 E2.1951
G1 X55.660 Y36.194 E2.2868
G1 X58.306 Y36.059 E2.3780
G1 X60.940 Y35.651 E2.4698
G1 X63.503 Y34.982 E2.5610
G1 X65.995 Y34.050 E2.6526
G1 X68.371 Y32.875 E2.7438
G1 X70.620 Y31.459 E2.8354
G1 X72.714 Y29.822 E2.9269
G1 X74.630 Y27.980 E3.0184
G1 X76.348 Y25.952 E3.1099
G1 X77.851 Y23.760 E3.2014
G1 X79.122 Y21.426 E3.2929
G1 X80.149 Y18.974 E3.3844
G1 X80.920 Y16.431 E3.4759
G1 X81.428 Y13.822 E3.5675
G1 X81.865 Y8.998 E3.7342
G1 X82.165 Y8.395 E3.7574
G1 X84.954 Y5.847 E3.8875
G1 X85.582 Y5.603 E3.9107
G1 X104.091 Y5.603 E4.5480
G1 X104.753 Y5.877 E4.5726
G1 X107.602 Y8.726 E4.7114
G1 X107.876 Y9.388 E4.7360
G1 X107.876 Y19.168 E5.0727
G1 X107.602 Y19.829 E5.0974
G1 X104.753 Y22.679 E5.2361
G1 X104.091 Y22.953 E5.2608
G1 X99.449 Y22.953 E5.4206
G1 X98.260 Y26.520 E5.5501
G1 X98.245 Y26.561 E5.5516
G1 X98.159 Y26.782 E5.5597
G1 X98.142 Y26.822 E5.5612
G1 X96.474 Y30.570 E5.7025
G1 X96.456 Y30.609 E5.7040
G1 X96.349 Y30.821 E5.7121
G1 X96.328 Y30.860 E5.7136
G1 X94.313 Y34.415 E5.8544
G1 X94.291 Y34.453 E5.8559
G1 X94.164 Y34.654 E5.8640
G1 X94.140 Y34.690 E5.8655
G1 X91.781 Y38.047 E6.0068
G1 X91.755 Y38.082 E6.0083
G1 X91.610 Y38.269 E6.0165
G1 X91.582 Y38.303 E6.0180
G1 X88.920 Y41.404 E6.1587
G1 X88.891 Y41.437 E6.1602
G1 X88.728 Y41.609 E6.1684
G1 X88.697 Y41.640 E6.1699
G1 X85.736 Y44.481 E6.3112
G1 X85.704 Y44.510 E6.3127
G1 X85.525 Y44.666 E6.3208
G1 X85.491 Y44.694 E6.3223
G1 X82.281 Y47.226 E6.4631
G1 X82.272 Y47.233 E6.4635
G1 X83.436 Y49.834 E6.5616
G1 X85.092 Y52.824 E6.6793
G1 X88.411 Y57.775 E6.8845
G1 X88.531 Y58.574 E6.9124
G1 X87.206 Y62.970 E7.0704
G1 X86.664 Y63.570 E7.0983
G1 X83.750 Y64.784 E7.2070
G1 X83.238 Y65.059 E7.2270
G1 X82.756 Y65.381 E7.2469
G1 X82.310 Y65.747 E7.2668
G1 X81.901 Y66.155 E7.2867
G1 X81.534 Y66.601 E7.3066
G1 X81.210 Y67.083 E7.3266
G1 X80.935 Y67.593 E7.3465
G1 X80.711 Y68.127 E7.3665
G1 X79.482 Y72.109 E7.5099
G1 X78.606 Y72.802 E7.5484
G1 X72.006 Y73.247 E7.7762
G1 X71.044 Y72.677 E7.8147
G1 X68.179 Y66.494 E8.0493
G1 X66.532 Y63.735 E8.1599
G1 X64.613 Y61.168 E8.2703
G1 X62.443 Y58.819 E8.3804
G1 X61.458 Y57.953 E8.4255
G1 X49.834 Y57.953 E8.8258
G1 X48.841 Y58.826 E8.8713
G1 X46.669 Y61.179 E8.9816
G1 X44.752 Y63.744 E9.0918
G1 X43.110 Y66.498 E9.2022
G1 X40.248 Y72.677 E9.4367
G1 X39.286 Y73.247 E9.4752
G1 X32.686 Y72.803 E9.7029
G1 X31.809 Y72.109 E9.7414
G1 X30.579 Y68.125 E9.8850
G1 X30.356 Y67.592 E9.9049
G1 X30.080 Y67.081 E9.9249
G1 X29.757 Y66.600 E9.9448
G1 X29.389 Y66.154 E9.9647
G1 X28.980 Y65.746 E9.9846
G1 X28.533 Y65.380 E10.0045
G1 X28.051 Y65.057 E10.0245
G1 X27.540 Y64.783 E10.0445
G1 X24.627 Y63.570 E10.1531
G1 X24.085 Y62.971 E10.1809
G1 X22.760 Y58.575 E10.3390
G1 X22.880 Y57.775 E10.3668
G1 X26.203 Y52.819 E10.5723
G1 X27.858 Y49.829 E10.6899
G1 X29.019 Y47.231 E10.7879
G1 X28.988 Y47.209 E10.7892
G1 X25.787 Y44.682 E10.9296
G1 X25.753 Y44.654 E10.9311
G1 X25.574 Y44.499 E10.9393
G1 X25.542 Y44.469 E10.9408
G1 X22.593 Y41.639 E11.0815
G1 X22.562 Y41.608 E11.0830
G1 X22.399 Y41.436 E11.0912
G1 X22.370 Y41.403 E11.0927
G1 X19.699 Y38.289 E11.2339
G1 X19.671 Y38.256 E11.2354
G1 X19.526 Y38.069 E11.2436
G1 X19.500 Y38.034 E11.2451
G1 X17.151 Y34.689 E11.3858
G1 X17.127 Y34.653 E11.3873
G1 X17.000 Y34.452 E11.3955
G1 X16.978 Y34.414 E11.3970
G1 X14.956 Y30.845 E11.5383
G1 X14.935 Y30.806 E11.5398
G1 X14.828 Y30.595 E11.5479
G1 X14.810 Y30.555 E11.5494
G1 X13.148 Y26.821 E11.6901
G1 X13.132 Y26.781 E11.6916
G1 X13.046 Y26.559 E11.6998
G1 X13.031 Y26.518 E11.7013
G1 X11.843 Y22.953 E11.8307
G1 X7.200 Y22.953 E11.9906
G1 X6.539 Y22.679 E12.0152
G1 X3.689 Y19.829 E12.1540
G1 X3.415 Y19.168 E12.1786
G1 X3.415 Y9.388 E12.5153
G1 X3.689 Y8.726 E12.5400
G1 X6.539 Y5.877 E12.6787
G1 X6.765 Y6.216 F4200
G92 E0
G1 X7.280 Y6.003 E0.0192 F1350
G1 X25.634 Y6.003 E0.6511
G1 X26.123 Y6.192 E0.6692
G1 X28.802 Y8.640 E0.7941
G1 X29.035 Y9.109 E0.8121
G1 X29.466 Y13.878 E0.9770
G1 X29.983 Y16.527 E1.0699
G1 X30.766 Y19.110 E1.1629
G1 X31.808 Y21.599 E1.2558
G1 X33.099 Y23.969 E1.3487
G1 X34.625 Y26.195 E1.4416
G1 X36.369 Y28.254 E1.5345
G1 X38.315 Y30.125 E1.6274
G1 X40.440 Y31.787 E1.7204
G1 X42.731 Y33.227 E1.8135
G1 X45.143 Y34.421 E1.9062
G1 X47.685 Y35.368 E1.9996
G1 X50.294 Y36.048 E2.0924
G1 X52.958 Y36.459 E2.1852
G1 X55.660 Y36.595 E2.2784
G1 X58.347 Y36.457 E2.3710
G1 X61.021 Y36.043 E2.4642
G1 X63.624 Y35.363 E2.5568
G1 X66.154 Y34.418 E2.6498
G1 X68.566 Y33.224 E2.7425
G1 X70.851 Y31.787 E2.8354
G1 X72.977 Y30.125 E2.9283
G1 X74.922 Y28.254 E3.0212
G1 X76.666 Y26.195 E3.1141
G1 X78.192 Y23.969 E3.2070
G1 X79.483 Y21.599 E3.3000
G1 X80.525 Y19.110 E3.3929
G1 X81.309 Y16.527 E3.4858
G1 X81.825 Y13.878 E3.5787
G1 X82.257 Y9.109 E3.7436
G1 X82.490 Y8.639 E3.7616
G1 X85.168 Y6.192 E3.8866
G1 X85.657 Y6.003 E3.9046
G1 X104.011 Y6.003 E4.5366
G1 X104.526 Y6.216 E4.5557
G1 X107.263 Y8.953 E4.6890
G1 X107.476 Y9.467 E4.7082
G1 X107.476 Y19.088 E5.0394
G1 X107.263 Y19.603 E5.0586
G1 X104.526 Y22.340 E5.1919
G1 X104.011 Y22.553 E5.2110
G1 X99.161 Y22.553 E5.3780
G1 X97.882 Y26.389 E5.5173
G1 X97.871 Y26.421 E5.5184
G1 X97.788 Y26.633 E5.5263
G1 X97.775 Y26.664 E5.5274
G1 X96.111 Y30.403 E5.6683
G1 X96.096 Y30.434 E5.6695
G1 X95.994 Y30.637 E5.6773
G1 X95.978 Y30.667 E5.6785
G1 X93.968 Y34.214 E5.8189
G1 X93.950 Y34.243 E5.8201
G1 X93.828 Y34.436 E5.8279
G1 X93.810 Y34.464 E5.8291
G1 X91.457 Y37.813 E5.9700
G1 X91.436 Y37.840 E5.9712
G1 X91.297 Y38.020 E5.9790
G1 X91.275 Y38.046 E5.9802
G1 X88.620 Y41.140 E6.1206
G1 X88.597 Y41.165 E6.1217
G1 X88.441 Y41.331 E6.1296
G1 X88.417 Y41.355 E6.1307
G1 X85.463 Y44.189 E6.2717
G1 X85.438 Y44.212 E6.2728
G1 X85.266 Y44.361 E6.2807
G1 X85.240 Y44.383 E6.2818
G1 X82.037 Y46.908 E6.4223
G1 X82.010 Y46.929 E6.4234
G1 X81.825 Y47.061 E6.4313
G1 X81.797 Y47.080 E6.4324
G1 X81.773 Y47.096 E6.4334
G1 X83.078 Y50.013 E6.5435
G1 X84.750 Y53.033 E6.6623
G1 X88.029 Y57.923 E6.8651
G1 X88.122 Y58.545 E6.8867
G1 X86.849 Y62.769 E7.0386
G1 X86.428 Y63.236 E7.0602
G1 X83.579 Y64.422 E7.1665
G1 X83.032 Y64.715 E7.1879
G1 X82.518 Y65.059 E7.2092
G1 X82.041 Y65.450 E7.2304
G1 X81.605 Y65.886 E7.2516
G1 X81.213 Y66.362 E7.2729
G1 X80.867 Y66.877 E7.2942
G1 X80.574 Y67.421 E7.3155
G1 X80.335 Y67.991 E7.3368
G1 X79.137 Y71.872 E7.4766
G1 X78.455 Y72.412 E7.5066
G1 X72.103 Y72.840 E7.7258
G1 X71.355 Y72.396 E7.7557
G1 X68.533 Y66.307 E7.9868
G1 X66.865 Y63.512 E8.0989
G1 X64.921 Y60.912 E8.2106
G1 X62.723 Y58.532 E8.3222
G1 X61.609 Y57.553 E8.3732
G1 X49.683 Y57.553 E8.7839
G1 X48.561 Y58.540 E8.8353
G1 X46.361 Y60.923 E8.9470
G1 X44.420 Y63.521 E9.0587
G1 X42.756 Y66.311 E9.1705
G1 X39.937 Y72.396 E9.4014
G1 X39.189 Y72.839 E9.4313
G1 X32.837 Y72.412 E9.6505
G1 X32.155 Y71.873 E9.6805
G1 X30.956 Y67.988 E9.8204
G1 X30.717 Y67.420 E9.8417
G1 X30.423 Y66.874 E9.8630
G1 X30.078 Y66.360 E9.8843
G1 X29.685 Y65.884 E9.9056
G1 X29.249 Y65.449 E9.9268
G1 X28.772 Y65.058 E9.9480
G1 X28.257 Y64.714 E9.9694
G1 X27.711 Y64.421 E9.9907
G1 X24.864 Y63.236 E10.0969
G1 X24.442 Y62.769 E10.1185
G1 X23.169 Y58.545 E10.2704
G1 X23.262 Y57.924 E10.2920
G1 X26.545 Y53.027 E10.4950
G1 X28.216 Y50.008 E10.6138
G1 X29.519 Y47.093 E10.7238
G1 X29.472 Y47.063 E10.7257
G1 X29.444 Y47.044 E10.7269
G1 X29.259 Y46.912 E10.7347
G1 X29.232 Y46.892 E10.7358
G1 X26.038 Y44.371 E10.8759
G1 X26.012 Y44.350 E10.8771
G1 X25.841 Y44.200 E10.8849
G1 X25.816 Y44.177 E10.8861
G1 X22.874 Y41.354 E11.0265
G1 X22.850 Y41.330 E11.0276
G1 X22.693 Y41.164 E11.0355
G1 X22.670 Y41.139 E11.0366
G1 X20.006 Y38.033 E11.1776
G1 X19.984 Y38.007 E11.1787
G1 X19.845 Y37.827 E11.1866
G1 X19.825 Y37.800 E11.1877
G1 X17.481 Y34.463 E11.3281
G1 X17.462 Y34.435 E11.3293
G1 X17.341 Y34.242 E11.3371
G1 X17.323 Y34.213 E11.3383
G1 X15.306 Y30.652 E11.4792
G1 X15.290 Y30.622 E11.4804
G1 X15.188 Y30.419 E11.4882
G1 X15.173 Y30.388 E11.4894
G1 X13.516 Y26.663 E11.6298
G1 X13.503 Y26.631 E11.6309
G1 X13.420 Y26.419 E11.6388
G1 X13.409 Y26.387 E11.6399
G1 X12.131 Y22.553 E11.7791
G1 X7.280 Y22.553 E11.9461
G1 X6.765 Y22.340 E11.9653
G1 X4.028 Y19.603 E12.0986
G1 X3.815 Y19.088 E12.1177
G1 X3.815 Y9.467 E12.4490
G1 X4.028 Y8.953 E12.4682
G1 X6.765 Y6.216 E12.6014
G1 X6.992 Y6.555 F4200
G92 E0
G1 X7.360 Y6.403 E0.0137 F1350
G1 X25.559 Y6.403 E0.6403
G1 X25.909 Y6.538 E0.6532
G1 X28.477 Y8.884 E0.7730
G1 X28.643 Y9.220 E0.7859
G1 X29.070 Y13.935 E0.9489
G1 X29.594 Y16.624 E1.0432
G1 X30.389 Y19.245 E1.1375
G1 X31.447 Y21.772 E1.2319
G1 X32.758 Y24.178 E1.3262
G1 X34.306 Y26.438 E1.4205
G1 X36.077 Y28.528 E1.5148
G1 X38.052 Y30.427 E1.6092
G1 X40.210 Y32.114 E1.7035
G1 X42.536 Y33.577 E1.7981
G1 X44.984 Y34.788 E1.8921
G1 X47.564 Y35.750 E1.9869
G1 X50.213 Y36.440 E2.0812
G1 X52.918 Y36.857 E2.1754
G1 X55.660 Y36.995 E2.2699
G1 X58.388 Y36.856 E2.3640
G1 X61.103 Y36.435 E2.4586
G1 X63.744 Y35.745 E2.5526
G1 X66.313 Y34.785 E2.6470
G1 X68.762 Y33.574 E2.7411
G1 X71.081 Y32.115 E2.8354
G1 X73.239 Y30.427 E2.9297
G1 X75.214 Y28.528 E3.0240
G1 X76.985 Y26.438 E3.1184
G1 X78.534 Y24.178 E3.2127
G1 X79.844 Y21.772 E3.3070
G1 X80.902 Y19.245 E3.4013
G1 X81.698 Y16.624 E3.4957
G1 X82.221 Y13.935 E3.5900
G1 X82.648 Y9.220 E3.7530
G1 X82.815 Y8.884 E3.7659
G1 X85.383 Y6.538 E3.8856
G1 X85.732 Y6.403 E3.8985
G1 X103.932 Y6.403 E4.5252
G1 X104.299 Y6.555 E4.5389
G1 X106.924 Y9.180 E4.6667
G1 X107.076 Y9.547 E4.6804
G1 X107.076 Y19.009 E5.0061
G1 X106.924 Y19.376 E5.0198
G1 X104.299 Y22.001 E5.1476
G1 X103.932 Y22.153 E5.1613
G1 X98.860 Y22.153 E5.3359
G1 X98.857 Y22.165 E5.3364
G1 X98.798 Y22.375 E5.3439
G1 X98.791 Y22.398 E5.3447
G1 X97.504 Y26.258 E5.4848
G1 X97.496 Y26.280 E5.4856
G1 X97.417 Y26.484 E5.4931
G1 X97.408 Y26.506 E5.4939
G1 X95.747 Y30.236 E5.6345
G1 X95.737 Y30.258 E5.6354
G1 X95.639 Y30.452 E5.6428
G1 X95.627 Y30.474 E5.6437
G1 X93.622 Y34.013 E5.7837
G1 X93.610 Y34.033 E5.7846
G1 X93.493 Y34.218 E5.7921
G1 X93.479 Y34.238 E5.7929
G1 X91.132 Y37.579 E5.9335
G1 X91.118 Y37.598 E5.9343
G1 X90.984 Y37.770 E5.9418
G1 X90.969 Y37.789 E5.9427
G1 X88.320 Y40.876 E6.0827
G1 X88.303 Y40.894 E6.0836
G1 X88.153 Y41.052 E6.0911
G1 X88.136 Y41.069 E6.0919
