; G-Code generated by Simplify3D(R) Version 3.0.2
; Oct 6, 2015 at 8:30:28 AM
; Settings Summary
;   processName,Process1
;   applyToModels,80mm_fan_adapter_case_for_arduino_mega_r3_and_ramps_14
;   profileName,PrinterBot Simple Metal Custom (modified)
;   profileVersion,2015-05-01 08:00:00
;   baseProfile,Default (modified)
;   printMaterial,PLA
;   printQuality,Medium
;   printExtruders,
;   extruderName,Primary Extruder
;   extruderToolheadNumber,0
;   extruderDiameter,0.4
;   extruderAutoWidth,0
;   extruderWidth,0.4
;   extrusionMultiplier,1
;   extruderUseRetract,1
;   extruderRetractionDistance,1.5
;   extruderExtraRestartDistance,0.1
;   extruderRetractionZLift,0
;   extruderRetractionSpeed,1800
;   extruderUseCoasting,0
;   extruderCoastingDistance,0.2
;   extruderUseWipe,0
;   extruderWipeDistance,5
;   primaryExtruder,0
;   layerHeight,0.2
;   topSolidLayers,3
;   bottomSolidLayers,3
;   perimeterOutlines,2
;   printPerimetersInsideOut,1
;   startPointOption,2
;   startPointOriginX,0
;   startPointOriginY,0
;   startPointOriginZ,300
;   sequentialIslands,0
;   spiralVaseMode,0
;   firstLayerHeightPercentage,60
;   firstLayerWidthPercentage,100
;   firstLayerUnderspeed,0.5
;   useRaft,0
;   raftExtruder,0
;   raftLayers,3
;   raftOffset,3
;   raftSeparationDistance,0.14
;   raftInfill,85
;   disableRaftBaseLayers,0
;   useSkirt,1
;   skirtExtruder,0
;   skirtLayers,1
;   skirtOutlines,5
;   skirtOffset,4
;   usePrimePillar,0
;   primePillarExtruder,999
;   primePillarWidth,12
;   primePillarLocation,7
;   primePillarSpeedMultiplier,1
;   useOozeShield,0
;   oozeShieldExtruder,999
;   oozeShieldOffset,2
;   oozeShieldOutlines,1
;   oozeShieldSidewallShape,1
;   oozeShieldSidewallAngle,30
;   oozeShieldSpeedMultiplier,1
;   infillExtruder,0
;   internalInfillPattern,Rectilinear
;   externalInfillPattern,Rectilinear
;   infillPercentage,20
;   outlineOverlapPercentage,15
;   infillExtrusionWidthPercentage,100
;   minInfillLength,5
;   infillLayerInterval,1
;   infillAngles,45,-45
;   overlapInfillAngles,0
;   generateSupport,1
;   supportExtruder,0
;   supportInfillPercentage,30
;   supportExtraInflation,0.4
;   denseSupportLayers,0
;   denseSupportInfillPercentage,70
;   supportLayerInterval,1
;   supportHorizontalPartOffset,0.3
;   supportUpperSeparationLayers,1
;   supportLowerSeparationLayers,1
;   supportType,0
;   supportGridSpacing,4
;   maxOverhangAngle,45
;   supportAngles,0
;   temperatureName,Primary Extruder,Heated Bed
;   temperatureNumber,0,1
;   temperatureSetpointCount,2,3
;   temperatureSetpointLayers,1,2,1,2,3
;   temperatureSetpointTemperatures,210,200,70,65,63
;   temperatureStabilizeAtStartup,1,1
;   temperatureHeatedBed,0,1
;   temperatureRelayBetweenLayers,0,0
;   temperatureRelayBetweenLoops,0,0
;   fanLayers,1,2,3
;   fanSpeeds,0,0,100
;   blipFanToFullPower,1
;   adjustSpeedForCooling,1
;   minSpeedLayerTime,15
;   minCoolingSpeedSlowdown,20
;   increaseFanForCooling,0
;   minFanLayerTime,45
;   maxCoolingFanSpeed,100
;   increaseFanForBridging,0
;   bridgingFanSpeed,100
;   use5D,1
;   relativeEdistances,0
;   allowEaxisZeroing,1
;   independentExtruderAxes,0
;   includeM10123,0
;   stickySupport,1
;   applyToolheadOffsets,0
;   gcodeXoffset,0
;   gcodeYoffset,0
;   gcodeZoffset,0
;   overrideMachineDefinition,1
;   machineTypeOverride,0
;   strokeXoverride,150
;   strokeYoverride,150
;   strokeZoverride,150
;   originOffsetXoverride,0
;   originOffsetYoverride,0
;   originOffsetZoverride,0
;   homeXdirOverride,-1
;   homeYdirOverride,-1
;   homeZdirOverride,-1
;   flipXoverride,1
;   flipYoverride,-1
;   flipZoverride,1
;   toolheadOffsets,0,0|0,0|0,0|0,0|0,0|0,0
;   overrideFirmwareConfiguration,1
;   firmwareTypeOverride,RepRap (Marlin/Repetier/Sprinter)
;   GPXconfigOverride,r2
;   baudRateOverride,250000
;   overridePrinterModels,1
;   printerModelsOverride
;   startingGcode,G28 X0 Y0 ; home X and Y axes,G29 ; probe z,M201 X1000 Y1000 ; acceleration settings
;   layerChangeGcode,
;   retractionGcode,
;   toolChangeGcode,
;   endingGcode,M104 S0 T0 ; turn off extruder,M140 S0 T1 ; turn off bed,G28 X0 Y0 ; home,M84 ; disable motors
;   createX3G,0
;   celebration,0
;   celebrationSong,Random Song
;   createMB5G,0
;   postProcessing,
;   defaultSpeed,2700
;   outlineUnderspeed,0.8
;   solidInfillUnderspeed,0.8
;   supportUnderspeed,0.8
;   rapidXYspeed,4200
;   rapidZspeed,1002
;   minBridgingArea,50
;   bridgingExtraInflation,0
;   bridgingExtrusionMultiplier,1
;   bridgingSpeedMultiplier,0.8
;   filamentDiameter,1.74
;   filamentPricePerKg,22
;   filamentDensity,1.25
;   useMinPrintHeight,0
;   minPrintHeight,0
;   useMaxPrintHeight,0
;   maxPrintHeight,0
;   useDiaphragm,0
;   diaphragmLayerInterval,20
;   robustSlicing,1
;   mergeAllIntoSolid,0
;   onlyRetractWhenCrossingOutline,1
;   retractBetweenLayers,1
;   useRetractionMinTravel,0
;   retractionMinTravel,3
;   retractWhileWiping,0
;   onlyWipeOutlines,1
;   avoidCrossingOutline,0
;   maxMovementDetourFactor,3
;   toolChangeRetractionDistance,12
;   toolChangeExtraRestartDistance,-0.5
;   toolChangeRetractionSpeed,600
;   allowThinWallGapFill,1
;   thinWallAllowedOverlapPercentage,10
;   horizontalSizeCompensation,0
G90
M82
M106 S0
M140 S70
M190 S70
M104 S210 T0
M109 S210 T0
G28 X0 Y0 ; home X and Y axes
G29 ; probe z
M201 X1000 Y1000 ; acceleration settings
G92 E0
G1 E-1.5000 F1800
G1 Z0.120 F1002
; layer 1, Z = 0.12
T0
; tool H0.200 W0.400
; skirt
G1 X5.484 Y31.699 F4200
G1 E0.1000 F540
G92 E0
G1 X144.516 Y31.699 E4.6775 F1350
G1 X145.177 Y31.973 E4.7016
G1 X148.027 Y34.823 E4.8372
G1 X148.301 Y35.484 E4.8613
G1 X148.301 Y114.516 E7.5202
G1 X148.027 Y115.177 E7.5443
G1 X145.177 Y118.027 E7.6799
G1 X144.516 Y118.301 E7.7039
G1 X5.484 Y118.301 E12.3815
G1 X4.823 Y118.027 E12.4056
G1 X1.973 Y115.177 E12.5411
G1 X1.699 Y114.516 E12.5652
G1 X1.699 Y35.484 E15.2241
G1 X1.973 Y34.823 E15.2482
G1 X4.823 Y31.973 E15.3838
G1 X5.484 Y31.699 E15.4079
G1 X5.564 Y32.099 F4200
G92 E0
G1 X144.436 Y32.099 E4.6722 F1350
G1 X144.951 Y32.312 E4.6909
G1 X147.688 Y35.049 E4.8211
G1 X147.901 Y35.564 E4.8399
G1 X147.901 Y114.436 E7.4934
G1 X147.688 Y114.951 E7.5122
G1 X144.951 Y117.688 E7.6424
G1 X144.436 Y117.901 E7.6611
G1 X5.564 Y117.901 E12.3333
G1 X5.049 Y117.688 E12.3520
G1 X2.312 Y114.951 E12.4822
G1 X2.099 Y114.436 E12.5010
G1 X2.099 Y35.564 E15.1545
G1 X2.312 Y35.049 E15.1733
G1 X5.049 Y32.312 E15.3035
G1 X5.564 Y32.099 E15.3222
G1 X5.643 Y32.499 F4200
G92 E0
G1 X144.357 Y32.499 E4.6668 F1350
G1 X144.724 Y32.651 E4.6802
G1 X147.349 Y35.276 E4.8051
G1 X147.501 Y35.643 E4.8185
G1 X147.501 Y114.357 E7.4667
G1 X147.349 Y114.724 E7.4800
G1 X144.724 Y117.349 E7.6049
G1 X144.357 Y117.501 E7.6183
G1 X5.643 Y117.501 E12.2851
G1 X5.276 Y117.349 E12.2985
G1 X2.651 Y114.724 E12.4234
G1 X2.499 Y114.357 E12.4367
G1 X2.499 Y35.643 E15.0849
G1 X2.651 Y35.276 E15.0983
G1 X5.276 Y32.651 E15.2232
G1 X5.643 Y32.499 E15.2366
G1 X5.723 Y32.899 F4200
G92 E0
G1 X144.277 Y32.899 E4.6615 F1350
G1 X144.498 Y32.990 E4.6695
G1 X147.010 Y35.502 E4.7890
G1 X147.101 Y35.723 E4.7970
G1 X147.101 Y114.277 E7.4399
G1 X147.010 Y114.498 E7.4479
G1 X144.498 Y117.010 E7.5674
G1 X144.277 Y117.101 E7.5755
G1 X5.723 Y117.101 E12.2369
G1 X5.502 Y117.010 E12.2449
G1 X2.990 Y114.498 E12.3645
G1 X2.899 Y114.277 E12.3725
G1 X2.899 Y35.723 E15.0153
G1 X2.990 Y35.502 E15.0234
G1 X5.502 Y32.990 E15.1429
G1 X5.723 Y32.899 E15.1509
G1 X5.802 Y33.299 F4200
G92 E0
G1 X144.198 Y33.299 E4.6561 F1350
G1 X144.271 Y33.329 E4.6588
G1 X146.671 Y35.729 E4.7729
G1 X146.701 Y35.802 E4.7756
G1 X146.701 Y114.198 E7.4131
G1 X146.671 Y114.271 E7.4158
G1 X144.271 Y116.671 E7.5300
G1 X144.198 Y116.701 E7.5326
G1 X5.802 Y116.701 E12.1887
G1 X5.729 Y116.671 E12.1914
G1 X3.329 Y114.271 E12.3056
G1 X3.299 Y114.198 E12.3083
G1 X3.299 Y35.802 E14.9457
G1 X3.329 Y35.729 E14.9484
G1 X5.729 Y33.329 E15.0626
G1 X5.802 Y33.299 E15.0653
G92 E0
G1 E-1.5000 F1800
; inner perimeter
G1 X8.099 Y38.099 F4200
G1 E0.1000 F1800
G92 E0
G1 X141.901 Y38.099 E4.5016 F1215
G1 X141.901 Y111.901 E6.9845
G1 X8.099 Y111.901 E11.4861
G1 X8.099 Y38.099 E13.9691
; outer perimeter
G1 X7.699 Y37.699 F4200
G92 E0
G1 X142.301 Y37.699 E4.5285 F1080
G1 X142.301 Y112.301 E7.0384
G1 X7.699 Y112.301 E11.5668
G1 X7.699 Y37.699 E14.0767
; inner perimeter
G1 X18.747 Y40.164 F4200
G92 E0
G1 X18.625 Y40.655 E0.0170 F1215
G1 X18.629 Y41.449 E0.0437
G1 X19.147 Y42.555 E0.0848
G1 X20.020 Y43.196 E0.1213
G1 X20.632 Y43.373 E0.1427
G1 X21.346 Y43.372 E0.1667
G1 X22.160 Y43.109 E0.1955
G1 X22.859 Y42.524 E0.2262
G1 X23.203 Y41.960 E0.2484
G1 X23.396 Y41.223 E0.2740
G1 X23.367 Y40.651 E0.2933
G1 X23.188 Y40.002 E0.3159
G1 X22.655 Y39.256 E0.3468
G1 X22.341 Y39.010 E0.3602
G1 X21.816 Y38.736 E0.3801
G1 X21.063 Y38.598 E0.4059
G1 X20.428 Y38.668 E0.4274
G1 X19.843 Y38.896 E0.4485
G1 X19.346 Y39.261 E0.4692
G1 X19.018 Y39.643 E0.4862
G1 X18.747 Y40.164 E0.5059
; outer perimeter
G1 X19.124 Y40.307 F4200
G92 E0
G1 X19.025 Y40.703 E0.0138 F1080
G1 X19.028 Y41.359 E0.0358
G1 X19.466 Y42.293 E0.0705
G1 X20.200 Y42.831 E0.1011
G1 X20.688 Y42.972 E0.1182
G1 X21.283 Y42.972 E0.1382
G1 X21.963 Y42.752 E0.1623
G1 X22.552 Y42.260 E0.1881
G1 X22.831 Y41.802 E0.2062
G1 X22.993 Y41.182 E0.2277
G1 X22.970 Y40.715 E0.2434
G1 X22.822 Y40.177 E0.2622
G1 X22.363 Y39.535 E0.2888
G1 X22.124 Y39.347 E0.2990
G1 X21.685 Y39.119 E0.3156
G1 X21.048 Y39.002 E0.3374
G1 X20.524 Y39.060 E0.3552
G1 X20.038 Y39.249 E0.3727
G1 X19.620 Y39.556 E0.3901
G1 X19.352 Y39.869 E0.4040
G1 X19.124 Y40.307 E0.4206
G92 E0
G1 E-1.5000 F1800
; inner perimeter
G1 X45.395 Y55.218 F4200
G1 E0.1000 F1800
G92 E0
G1 X42.104 Y61.374 E0.2349 F1215
G1 X40.079 Y68.053 E0.4697
G1 X39.394 Y75.000 E0.7045
G1 X40.079 Y81.947 E0.9393
G1 X42.104 Y88.626 E1.1742
G1 X45.395 Y94.782 E1.4090
G1 X49.823 Y100.177 E1.6438
G1 X55.218 Y104.605 E1.8787
G1 X61.374 Y107.896 E2.1135
G1 X68.053 Y109.921 E2.3483
G1 X75.000 Y110.606 E2.5832
G1 X81.947 Y109.921 E2.8180
G1 X88.626 Y107.896 E3.0528
G1 X94.782 Y104.605 E3.2877
G1 X100.177 Y100.177 E3.5225
G1 X104.605 Y94.782 E3.7573
G1 X107.896 Y88.626 E3.9922
G1 X109.921 Y81.947 E4.2270
G1 X110.606 Y75.000 E4.4618
G1 X109.921 Y68.053 E4.6967
G1 X107.896 Y61.374 E4.9315
G1 X104.605 Y55.218 E5.1663
G1 X100.177 Y49.823 E5.4011
G1 X94.782 Y45.395 E5.6360
G1 X88.626 Y42.104 E5.8708
G1 X81.947 Y40.079 E6.1056
G1 X75.000 Y39.394 E6.3405
G1 X68.053 Y40.079 E6.5753
G1 X61.374 Y42.104 E6.8101
G1 X55.218 Y45.395 E7.0450
G1 X49.823 Y49.823 E7.2798
G1 X45.395 Y55.218 E7.5146
; outer perimeter
G1 X45.729 Y55.441 F4200
G92 E0
G1 X42.475 Y61.528 E0.2322 F1080
G1 X40.473 Y68.132 E0.4644
G1 X39.796 Y75.000 E0.6966
G1 X40.473 Y81.868 E0.9287
G1 X42.475 Y88.472 E1.1609
G1 X45.729 Y94.559 E1.3931
G1 X50.107 Y99.893 E1.6253
G1 X55.441 Y104.271 E1.8574
G1 X61.528 Y107.525 E2.0896
G1 X68.132 Y109.527 E2.3218
G1 X75.000 Y110.204 E2.5540
G1 X81.868 Y109.527 E2.7862
G1 X88.472 Y107.525 E3.0183
G1 X94.559 Y104.271 E3.2505
G1 X99.893 Y99.893 E3.4827
G1 X104.271 Y94.559 E3.7149
G1 X107.525 Y88.472 E3.9471
G1 X109.527 Y81.868 E4.1793
G1 X110.204 Y75.000 E4.4114
G1 X109.527 Y68.132 E4.6436
G1 X107.525 Y61.528 E4.8758
G1 X104.271 Y55.441 E5.1080
G1 X99.893 Y50.107 E5.3402
G1 X94.559 Y45.729 E5.5723
G1 X88.472 Y42.475 E5.8045
G1 X81.868 Y40.473 E6.0367
G1 X75.000 Y39.796 E6.2689
G1 X68.132 Y40.473 E6.5011
G1 X61.528 Y42.475 E6.7332
G1 X55.441 Y45.729 E6.9654
G1 X50.107 Y50.107 E7.1976
G1 X45.729 Y55.441 E7.4298
G92 E0
G1 E-1.5000 F1800
; inner perimeter
G1 X20.582 Y106.636 F4200
G1 E0.1000 F1800
G92 E0
G1 X19.957 Y106.835 E0.0221 F1215
G1 X19.244 Y107.358 E0.0518
G1 X18.872 Y107.888 E0.0736
G1 X18.659 Y108.470 E0.0945
G1 X18.601 Y108.998 E0.1123
G1 X18.703 Y109.700 E0.1362
G1 X18.904 Y110.176 E0.1536
G1 X19.272 Y110.668 E0.1742
G1 X19.633 Y110.972 E0.1901
G1 X20.204 Y111.267 E0.2117
G1 X21.081 Y111.403 E0.2416
G1 X21.718 Y111.291 E0.2634
G1 X22.293 Y111.025 E0.2847
G1 X22.827 Y110.554 E0.3086
G1 X23.091 Y110.187 E0.3238
G1 X23.377 Y109.210 E0.3581
G1 X23.407 Y109.046 E0.3637
G1 X23.292 Y108.278 E0.3898
G1 X22.998 Y107.684 E0.4121
G1 X22.932 Y107.565 E0.4167
G1 X22.388 Y107.040 E0.4422
G1 X21.825 Y106.745 E0.4635
G1 X21.212 Y106.608 E0.4847
G1 X20.582 Y106.636 E0.5059
; outer perimeter
G1 X20.653 Y107.033 F4200
G92 E0
G1 X20.141 Y107.197 E0.0181 F1080
G1 X19.533 Y107.642 E0.0434
G1 X19.229 Y108.075 E0.0612
G1 X19.051 Y108.562 E0.0787
G1 X19.004 Y108.991 E0.0932
G1 X19.092 Y109.591 E0.1136
G1 X19.254 Y109.975 E0.1276
G1 X19.565 Y110.392 E0.1451
G1 X19.856 Y110.637 E0.1579
G1 X20.330 Y110.882 E0.1759
G1 X21.077 Y110.998 E0.2013
G1 X21.597 Y110.906 E0.2191
G1 X22.072 Y110.686 E0.2367
G1 X22.528 Y110.284 E0.2571
G1 X22.726 Y110.009 E0.2685
G1 X22.987 Y109.118 E0.2998
G1 X23.001 Y109.040 E0.3025
G1 X22.906 Y108.400 E0.3242
G1 X22.643 Y107.870 E0.3441
G1 X22.611 Y107.811 E0.3464
G1 X22.151 Y107.367 E0.3679
G1 X21.686 Y107.124 E0.3855
G1 X21.177 Y107.010 E0.4031
G1 X20.653 Y107.033 E0.4208
G92 E0
G1 E-1.5000 F1800
; inner perimeter
G1 X127.077 Y107.576 F4200
G1 E0.1000 F1800
G92 E0
G1 X126.723 Y108.228 E0.0249 F1215
G1 X126.592 Y109.007 E0.0515
G1 X126.723 Y109.765 E0.0774
G1 X127.008 Y110.342 E0.0991
G1 X127.522 Y110.899 E0.1246
G1 X128.111 Y111.237 E0.1474
G1 X128.994 Y111.410 E0.1777
G1 X129.773 Y111.276 E0.2043
G1 X130.484 Y110.894 E0.2314
G1 X130.986 Y110.349 E0.2563
G1 X131.268 Y109.785 E0.2776
G1 X131.378 Y109.334 E0.2932
G1 X131.394 Y108.837 E0.3099
G1 X131.274 Y108.228 E0.3308
G1 X131.000 Y107.675 E0.3516
G1 X130.710 Y107.313 E0.3671
G1 X130.321 Y106.997 E0.3840
G1 X129.726 Y106.712 E0.4062
G1 X128.875 Y106.601 E0.4351
G1 X128.221 Y106.728 E0.4575
G1 X127.641 Y107.019 E0.4793
G1 X127.077 Y107.576 E0.5060
; outer perimeter
G1 X127.400 Y107.819 F4200
G92 E0
G1 X127.107 Y108.360 E0.0207 F1080
G1 X126.998 Y109.006 E0.0428
G1 X127.107 Y109.640 E0.0644
G1 X127.341 Y110.113 E0.0821
G1 X127.774 Y110.583 E0.1036
G1 X128.252 Y110.857 E0.1222
G1 X128.998 Y111.003 E0.1478
G1 X129.641 Y110.893 E0.1697
G1 X130.235 Y110.573 E0.1924
G1 X130.654 Y110.120 E0.2132
G1 X130.890 Y109.646 E0.2310
G1 X130.980 Y109.280 E0.2437
G1 X130.992 Y108.870 E0.2575
G1 X130.892 Y108.358 E0.2750
G1 X130.661 Y107.892 E0.2925
G1 X130.425 Y107.597 E0.3052
G1 X130.106 Y107.337 E0.3191
G1 X129.611 Y107.100 E0.3375
G1 X128.887 Y107.006 E0.3621
G1 X128.351 Y107.110 E0.3804
G1 X127.877 Y107.348 E0.3983
G1 X127.400 Y107.819 E0.4208
; inner perimeter
G1 X126.621 Y40.660 F4200
G92 E0
G1 X126.663 Y41.560 E0.0303 F1215
G1 X126.883 Y42.127 E0.0508
G1 X127.091 Y42.438 E0.0634
G1 X127.140 Y42.526 E0.0667
G1 X127.505 Y42.877 E0.0838
G1 X128.053 Y43.210 E0.1053
G1 X128.935 Y43.404 E0.1357
G1 X129.702 Y43.300 E0.1618
G1 X130.193 Y43.085 E0.1798
G1 X130.872 Y42.507 E0.2098
G1 X131.193 Y41.976 E0.2307
G1 X131.368 Y41.384 E0.2515
G1 X131.398 Y40.935 E0.2666
G1 X131.362 Y40.557 E0.2794
G1 X131.170 Y39.967 E0.3003
G1 X130.851 Y39.467 E0.3202
G1 X130.496 Y39.124 E0.3368
G1 X129.977 Y38.808 E0.3573
G1 X129.492 Y38.644 E0.3745
G1 X128.610 Y38.626 E0.4042
G1 X127.996 Y38.816 E0.4258
G1 X127.570 Y39.073 E0.4425
G1 X127.126 Y39.499 E0.4632
G1 X126.800 Y40.035 E0.4844
G1 X126.621 Y40.660 E0.5062
; outer perimeter
G1 X127.024 Y40.707 F4200
G92 E0
G1 X127.059 Y41.476 E0.0259 F1080
G1 X127.240 Y41.941 E0.0427
G1 X127.433 Y42.230 E0.0544
G1 X127.461 Y42.280 E0.0563
G1 X127.750 Y42.558 E0.0698
G1 X128.204 Y42.833 E0.0876
G1 X128.951 Y42.998 E0.1134
G1 X129.593 Y42.911 E0.1352
G1 X129.978 Y42.742 E0.1493
G1 X130.563 Y42.244 E0.1752
G1 X130.824 Y41.813 E0.1921
G1 X130.972 Y41.313 E0.2097
G1 X130.997 Y40.941 E0.2222
G1 X130.968 Y40.639 E0.2324
G1 X130.805 Y40.139 E0.2501
G1 X130.539 Y39.722 E0.2668
G1 X130.250 Y39.442 E0.2803
G1 X129.807 Y39.173 E0.2977
G1 X129.422 Y39.043 E0.3114
G1 X128.666 Y39.027 E0.3369
G1 X128.161 Y39.183 E0.3547
G1 X127.815 Y39.392 E0.3683
G1 X127.441 Y39.751 E0.3857
G1 X127.170 Y40.197 E0.4032
G1 X127.024 Y40.707 E0.4211
G92 E0
G1 E-1.5000 F1800
; solid layer
G1 X130.152 Y38.516 F4200
G1 E0.1000 F1800
G92 E0
G1 X130.229 Y38.439 E0.0037 F1080
