; G-Code generated by Simplify3D(R) Version 3.0.2
; Oct 6, 2015 at 8:32:12 AM
; Settings Summary
;   processName,Process1
;   applyToModels,Back_side_v2
;   profileName,PrinterBot Simple Metal Custom (modified)
;   profileVersion,2015-05-01 08:00:00
;   baseProfile,Default (modified)
;   printMaterial,PLA
;   printQuality,Medium
;   printExtruders,
;   extruderName,Primary Extruder
;   extruderToolheadNumber,0
;   extruderDiameter,0.4
;   extruderAutoWidth,0
;   extruderWidth,0.4
;   extrusionMultiplier,1
;   extruderUseRetract,1
;   extruderRetractionDistance,1.5
;   extruderExtraRestartDistance,0.1
;   extruderRetractionZLift,0
;   extruderRetractionSpeed,1800
;   extruderUseCoasting,0
;   extruderCoastingDistance,0.2
;   extruderUseWipe,0
;   extruderWipeDistance,5
;   primaryExtruder,0
;   layerHeight,0.2
;   topSolidLayers,3
;   bottomSolidLayers,3
;   perimeterOutlines,2
;   printPerimetersInsideOut,1
;   startPointOption,2
;   startPointOriginX,0
;   startPointOriginY,0
;   startPointOriginZ,300
;   sequentialIslands,0
;   spiralVaseMode,0
;   firstLayerHeightPercentage,60
;   firstLayerWidthPercentage,100
;   firstLayerUnderspeed,0.5
;   useRaft,0
;   raftExtruder,0
;   raftLayers,3
;   raftOffset,3
;   raftSeparationDistance,0.14
;   raftInfill,85
;   disableRaftBaseLayers,0
;   useSkirt,1
;   skirtExtruder,0
;   skirtLayers,1
;   skirtOutlines,5
;   skirtOffset,4
;   usePrimePillar,0
;   primePillarExtruder,999
;   primePillarWidth,12
;   primePillarLocation,7
;   primePillarSpeedMultiplier,1
;   useOozeShield,0
;   oozeShieldExtruder,999
;   oozeShieldOffset,2
;   oozeShieldOutlines,1
;   oozeShieldSidewallShape,1
;   oozeShieldSidewallAngle,30
;   oozeShieldSpeedMultiplier,1
;   infillExtruder,0
;   internalInfillPattern,Rectilinear
;   externalInfillPattern,Rectilinear
;   infillPercentage,20
;   outlineOverlapPercentage,15
;   infillExtrusionWidthPercentage,100
;   minInfillLength,5
;   infillLayerInterval,1
;   infillAngles,45,-45
;   overlapInfillAngles,0
;   generateSupport,0
;   supportExtruder,0
;   supportInfillPercentage,30
;   supportExtraInflation,0.4
;   denseSupportLayers,0
;   denseSupportInfillPercentage,70
;   supportLayerInterval,1
;   supportHorizontalPartOffset,0.3
;   supportUpperSeparationLayers,1
;   supportLowerSeparationLayers,1
;   supportType,0
;   supportGridSpacing,4
;   maxOverhangAngle,45
;   supportAngles,0
;   temperatureName,Primary Extruder,Heated Bed
;   temperatureNumber,0,1
;   temperatureSetpointCount,2,3
;   temperatureSetpointLayers,1,2,1,2,3
;   temperatureSetpointTemperatures,210,200,70,65,63
;   temperatureStabilizeAtStartup,1,1
;   temperatureHeatedBed,0,1
;   temperatureRelayBetweenLayers,0,0
;   temperatureRelayBetweenLoops,0,0
;   fanLayers,1,2,3
;   fanSpeeds,0,0,100
;   blipFanToFullPower,1
;   adjustSpeedForCooling,1
;   minSpeedLayerTime,15
;   minCoolingSpeedSlowdown,20
;   increaseFanForCooling,0
;   minFanLayerTime,45
;   maxCoolingFanSpeed,100
;   increaseFanForBridging,0
;   bridgingFanSpeed,100
;   use5D,1
;   relativeEdistances,0
;   allowEaxisZeroing,1
;   independentExtruderAxes,0
;   includeM10123,0
;   stickySupport,1
;   applyToolheadOffsets,0
;   gcodeXoffset,0
;   gcodeYoffset,0
;   gcodeZoffset,0
;   overrideMachineDefinition,1
;   machineTypeOverride,0
;   strokeXoverride,150
;   strokeYoverride,150
;   strokeZoverride,150
;   originOffsetXoverride,0
;   originOffsetYoverride,0
;   originOffsetZoverride,0
;   homeXdirOverride,-1
;   homeYdirOverride,-1
;   homeZdirOverride,-1
;   flipXoverride,1
;   flipYoverride,-1
;   flipZoverride,1
;   toolheadOffsets,0,0|0,0|0,0|0,0|0,0|0,0
;   overrideFirmwareConfiguration,1
;   firmwareTypeOverride,RepRap (Marlin/Repetier/Sprinter)
;   GPXconfigOverride,r2
;   baudRateOverride,250000
;   overridePrinterModels,1
;   printerModelsOverride
;   startingGcode,G28 X0 Y0 ; home X and Y axes,G29 ; probe z,M201 X1000 Y1000 ; acceleration settings
;   layerChangeGcode,
;   retractionGcode,
;   toolChangeGcode,
;   endingGcode,M104 S0 T0 ; turn off extruder,M140 S0 T1 ; turn off bed,G28 X0 Y0 ; home,M84 ; disable motors
;   createX3G,0
;   celebration,0
;   celebrationSong,Random Song
;   createMB5G,0
;   postProcessing,
;   defaultSpeed,2700
;   outlineUnderspeed,0.8
;   solidInfillUnderspeed,0.8
;   supportUnderspeed,0.8
;   rapidXYspeed,4200
;   rapidZspeed,1002
;   minBridgingArea,50
;   bridgingExtraInflation,0
;   bridgingExtrusionMultiplier,1
;   bridgingSpeedMultiplier,0.8
;   filamentDiameter,1.74
;   filamentPricePerKg,22
;   filamentDensity,1.25
;   useMinPrintHeight,0
;   minPrintHeight,0
;   useMaxPrintHeight,0
;   maxPrintHeight,0
;   useDiaphragm,0
;   diaphragmLayerInterval,20
;   robustSlicing,1
;   mergeAllIntoSolid,0
;   onlyRetractWhenCrossingOutline,1
;   retractBetweenLayers,1
;   useRetractionMinTravel,0
;   retractionMinTravel,3
;   retractWhileWiping,0
;   onlyWipeOutlines,1
;   avoidCrossingOutline,0
;   maxMovementDetourFactor,3
;   toolChangeRetractionDistance,12
;   toolChangeExtraRestartDistance,-0.5
;   toolChangeRetractionSpeed,600
;   allowThinWallGapFill,1
;   thinWallAllowedOverlapPercentage,10
;   horizontalSizeCompensation,0
G90
M82
M106 S0
M140 S70
M190 S70
M104 S210 T0
M109 S210 T0
G28 X0 Y0 ; home X and Y axes
G29 ; probe z
M201 X1000 Y1000 ; acceleration settings
G92 E0
G1 E-1.5000 F1800
G1 Z0.120 F1002
; layer 1, Z = 0.12
T0
; tool H0.200 W0.400
; skirt
G1 X12.985 Y31.700 F4200
G1 E0.1000 F540
G92 E0
G1 X77.015 Y31.700 E2.1542 F1350
G1 X77.676 Y31.974 E2.1783
G1 X80.526 Y34.824 E2.3139
G1 X80.800 Y35.485 E2.3379
G1 X80.800 Y114.515 E4.9968
G1 X80.526 Y115.176 E5.0209
G1 X77.676 Y118.026 E5.1565
G1 X77.015 Y118.300 E5.1805
G1 X12.985 Y118.300 E7.3347
G1 X12.324 Y118.026 E7.3588
G1 X9.474 Y115.176 E7.4944
G1 X9.200 Y114.515 E7.5185
G1 X9.200 Y35.485 E10.1773
G1 X9.474 Y34.824 E10.2014
G1 X12.324 Y31.974 E10.3370
G1 X12.985 Y31.700 E10.3611
G1 X13.065 Y32.100 F4200
G92 E0
G1 X76.935 Y32.100 E2.1488 F1350
G1 X77.450 Y32.313 E2.1676
G1 X80.187 Y35.050 E2.2978
G1 X80.400 Y35.565 E2.3165
G1 X80.400 Y114.435 E4.9700
G1 X80.187 Y114.950 E4.9888
G1 X77.450 Y117.687 E5.1190
G1 X76.935 Y117.900 E5.1377
G1 X13.065 Y117.900 E7.2866
G1 X12.550 Y117.687 E7.3053
G1 X9.813 Y114.950 E7.4355
G1 X9.600 Y114.435 E7.4543
G1 X9.600 Y35.565 E10.1077
G1 X9.813 Y35.050 E10.1265
G1 X12.550 Y32.313 E10.2567
G1 X13.065 Y32.100 E10.2754
G1 X13.144 Y32.500 F4200
G92 E0
G1 X76.856 Y32.500 E2.1435 F1350
G1 X77.223 Y32.652 E2.1569
G1 X79.848 Y35.277 E2.2817
G1 X80.000 Y35.644 E2.2951
G1 X80.000 Y114.356 E4.9433
G1 X79.848 Y114.723 E4.9566
G1 X77.223 Y117.348 E5.0815
G1 X76.856 Y117.500 E5.0949
G1 X13.144 Y117.500 E7.2384
G1 X12.777 Y117.348 E7.2518
G1 X10.152 Y114.723 E7.3766
G1 X10.000 Y114.356 E7.3900
G1 X10.000 Y35.644 E10.0381
G1 X10.152 Y35.277 E10.0515
G1 X12.777 Y32.652 E10.1764
G1 X13.144 Y32.500 E10.1898
G1 X13.224 Y32.900 F4200
G92 E0
G1 X76.776 Y32.900 E2.1381 F1350
G1 X76.997 Y32.991 E2.1462
G1 X79.509 Y35.503 E2.2657
G1 X79.600 Y35.724 E2.2737
G1 X79.600 Y114.276 E4.9165
G1 X79.509 Y114.497 E4.9245
G1 X76.997 Y117.009 E5.0440
G1 X76.776 Y117.100 E5.0521
G1 X13.224 Y117.100 E7.1902
G1 X13.003 Y117.009 E7.1982
G1 X10.491 Y114.497 E7.3177
G1 X10.400 Y114.276 E7.3258
G1 X10.400 Y35.724 E9.9685
G1 X10.491 Y35.503 E9.9766
G1 X13.003 Y32.991 E10.0961
G1 X13.224 Y32.900 E10.1041
G1 X13.303 Y33.300 F4200
G92 E0
G1 X76.697 Y33.300 E2.1328 F1350
G1 X76.770 Y33.330 E2.1355
G1 X79.170 Y35.730 E2.2496
G1 X79.200 Y35.803 E2.2523
G1 X79.200 Y114.197 E4.8897
G1 X79.170 Y114.270 E4.8924
G1 X76.770 Y116.670 E5.0066
G1 X76.697 Y116.700 E5.0092
G1 X13.303 Y116.700 E7.1420
G1 X13.230 Y116.670 E7.1447
G1 X10.830 Y114.270 E7.2588
G1 X10.800 Y114.197 E7.2615
G1 X10.800 Y35.803 E9.8989
G1 X10.830 Y35.730 E9.9016
G1 X13.230 Y33.330 E10.0158
G1 X13.303 Y33.300 E10.0185
G92 E0
G1 E-1.5000 F1800
; inner perimeter
G1 X15.600 Y38.100 F4200
G1 E0.1000 F1800
G92 E0
G1 X74.400 Y38.100 E1.9782 F1215
G1 X74.400 Y111.900 E4.4611
G1 X15.600 Y111.900 E6.4394
G1 X15.600 Y38.100 E8.9223
; outer perimeter
G1 X15.200 Y37.700 F4200
G92 E0
G1 X74.800 Y37.700 E2.0052 F1080
G1 X74.800 Y112.300 E4.5150
G1 X15.200 Y112.300 E6.5201
G1 X15.200 Y37.700 E9.0299
; inner perimeter
G1 X19.478 Y39.435 F4200
G92 E0
G1 X19.290 Y39.687 E0.0106 F1215
G1 X19.135 Y39.960 E0.0211
G1 X19.018 Y40.252 E0.0317
G1 X18.940 Y40.556 E0.0423
G1 X18.902 Y40.868 E0.0528
G1 X18.906 Y41.182 E0.0634
G1 X18.950 Y41.493 E0.0740
G1 X19.034 Y41.795 E0.0845
G1 X19.157 Y42.084 E0.0951
G1 X19.317 Y42.355 E0.1057
G1 X19.511 Y42.602 E0.1162
G1 X19.735 Y42.822 E0.1268
G1 X19.987 Y43.010 E0.1374
G1 X20.260 Y43.164 E0.1479
G1 X20.552 Y43.282 E0.1585
G1 X20.856 Y43.360 E0.1691
G1 X21.168 Y43.398 E0.1796
G1 X21.482 Y43.394 E0.1902
G1 X21.793 Y43.350 E0.2008
G1 X22.095 Y43.266 E0.2114
G1 X22.384 Y43.143 E0.2219
G1 X22.655 Y42.983 E0.2325
G1 X22.902 Y42.789 E0.2431
G1 X23.122 Y42.565 E0.2536
G1 X23.310 Y42.313 E0.2642
G1 X23.464 Y42.040 E0.2748
G1 X23.582 Y41.748 E0.2853
G1 X23.660 Y41.444 E0.2959
G1 X23.698 Y41.132 E0.3065
G1 X23.694 Y40.818 E0.3170
G1 X23.650 Y40.507 E0.3276
G1 X23.566 Y40.205 E0.3382
G1 X23.443 Y39.916 E0.3487
G1 X23.283 Y39.645 E0.3593
G1 X23.089 Y39.398 E0.3699
G1 X22.865 Y39.178 E0.3804
G1 X22.613 Y38.990 E0.3910
G1 X22.340 Y38.836 E0.4016
G1 X22.048 Y38.718 E0.4121
G1 X21.744 Y38.640 E0.4227
G1 X21.432 Y38.602 E0.4333
G1 X21.118 Y38.606 E0.4438
G1 X20.807 Y38.650 E0.4544
G1 X20.505 Y38.734 E0.4650
G1 X20.216 Y38.857 E0.4755
G1 X19.945 Y39.017 E0.4861
G1 X19.698 Y39.211 E0.4967
G1 X19.478 Y39.435 E0.5072
; outer perimeter
G1 X19.782 Y39.697 F4200
G92 E0
G1 X19.625 Y39.906 E0.0088 F1080
G1 X19.497 Y40.134 E0.0176
G1 X19.399 Y40.377 E0.0264
G1 X19.334 Y40.630 E0.0352
G1 X19.303 Y40.890 E0.0440
G1 X19.305 Y41.151 E0.0528
G1 X19.342 Y41.410 E0.0616
G1 X19.412 Y41.663 E0.0704
G1 X19.515 Y41.903 E0.0792
G1 X19.648 Y42.128 E0.0880
G1 X19.810 Y42.334 E0.0968
G1 X19.997 Y42.518 E0.1056
G1 X20.206 Y42.675 E0.1144
G1 X20.434 Y42.803 E0.1232
G1 X20.677 Y42.901 E0.1321
G1 X20.930 Y42.966 E0.1409
G1 X21.190 Y42.997 E0.1497
G1 X21.451 Y42.995 E0.1585
G1 X21.710 Y42.958 E0.1673
G1 X21.963 Y42.888 E0.1761
G1 X22.203 Y42.785 E0.1849
G1 X22.428 Y42.652 E0.1937
G1 X22.634 Y42.490 E0.2025
G1 X22.818 Y42.303 E0.2113
G1 X22.975 Y42.094 E0.2201
G1 X23.103 Y41.866 E0.2289
G1 X23.201 Y41.623 E0.2377
G1 X23.266 Y41.370 E0.2465
G1 X23.297 Y41.110 E0.2553
G1 X23.295 Y40.849 E0.2641
G1 X23.258 Y40.590 E0.2729
G1 X23.188 Y40.337 E0.2817
G1 X23.085 Y40.097 E0.2905
G1 X22.952 Y39.872 E0.2993
G1 X22.790 Y39.666 E0.3081
G1 X22.603 Y39.482 E0.3169
G1 X22.394 Y39.325 E0.3257
G1 X22.166 Y39.197 E0.3345
G1 X21.923 Y39.099 E0.3433
G1 X21.670 Y39.034 E0.3521
G1 X21.410 Y39.003 E0.3609
G1 X21.149 Y39.005 E0.3697
G1 X20.890 Y39.042 E0.3785
G1 X20.637 Y39.112 E0.3874
G1 X20.397 Y39.215 E0.3962
G1 X20.171 Y39.348 E0.4050
G1 X19.966 Y39.510 E0.4138
G1 X19.782 Y39.697 E0.4226
G92 E0
G1 E-1.5000 F1800
; inner perimeter
G1 X31.661 Y43.612 F4200
G1 E0.1000 F1800
G92 E0
G1 X30.836 Y45.126 E0.0580 F1215
G1 X30.432 Y46.802 E0.1160
G1 X30.475 Y48.526 E0.1740
G1 X30.963 Y50.180 E0.2320
G1 X31.862 Y51.651 E0.2901
G1 X33.112 Y52.839 E0.3481
G1 X34.626 Y53.664 E0.4061
G1 X36.302 Y54.068 E0.4641
G1 X38.026 Y54.025 E0.5221
G1 X39.680 Y53.537 E0.5801
G1 X41.151 Y52.638 E0.6381
G1 X42.339 Y51.388 E0.6961
G1 X43.164 Y49.874 E0.7541
G1 X43.568 Y48.198 E0.8122
G1 X43.525 Y46.474 E0.8702
G1 X43.037 Y44.820 E0.9282
G1 X42.138 Y43.349 E0.9862
G1 X40.888 Y42.161 E1.0442
G1 X39.374 Y41.336 E1.1022
G1 X37.698 Y40.932 E1.1602
G1 X35.974 Y40.975 E1.2182
G1 X34.320 Y41.463 E1.2763
G1 X32.849 Y42.362 E1.3343
G1 X31.661 Y43.612 E1.3923
; outer perimeter
G1 X31.987 Y43.849 F4200
G92 E0
G1 X31.213 Y45.271 E0.0545 F1080
G1 X30.833 Y46.845 E0.1089
G1 X30.874 Y48.464 E0.1634
G1 X31.332 Y50.016 E0.2179
G1 X32.176 Y51.398 E0.2723
G1 X33.349 Y52.513 E0.3268
G1 X34.771 Y53.287 E0.3813
G1 X36.345 Y53.667 E0.4357
G1 X37.964 Y53.626 E0.4902
G1 X39.516 Y53.168 E0.5447
G1 X40.898 Y52.324 E0.5991
G1 X42.013 Y51.151 E0.6536
G1 X42.787 Y49.729 E0.7081
G1 X43.167 Y48.155 E0.7626
G1 X43.126 Y46.536 E0.8170
G1 X42.668 Y44.984 E0.8715
G1 X41.824 Y43.602 E0.9260
G1 X40.651 Y42.487 E0.9804
G1 X39.229 Y41.713 E1.0349
G1 X37.655 Y41.333 E1.0894
G1 X36.036 Y41.374 E1.1438
G1 X34.484 Y41.832 E1.1983
G1 X33.102 Y42.676 E1.2528
G1 X31.987 Y43.849 E1.3072
; inner perimeter
G1 X20.900 Y51.900 F4200
G92 E0
G1 X20.900 Y98.100 E1.5543 F1215
G1 X30.100 Y98.100 E1.8639
G1 X30.100 Y51.900 E3.4182
G1 X20.900 Y51.900 E3.7277
; outer perimeter
G1 X21.300 Y52.300 F4200
G92 E0
G1 X21.300 Y97.700 E1.5274 F1080
G1 X29.700 Y97.700 E1.8100
G1 X29.700 Y52.300 E3.3374
G1 X21.300 Y52.300 E3.6200
G92 E0
G1 E-1.5000 F1800
; inner perimeter
G1 X34.568 Y96.359 F4200
G1 E0.1000 F1800
G92 E0
G1 X33.062 Y97.197 E0.0580 F1215
G1 X31.823 Y98.397 E0.1160
G1 X30.938 Y99.877 E0.1740
G1 X30.466 Y101.535 E0.2320
G1 X30.439 Y103.259 E0.2901
G1 X30.859 Y104.932 E0.3481
G1 X31.697 Y106.438 E0.4061
G1 X32.897 Y107.676 E0.4641
G1 X34.377 Y108.562 E0.5221
G1 X36.035 Y109.034 E0.5801
G1 X37.759 Y109.061 E0.6381
G1 X39.432 Y108.641 E0.6961
G1 X40.938 Y107.803 E0.7541
G1 X42.176 Y106.603 E0.8122
G1 X43.062 Y105.123 E0.8702
G1 X43.534 Y103.465 E0.9282
G1 X43.561 Y101.741 E0.9862
G1 X43.141 Y100.068 E1.0442
G1 X42.303 Y98.562 E1.1022
G1 X41.103 Y97.323 E1.1602
G1 X39.623 Y96.438 E1.2182
G1 X37.965 Y95.966 E1.2763
G1 X36.241 Y95.939 E1.3343
G1 X34.568 Y96.359 E1.3923
; outer perimeter
G1 X34.717 Y96.734 F4200
G92 E0
G1 X33.302 Y97.521 E0.0545 F1080
G1 X32.140 Y98.648 E0.1089
G1 X31.308 Y100.037 E0.1634
G1 X30.865 Y101.594 E0.2179
G1 X30.839 Y103.213 E0.2723
G1 X31.234 Y104.783 E0.3268
G1 X32.021 Y106.198 E0.3813
G1 X33.148 Y107.360 E0.4357
G1 X34.537 Y108.192 E0.4902
G1 X36.094 Y108.635 E0.5447
G1 X37.713 Y108.661 E0.5991
G1 X39.283 Y108.266 E0.6536
G1 X40.698 Y107.479 E0.7081
G1 X41.860 Y106.352 E0.7626
G1 X42.692 Y104.963 E0.8170
G1 X43.135 Y103.406 E0.8715
G1 X43.161 Y101.787 E0.9260
G1 X42.766 Y100.217 E0.9804
G1 X41.979 Y98.802 E1.0349
G1 X40.852 Y97.640 E1.0894
G1 X39.463 Y96.808 E1.1438
G1 X37.906 Y96.365 E1.1983
G1 X36.287 Y96.339 E1.2528
G1 X34.717 Y96.734 E1.3072
; inner perimeter
G1 X21.056 Y106.611 F4200
G92 E0
G1 X20.746 Y106.663 E0.0106 F1215
G1 X20.446 Y106.756 E0.0211
G1 X20.160 Y106.886 E0.0317
G1 X19.894 Y107.053 E0.0423
G1 X19.652 Y107.253 E0.0528
G1 X19.438 Y107.484 E0.0634
G1 X19.256 Y107.740 E0.0740
G1 X19.109 Y108.017 E0.0845
G1 X19.000 Y108.311 E0.0951
G1 X18.929 Y108.618 E0.1057
G1 X18.900 Y108.930 E0.1162
G1 X18.911 Y109.244 E0.1268
G1 X18.963 Y109.554 E0.1374
G1 X19.056 Y109.854 E0.1479
G1 X19.186 Y110.140 E0.1585
G1 X19.353 Y110.406 E0.1691
G1 X19.554 Y110.648 E0.1796
G1 X19.784 Y110.862 E0.1902
G1 X20.040 Y111.044 E0.2008
G1 X20.317 Y111.191 E0.2114
G1 X20.611 Y111.300 E0.2219
G1 X20.918 Y111.371 E0.2325
G1 X21.230 Y111.400 E0.2431
G1 X21.544 Y111.389 E0.2536
G1 X21.854 Y111.337 E0.2642
G1 X22.154 Y111.244 E0.2748
G1 X22.440 Y111.114 E0.2853
G1 X22.706 Y110.947 E0.2959
G1 X22.948 Y110.746 E0.3065
G1 X23.162 Y110.516 E0.3170
G1 X23.344 Y110.260 E0.3276
G1 X23.491 Y109.983 E0.3382
G1 X23.600 Y109.689 E0.3487
G1 X23.671 Y109.382 E0.3593
G1 X23.700 Y109.070 E0.3699
G1 X23.689 Y108.756 E0.3804
G1 X23.637 Y108.446 E0.3910
G1 X23.544 Y108.146 E0.4016
G1 X23.414 Y107.860 E0.4121
G1 X23.247 Y107.594 E0.4227
G1 X23.046 Y107.352 E0.4333
G1 X22.816 Y107.138 E0.4438
G1 X22.560 Y106.956 E0.4544
G1 X22.283 Y106.809 E0.4650
G1 X21.989 Y106.700 E0.4755
G1 X21.682 Y106.629 E0.4861
G1 X21.370 Y106.600 E0.4967
G1 X21.056 Y106.611 E0.5072
; outer perimeter
G1 X21.097 Y107.010 F4200
G92 E0
G1 X20.838 Y107.054 E0.0088 F1080
G1 X20.588 Y107.130 E0.0176
G1 X20.350 Y107.239 E0.0264
G1 X20.129 Y107.378 E0.0352
G1 X19.927 Y107.545 E0.0440
G1 X19.749 Y107.737 E0.0528
G1 X19.597 Y107.950 E0.0616
G1 X19.475 Y108.181 E0.0704
G1 X19.384 Y108.426 E0.0792
G1 X19.325 Y108.681 E0.0880
G1 X19.300 Y108.942 E0.0968
G1 X19.310 Y109.203 E0.1056
G1 X19.354 Y109.462 E0.1144
