; G-Code generated by Simplify3D(R) Version 3.0.2
; Oct 5, 2015 at 1:07:18 PM
; Settings Summary
;   processName,Process1
;   applyToModels,Bottom_side
;   profileName,PrinterBot Simple Metal Custom (modified)
;   profileVersion,2015-05-01 08:00:00
;   baseProfile,Default (modified)
;   printMaterial,PLA
;   printQuality,Medium
;   printExtruders,
;   extruderName,Primary Extruder
;   extruderToolheadNumber,0
;   extruderDiameter,0.4
;   extruderAutoWidth,0
;   extruderWidth,0.4
;   extrusionMultiplier,1
;   extruderUseRetract,1
;   extruderRetractionDistance,1.5
;   extruderExtraRestartDistance,0.1
;   extruderRetractionZLift,0
;   extruderRetractionSpeed,1800
;   extruderUseCoasting,0
;   extruderCoastingDistance,0.2
;   extruderUseWipe,0
;   extruderWipeDistance,5
;   primaryExtruder,0
;   layerHeight,0.2
;   topSolidLayers,3
;   bottomSolidLayers,3
;   perimeterOutlines,2
;   printPerimetersInsideOut,1
;   startPointOption,2
;   startPointOriginX,0
;   startPointOriginY,0
;   startPointOriginZ,300
;   sequentialIslands,0
;   spiralVaseMode,0
;   firstLayerHeightPercentage,60
;   firstLayerWidthPercentage,100
;   firstLayerUnderspeed,0.5
;   useRaft,0
;   raftExtruder,0
;   raftLayers,3
;   raftOffset,3
;   raftSeparationDistance,0.14
;   raftInfill,85
;   disableRaftBaseLayers,0
;   useSkirt,1
;   skirtExtruder,0
;   skirtLayers,1
;   skirtOutlines,5
;   skirtOffset,2
;   usePrimePillar,0
;   primePillarExtruder,999
;   primePillarWidth,12
;   primePillarLocation,7
;   primePillarSpeedMultiplier,1
;   useOozeShield,0
;   oozeShieldExtruder,999
;   oozeShieldOffset,2
;   oozeShieldOutlines,1
;   oozeShieldSidewallShape,1
;   oozeShieldSidewallAngle,30
;   oozeShieldSpeedMultiplier,1
;   infillExtruder,0
;   internalInfillPattern,Rectilinear
;   externalInfillPattern,Rectilinear
;   infillPercentage,15
;   outlineOverlapPercentage,15
;   infillExtrusionWidthPercentage,100
;   minInfillLength,5
;   infillLayerInterval,1
;   infillAngles,45,-45
;   overlapInfillAngles,0
;   generateSupport,0
;   supportExtruder,0
;   supportInfillPercentage,30
;   supportExtraInflation,0.4
;   denseSupportLayers,0
;   denseSupportInfillPercentage,70
;   supportLayerInterval,1
;   supportHorizontalPartOffset,0.3
;   supportUpperSeparationLayers,1
;   supportLowerSeparationLayers,1
;   supportType,0
;   supportGridSpacing,4
;   maxOverhangAngle,45
;   supportAngles,0
;   temperatureName,Primary Extruder,Heated Bed
;   temperatureNumber,0,1
;   temperatureSetpointCount,2,3
;   temperatureSetpointLayers,1,2,1,2,3
;   temperatureSetpointTemperatures,210,200,70,65,63
;   temperatureStabilizeAtStartup,1,1
;   temperatureHeatedBed,0,1
;   temperatureRelayBetweenLayers,0,0
;   temperatureRelayBetweenLoops,0,0
;   fanLayers,1,2,3
;   fanSpeeds,0,0,100
;   blipFanToFullPower,1
;   adjustSpeedForCooling,1
;   minSpeedLayerTime,15
;   minCoolingSpeedSlowdown,20
;   increaseFanForCooling,0
;   minFanLayerTime,45
;   maxCoolingFanSpeed,100
;   increaseFanForBridging,0
;   bridgingFanSpeed,100
;   use5D,1
;   relativeEdistances,0
;   allowEaxisZeroing,1
;   independentExtruderAxes,0
;   includeM10123,0
;   stickySupport,1
;   applyToolheadOffsets,0
;   gcodeXoffset,0
;   gcodeYoffset,0
;   gcodeZoffset,0
;   overrideMachineDefinition,1
;   machineTypeOverride,0
;   strokeXoverride,150
;   strokeYoverride,150
;   strokeZoverride,150
;   originOffsetXoverride,0
;   originOffsetYoverride,0
;   originOffsetZoverride,0
;   homeXdirOverride,-1
;   homeYdirOverride,-1
;   homeZdirOverride,-1
;   flipXoverride,1
;   flipYoverride,-1
;   flipZoverride,1
;   toolheadOffsets,0,0|0,0|0,0|0,0|0,0|0,0
;   overrideFirmwareConfiguration,1
;   firmwareTypeOverride,RepRap (Marlin/Repetier/Sprinter)
;   GPXconfigOverride,r2
;   baudRateOverride,250000
;   overridePrinterModels,1
;   printerModelsOverride
;   startingGcode,G28 X0 Y0 ; home X and Y axes,G29 ; probe z,M201 X1000 Y1000 ; acceleration settings
;   layerChangeGcode,
;   retractionGcode,
;   toolChangeGcode,
;   endingGcode,M104 S0 T0 ; turn off extruder,M140 S0 T1 ; turn off bed,G28 X0 Y0 ; home,M84 ; disable motors
;   createX3G,0
;   celebration,0
;   celebrationSong,Random Song
;   createMB5G,0
;   postProcessing,
;   defaultSpeed,2700
;   outlineUnderspeed,0.8
;   solidInfillUnderspeed,0.8
;   supportUnderspeed,0.8
;   rapidXYspeed,4200
;   rapidZspeed,1002
;   minBridgingArea,50
;   bridgingExtraInflation,0
;   bridgingExtrusionMultiplier,1
;   bridgingSpeedMultiplier,0.8
;   filamentDiameter,1.72
;   filamentPricePerKg,22
;   filamentDensity,1.25
;   useMinPrintHeight,0
;   minPrintHeight,0
;   useMaxPrintHeight,0
;   maxPrintHeight,0
;   useDiaphragm,0
;   diaphragmLayerInterval,20
;   robustSlicing,1
;   mergeAllIntoSolid,0
;   onlyRetractWhenCrossingOutline,1
;   retractBetweenLayers,1
;   useRetractionMinTravel,0
;   retractionMinTravel,3
;   retractWhileWiping,0
;   onlyWipeOutlines,1
;   avoidCrossingOutline,0
;   maxMovementDetourFactor,3
;   toolChangeRetractionDistance,12
;   toolChangeExtraRestartDistance,-0.5
;   toolChangeRetractionSpeed,600
;   allowThinWallGapFill,1
;   thinWallAllowedOverlapPercentage,10
;   horizontalSizeCompensation,0
G90
M82
M106 S0
M140 S70
M190 S70
M104 S210 T0
M109 S210 T0
G28 X0 Y0 ; home X and Y axes
G29 ; probe z
M201 X1000 Y1000 ; acceleration settings
G92 E0
G1 E-1.5000 F1800
G1 Z0.120 F1002
; layer 1, Z = 0.12
T0
; tool H0.200 W0.400
; skirt
G1 X3.514 Y30.900 F4200
G1 E0.1000 F540
G92 E0
G1 X146.486 Y30.900 E4.9226 F1350
G1 X147.148 Y31.174 E4.9473
G1 X148.826 Y32.852 E5.0290
G1 X149.100 Y33.514 E5.0536
G1 X149.100 Y116.486 E7.9104
G1 X148.826 Y117.148 E7.9351
G1 X147.148 Y118.826 E8.0168
G1 X146.486 Y119.100 E8.0415
G1 X3.514 Y119.100 E12.9641
G1 X2.852 Y118.826 E12.9887
G1 X1.174 Y117.148 E13.0704
G1 X0.900 Y116.486 E13.0951
G1 X0.900 Y33.514 E15.9519
G1 X1.174 Y32.852 E15.9765
G1 X2.852 Y31.174 E16.0582
G1 X3.514 Y30.900 E16.0829
G1 X3.593 Y31.300 F4200
G92 E0
G1 X146.407 Y31.300 E4.9172 F1350
G1 X146.921 Y31.513 E4.9363
G1 X148.487 Y33.079 E5.0125
G1 X148.700 Y33.593 E5.0317
G1 X148.700 Y116.407 E7.8830
G1 X148.487 Y116.921 E7.9022
G1 X146.921 Y118.487 E7.9784
G1 X146.407 Y118.700 E7.9976
G1 X3.593 Y118.700 E12.9148
G1 X3.079 Y118.487 E12.9339
G1 X1.513 Y116.921 E13.0102
G1 X1.300 Y116.407 E13.0293
G1 X1.300 Y33.593 E15.8807
G1 X1.513 Y33.079 E15.8998
G1 X3.079 Y31.513 E15.9761
G1 X3.593 Y31.300 E15.9952
G1 X3.673 Y31.700 F4200
G92 E0
G1 X146.327 Y31.700 E4.9117 F1350
G1 X146.695 Y31.852 E4.9254
G1 X148.148 Y33.305 E4.9961
G1 X148.300 Y33.673 E5.0098
G1 X148.300 Y116.327 E7.8557
G1 X148.148 Y116.695 E7.8693
G1 X146.695 Y118.148 E7.9401
G1 X146.327 Y118.300 E7.9538
G1 X3.673 Y118.300 E12.8655
G1 X3.305 Y118.148 E12.8792
G1 X1.852 Y116.695 E12.9499
G1 X1.700 Y116.327 E12.9636
G1 X1.700 Y33.673 E15.8094
G1 X1.852 Y33.305 E15.8231
G1 X3.305 Y31.852 E15.8939
G1 X3.673 Y31.700 E15.9076
G1 X3.752 Y32.100 F4200
G92 E0
G1 X146.248 Y32.100 E4.9062 F1350
G1 X146.468 Y32.191 E4.9144
G1 X147.809 Y33.532 E4.9797
G1 X147.900 Y33.752 E4.9879
G1 X147.900 Y116.248 E7.8283
G1 X147.809 Y116.468 E7.8365
G1 X146.468 Y117.809 E7.9017
G1 X146.248 Y117.900 E7.9100
G1 X3.752 Y117.900 E12.8162
G1 X3.532 Y117.809 E12.8244
G1 X2.191 Y116.468 E12.8896
G1 X2.100 Y116.248 E12.8979
G1 X2.100 Y33.752 E15.7382
G1 X2.191 Y33.532 E15.7464
G1 X3.532 Y32.191 E15.8117
G1 X3.752 Y32.100 E15.8199
G1 X3.832 Y32.500 F4200
G92 E0
G1 X146.168 Y32.500 E4.9007 F1350
G1 X146.242 Y32.530 E4.9035
G1 X147.470 Y33.758 E4.9632
G1 X147.500 Y33.832 E4.9660
G1 X147.500 Y116.168 E7.8009
G1 X147.470 Y116.242 E7.8036
G1 X146.242 Y117.470 E7.8634
G1 X146.168 Y117.500 E7.8661
G1 X3.832 Y117.500 E12.7668
G1 X3.758 Y117.470 E12.7696
G1 X2.530 Y116.242 E12.8294
G1 X2.500 Y116.168 E12.8321
G1 X2.500 Y33.832 E15.6670
G1 X2.530 Y33.758 E15.6697
G1 X3.758 Y32.530 E15.7295
G1 X3.832 Y32.500 E15.7323
G92 E0
G1 E-1.5000 F1800
; inner perimeter
G1 X5.300 Y35.300 F4200
G1 E0.1000 F1800
G92 E0
G1 X144.700 Y35.300 E4.7996 F1215
G1 X144.700 Y114.700 E7.5334
G1 X5.300 Y114.700 E12.3330
G1 X5.300 Y35.300 E15.0668
; outer perimeter
G1 X4.900 Y34.900 F4200
G92 E0
G1 X145.100 Y34.900 E4.8272 F1080
G1 X145.100 Y115.100 E7.5885
G1 X4.900 Y115.100 E12.4156
G1 X4.900 Y34.900 E15.1770
; inner perimeter
G1 X39.565 Y49.069 F4200
G92 E0
G1 X39.565 Y53.011 E0.1358 F1215
G1 X42.980 Y54.983 E0.2715
G1 X46.395 Y53.011 E0.4073
G1 X46.395 Y49.069 E0.5430
G1 X42.980 Y47.097 E0.6788
G1 X39.565 Y49.069 E0.8145
; outer perimeter
G1 X39.965 Y49.300 F4200
G92 E0
G1 X39.965 Y52.780 E0.1199 F1080
G1 X42.980 Y54.521 E0.2397
G1 X45.995 Y52.780 E0.3596
G1 X45.995 Y49.300 E0.4794
G1 X42.980 Y47.559 E0.5993
G1 X39.965 Y49.300 E0.7191
; inner perimeter
G1 X41.285 Y97.329 F4200
G92 E0
G1 X41.285 Y101.271 E0.1358 F1215
G1 X44.700 Y103.243 E0.2715
G1 X48.115 Y101.271 E0.4073
G1 X48.115 Y97.329 E0.5430
G1 X44.700 Y95.357 E0.6788
G1 X41.285 Y97.329 E0.8145
; outer perimeter
G1 X41.685 Y97.560 F4200
G92 E0
G1 X41.685 Y101.040 E0.1199 F1080
G1 X44.700 Y102.781 E0.2397
G1 X47.715 Y101.040 E0.3596
G1 X47.715 Y97.560 E0.4794
G1 X44.700 Y95.819 E0.5993
G1 X41.685 Y97.560 E0.7191
G92 E0
G1 E-1.5000 F1800
; inner perimeter
G1 X116.215 Y97.329 F4200
G1 E0.1000 F1800
G92 E0
G1 X116.215 Y101.271 E0.1358 F1215
G1 X119.630 Y103.243 E0.2715
G1 X123.045 Y101.271 E0.4073
G1 X123.045 Y97.329 E0.5430
G1 X119.630 Y95.357 E0.6788
G1 X116.215 Y97.329 E0.8145
; outer perimeter
G1 X116.615 Y97.560 F4200
G92 E0
G1 X116.615 Y101.040 E0.1199 F1080
G1 X119.630 Y102.781 E0.2397
G1 X122.645 Y101.040 E0.3596
G1 X122.645 Y97.560 E0.4794
G1 X119.630 Y95.819 E0.5993
G1 X116.615 Y97.560 E0.7191
; inner perimeter
G1 X122.037 Y51.040 F4200
G92 E0
G1 X124.009 Y54.455 E0.1358 F1215
G1 X127.951 Y54.455 E0.2715
G1 X129.923 Y51.040 E0.4073
G1 X127.951 Y47.625 E0.5430
G1 X124.009 Y47.625 E0.6788
G1 X122.037 Y51.040 E0.8145
; outer perimeter
G1 X122.499 Y51.040 F4200
G92 E0
G1 X124.240 Y54.055 E0.1199 F1080
G1 X127.720 Y54.055 E0.2397
G1 X129.461 Y51.040 E0.3596
G1 X127.720 Y48.025 E0.4794
G1 X124.240 Y48.025 E0.5993
G1 X122.499 Y51.040 E0.7191
; solid layer
G1 X124.211 Y47.285 F4200
G92 E0
G1 X135.856 Y35.640 E0.5670 F1080
G1 X136.422 Y35.640 E0.5865
G1 X124.776 Y47.285 E1.1536
G1 X125.342 Y47.285 E1.1730
G1 X136.987 Y35.640 E1.7401
G1 X137.553 Y35.640 E1.7595
G1 X125.908 Y47.285 E2.3266
G1 X126.473 Y47.285 E2.3461
G1 X138.119 Y35.640 E2.9131
G1 X138.685 Y35.640 E2.9326
G1 X127.039 Y47.285 E3.4996
G1 X127.605 Y47.285 E3.5191
G1 X139.250 Y35.640 E4.0861
G1 X139.816 Y35.640 E4.1056
G1 X128.156 Y47.300 E4.6734
G1 X128.363 Y47.658 E4.6876
G1 X140.382 Y35.640 E5.2728
G1 X140.947 Y35.640 E5.2923
G1 X128.570 Y48.017 E5.8950
G1 X128.777 Y48.376 E5.9092
G1 X141.513 Y35.640 E6.5294
G1 X142.079 Y35.640 E6.5488
G1 X128.984 Y48.734 E7.1864
G1 X129.191 Y49.093 E7.2007
G1 X142.644 Y35.640 E7.8557
G1 X143.210 Y35.640 E7.8752
G1 X129.398 Y49.452 E8.5477
G1 X129.605 Y49.810 E8.5620
G1 X143.776 Y35.640 E9.2520
G1 X144.341 Y35.640 E9.2714
G1 X129.812 Y50.169 E9.9789
G1 X130.020 Y50.528 E9.9931
G1 X144.360 Y36.187 E10.6914
G1 X144.360 Y36.753 E10.7109
G1 X130.227 Y50.886 E11.3991
G1 X130.315 Y51.040 E11.4052
G1 X129.874 Y51.804 E11.4356
G1 X144.360 Y37.318 E12.1409
G1 X144.360 Y37.884 E12.1604
G1 X129.101 Y53.143 E12.9034
G1 X116.701 Y96.655 F4200
G92 E0
G1 X144.360 Y68.997 E1.3468 F1080
G1 X144.360 Y69.562 E1.3662
G1 X118.040 Y95.883 E2.6478
G1 X119.378 Y95.110 E2.7010
G1 X144.360 Y70.128 E3.9174
G1 X144.360 Y70.694 E3.9369
G1 X119.921 Y95.133 E5.1269
G1 X120.280 Y95.340 E5.1412
G1 X144.360 Y71.260 E6.3137
G1 X144.360 Y71.825 E6.3331
G1 X120.638 Y95.547 E7.4882
G1 X120.997 Y95.754 E7.5025
G1 X144.360 Y72.391 E8.6400
G1 X144.360 Y72.957 E8.6595
G1 X121.356 Y95.961 E9.7796
G1 X121.714 Y96.168 E9.7939
G1 X144.360 Y73.522 E10.8966
G1 X144.360 Y74.088 E10.9160
G1 X122.073 Y96.375 E12.0012
G1 X122.432 Y96.582 E12.0155
G1 X144.360 Y74.654 E13.0832
G1 X144.360 Y75.219 E13.1027
G1 X122.790 Y96.789 E14.1530
G1 X123.149 Y96.996 E14.1673
G1 X144.360 Y75.785 E15.2001
G1 X144.360 Y76.351 E15.2196
G1 X123.385 Y97.326 E16.2409
G1 X123.385 Y97.892 E16.2604
G1 X144.360 Y76.916 E17.2817
G1 X144.360 Y77.482 E17.3012
G1 X123.385 Y98.458 E18.3225
G1 X123.385 Y99.023 E18.3420
G1 X144.360 Y78.048 E19.3633
G1 X144.360 Y78.613 E19.3828
G1 X123.385 Y99.589 E20.4041
G1 X123.385 Y100.155 E20.4236
G1 X144.360 Y79.179 E21.4450
G1 X144.360 Y79.745 E21.4644
G1 X123.385 Y100.720 E22.4858
G1 X144.360 Y114.252 F4200
G92 E0
G1 X144.252 Y114.360 E0.0053 F1080
G1 X143.686 Y114.360 E0.0248
G1 X144.360 Y113.686 E0.0576
G1 X144.360 Y113.120 E0.0771
G1 X143.120 Y114.360 E0.1374
G1 X142.555 Y114.360 E0.1569
G1 X144.360 Y112.555 E0.2448
G1 X144.360 Y111.989 E0.2643
G1 X141.989 Y114.360 E0.3797
G1 X141.423 Y114.360 E0.3992
G1 X144.360 Y111.423 E0.5422
G1 X144.360 Y110.858 E0.5617
G1 X140.858 Y114.360 E0.7322
G1 X140.292 Y114.360 E0.7517
G1 X144.360 Y110.292 E0.9498
G1 X144.360 Y109.726 E0.9693
G1 X139.726 Y114.360 E1.1949
G1 X139.160 Y114.360 E1.2144
G1 X144.360 Y109.160 E1.4676
G1 X144.360 Y108.595 E1.4870
G1 X138.595 Y114.360 E1.7678
G1 X138.029 Y114.360 E1.7872
G1 X144.360 Y108.029 E2.0955
G1 X144.360 Y107.463 E2.1150
G1 X137.463 Y114.360 E2.4508
G1 X136.898 Y114.360 E2.4703
G1 X144.360 Y106.898 E2.8336
G1 X144.360 Y106.332 E2.8531
G1 X136.332 Y114.360 E3.2440
G1 X135.766 Y114.360 E3.2635
G1 X144.360 Y105.766 E3.6819
G1 X144.360 Y105.201 E3.7014
G1 X135.201 Y114.360 E4.1474
G1 X134.635 Y114.360 E4.1668
G1 X144.360 Y104.635 E4.6404
G1 X144.360 Y104.069 E4.6599
G1 X134.069 Y114.360 E5.1609
G1 X133.504 Y114.360 E5.1804
G1 X144.360 Y103.504 E5.7090
G1 X144.360 Y102.938 E5.7285
G1 X132.938 Y114.360 E6.2847
G1 X132.372 Y114.360 E6.3041
G1 X144.360 Y102.372 E6.8879
G1 X144.360 Y101.807 E6.9073
G1 X131.807 Y114.360 E7.5186
G1 X131.241 Y114.360 E7.5381
G1 X144.360 Y101.241 E8.1769
G1 X144.360 Y100.675 E8.1963
G1 X130.675 Y114.360 E8.8627
G1 X130.109 Y114.360 E8.8822
G1 X144.360 Y100.109 E9.5760
G1 X144.360 Y99.544 E9.5955
G1 X129.544 Y114.360 E10.3169
G1 X128.978 Y114.360 E10.3364
G1 X144.360 Y98.978 E11.0854
G1 X144.360 Y98.412 E11.1049
G1 X128.412 Y114.360 E11.8814
G1 X127.847 Y114.360 E11.9009
G1 X144.360 Y97.847 E12.7049
G1 X144.360 Y97.281 E12.7244
G1 X127.281 Y114.360 E13.5560
G1 X126.715 Y114.360 E13.5755
G1 X144.360 Y96.715 E14.4346
G1 X144.360 Y96.150 E14.4541
G1 X126.150 Y114.360 E15.3408
G1 X125.584 Y114.360 E15.3603
G1 X144.360 Y95.584 E16.2745
G1 X144.360 Y95.018 E16.2940
G1 X125.018 Y114.360 E17.2358
G1 X124.453 Y114.360 E17.2553
G1 X144.360 Y94.453 E18.2246
G1 X144.360 Y93.887 E18.2441
G1 X123.887 Y114.360 E19.2410
G1 X123.321 Y114.360 E19.2604
G1 X144.360 Y93.321 E20.2849
G1 X144.360 Y92.756 E20.3043
G1 X122.756 Y114.360 E21.3563
G1 X122.190 Y114.360 E21.3758
G1 X144.360 Y92.190 E22.4553
G1 X144.360 Y91.624 E22.4748
G1 X121.624 Y114.360 E23.5818
G1 X121.059 Y114.360 E23.6013
G1 X144.360 Y91.059 E24.7359
G1 X144.360 Y90.493 E24.7554
G1 X120.493 Y114.360 E25.9175
G1 X119.927 Y114.360 E25.9370
G1 X144.360 Y89.927 E27.1267
G1 X144.360 Y89.361 E27.1461
G1 X119.361 Y114.360 E28.3634
G1 X118.796 Y114.360 E28.3828
G1 X144.360 Y88.796 E29.6276
G1 X144.360 Y88.230 E29.6471
G1 X118.230 Y114.360 E30.9194
G1 X117.664 Y114.360 E30.9389
G1 X144.360 Y87.664 E32.2388
G1 X144.360 Y87.099 E32.2582
G1 X117.099 Y114.360 E33.5856
G1 X116.533 Y114.360 E33.6051
G1 X144.360 Y86.533 E34.9601
G1 X144.360 Y85.967 E34.9795
G1 X115.967 Y114.360 E36.3620
G1 X115.402 Y114.360 E36.3815
G1 X144.360 Y85.402 E37.7916
G1 X144.360 Y84.836 E37.8110
G1 X114.836 Y114.360 E39.2486
G1 X114.270 Y114.360 E39.2681
G1 X144.360 Y84.270 E40.7332
G1 X144.360 Y83.705 E40.7527
G1 X113.705 Y114.360 E42.2454
G1 X113.139 Y114.360 E42.2649
G1 X144.360 Y83.139 E43.7851
G1 X144.360 Y82.573 E43.8046
G1 X112.573 Y114.360 E45.3523
G1 X112.008 Y114.360 E45.3718
G1 X144.360 Y82.008 E46.9471
G1 X144.360 Y81.442 E46.9666
G1 X111.442 Y114.360 E48.5694
G1 X110.876 Y114.360 E48.5889
G1 X144.360 Y80.876 E50.2193
G1 X144.360 Y80.311 E50.2388
G1 X123.385 Y101.286 E51.2601
G1 X123.385 Y101.468 E51.2664
