; G-Code generated by Simplify3D(R) Version 3.0.2
; Oct 5, 2015 at 10:21:43 PM
; Settings Summary
;   processName,Process1
;   applyToModels,Front_side
;   profileName,PrinterBot Simple Metal Custom (modified)
;   profileVersion,2015-05-01 08:00:00
;   baseProfile,Default (modified)
;   printMaterial,PLA
;   printQuality,Medium
;   printExtruders,
;   extruderName,Primary Extruder
;   extruderToolheadNumber,0
;   extruderDiameter,0.4
;   extruderAutoWidth,0
;   extruderWidth,0.4
;   extrusionMultiplier,1
;   extruderUseRetract,1
;   extruderRetractionDistance,1.5
;   extruderExtraRestartDistance,0.1
;   extruderRetractionZLift,0
;   extruderRetractionSpeed,1800
;   extruderUseCoasting,0
;   extruderCoastingDistance,0.2
;   extruderUseWipe,0
;   extruderWipeDistance,5
;   primaryExtruder,0
;   layerHeight,0.2
;   topSolidLayers,3
;   bottomSolidLayers,3
;   perimeterOutlines,2
;   printPerimetersInsideOut,1
;   startPointOption,2
;   startPointOriginX,0
;   startPointOriginY,0
;   startPointOriginZ,300
;   sequentialIslands,0
;   spiralVaseMode,0
;   firstLayerHeightPercentage,60
;   firstLayerWidthPercentage,100
;   firstLayerUnderspeed,0.5
;   useRaft,0
;   raftExtruder,0
;   raftLayers,3
;   raftOffset,3
;   raftSeparationDistance,0.14
;   raftInfill,85
;   disableRaftBaseLayers,0
;   useSkirt,1
;   skirtExtruder,0
;   skirtLayers,1
;   skirtOutlines,5
;   skirtOffset,4
;   usePrimePillar,0
;   primePillarExtruder,999
;   primePillarWidth,12
;   primePillarLocation,7
;   primePillarSpeedMultiplier,1
;   useOozeShield,0
;   oozeShieldExtruder,999
;   oozeShieldOffset,2
;   oozeShieldOutlines,1
;   oozeShieldSidewallShape,1
;   oozeShieldSidewallAngle,30
;   oozeShieldSpeedMultiplier,1
;   infillExtruder,0
;   internalInfillPattern,Rectilinear
;   externalInfillPattern,Rectilinear
;   infillPercentage,20
;   outlineOverlapPercentage,15
;   infillExtrusionWidthPercentage,100
;   minInfillLength,5
;   infillLayerInterval,1
;   infillAngles,45,-45
;   overlapInfillAngles,0
;   generateSupport,0
;   supportExtruder,0
;   supportInfillPercentage,30
;   supportExtraInflation,0.4
;   denseSupportLayers,0
;   denseSupportInfillPercentage,70
;   supportLayerInterval,1
;   supportHorizontalPartOffset,0.3
;   supportUpperSeparationLayers,1
;   supportLowerSeparationLayers,1
;   supportType,0
;   supportGridSpacing,4
;   maxOverhangAngle,45
;   supportAngles,0
;   temperatureName,Primary Extruder,Heated Bed
;   temperatureNumber,0,1
;   temperatureSetpointCount,2,3
;   temperatureSetpointLayers,1,2,1,2,3
;   temperatureSetpointTemperatures,210,200,70,65,63
;   temperatureStabilizeAtStartup,1,1
;   temperatureHeatedBed,0,1
;   temperatureRelayBetweenLayers,0,0
;   temperatureRelayBetweenLoops,0,0
;   fanLayers,1,2,3
;   fanSpeeds,0,0,100
;   blipFanToFullPower,1
;   adjustSpeedForCooling,1
;   minSpeedLayerTime,15
;   minCoolingSpeedSlowdown,20
;   increaseFanForCooling,0
;   minFanLayerTime,45
;   maxCoolingFanSpeed,100
;   increaseFanForBridging,0
;   bridgingFanSpeed,100
;   use5D,1
;   relativeEdistances,0
;   allowEaxisZeroing,1
;   independentExtruderAxes,0
;   includeM10123,0
;   stickySupport,1
;   applyToolheadOffsets,0
;   gcodeXoffset,0
;   gcodeYoffset,0
;   gcodeZoffset,0
;   overrideMachineDefinition,1
;   machineTypeOverride,0
;   strokeXoverride,150
;   strokeYoverride,150
;   strokeZoverride,150
;   originOffsetXoverride,0
;   originOffsetYoverride,0
;   originOffsetZoverride,0
;   homeXdirOverride,-1
;   homeYdirOverride,-1
;   homeZdirOverride,-1
;   flipXoverride,1
;   flipYoverride,-1
;   flipZoverride,1
;   toolheadOffsets,0,0|0,0|0,0|0,0|0,0|0,0
;   overrideFirmwareConfiguration,1
;   firmwareTypeOverride,RepRap (Marlin/Repetier/Sprinter)
;   GPXconfigOverride,r2
;   baudRateOverride,250000
;   overridePrinterModels,1
;   printerModelsOverride
;   startingGcode,G28 X0 Y0 ; home X and Y axes,G29 ; probe z,M201 X1000 Y1000 ; acceleration settings
;   layerChangeGcode,
;   retractionGcode,
;   toolChangeGcode,
;   endingGcode,M104 S0 T0 ; turn off extruder,M140 S0 T1 ; turn off bed,G28 X0 Y0 ; home,M84 ; disable motors
;   createX3G,0
;   celebration,0
;   celebrationSong,Random Song
;   createMB5G,0
;   postProcessing,
;   defaultSpeed,2700
;   outlineUnderspeed,0.8
;   solidInfillUnderspeed,0.8
;   supportUnderspeed,0.8
;   rapidXYspeed,4200
;   rapidZspeed,1002
;   minBridgingArea,50
;   bridgingExtraInflation,0
;   bridgingExtrusionMultiplier,1
;   bridgingSpeedMultiplier,0.8
;   filamentDiameter,1.74
;   filamentPricePerKg,22
;   filamentDensity,1.25
;   useMinPrintHeight,0
;   minPrintHeight,0
;   useMaxPrintHeight,0
;   maxPrintHeight,0
;   useDiaphragm,0
;   diaphragmLayerInterval,20
;   robustSlicing,1
;   mergeAllIntoSolid,0
;   onlyRetractWhenCrossingOutline,1
;   retractBetweenLayers,1
;   useRetractionMinTravel,0
;   retractionMinTravel,3
;   retractWhileWiping,0
;   onlyWipeOutlines,1
;   avoidCrossingOutline,0
;   maxMovementDetourFactor,3
;   toolChangeRetractionDistance,12
;   toolChangeExtraRestartDistance,-0.5
;   toolChangeRetractionSpeed,600
;   allowThinWallGapFill,1
;   thinWallAllowedOverlapPercentage,10
;   horizontalSizeCompensation,0
G90
M82
M106 S0
M140 S70
M190 S70
M104 S210 T0
M109 S210 T0
G28 X0 Y0 ; home X and Y axes
G29 ; probe z
M201 X1000 Y1000 ; acceleration settings
G92 E0
G1 E-1.5000 F1800
G1 Z0.120 F1002
; layer 1, Z = 0.12
T0
; tool H0.200 W0.400
; skirt
G1 X69.474 Y34.824 F4200
G1 E0.1000 F540
G92 E0
G1 X72.324 Y31.974 E0.1356 F1350
G1 X72.985 Y31.700 E0.1597
G1 X137.015 Y31.700 E2.3139
G1 X137.676 Y31.974 E2.3379
G1 X140.526 Y34.824 E2.4735
G1 X140.800 Y35.485 E2.4976
G1 X140.800 Y114.515 E5.1565
G1 X140.526 Y115.176 E5.1805
G1 X137.676 Y118.026 E5.3161
G1 X137.015 Y118.300 E5.3402
G1 X72.985 Y118.300 E7.4944
G1 X72.324 Y118.026 E7.5185
G1 X69.474 Y115.176 E7.6541
G1 X69.200 Y114.515 E7.6782
G1 X69.200 Y35.485 E10.3370
G1 X69.474 Y34.824 E10.3611
G1 X69.813 Y35.050 F4200
G92 E0
G1 X72.550 Y32.313 E0.1302 F1350
G1 X73.065 Y32.100 E0.1490
G1 X136.935 Y32.100 E2.2978
G1 X137.450 Y32.313 E2.3165
G1 X140.187 Y35.050 E2.4468
G1 X140.400 Y35.565 E2.4655
G1 X140.400 Y114.435 E5.1190
G1 X140.187 Y114.950 E5.1377
G1 X137.450 Y117.687 E5.2679
G1 X136.935 Y117.900 E5.2867
G1 X73.065 Y117.900 E7.4355
G1 X72.550 Y117.687 E7.4543
G1 X69.813 Y114.950 E7.5845
G1 X69.600 Y114.435 E7.6032
G1 X69.600 Y35.565 E10.2567
G1 X69.813 Y35.050 E10.2754
G1 X70.152 Y35.277 F4200
G92 E0
G1 X72.777 Y32.652 E0.1249 F1350
G1 X73.144 Y32.500 E0.1383
G1 X136.856 Y32.500 E2.2817
G1 X137.223 Y32.652 E2.2951
G1 X139.848 Y35.277 E2.4200
G1 X140.000 Y35.644 E2.4334
G1 X140.000 Y114.356 E5.0815
G1 X139.848 Y114.723 E5.0949
G1 X137.223 Y117.348 E5.2198
G1 X136.856 Y117.500 E5.2331
G1 X73.144 Y117.500 E7.3766
G1 X72.777 Y117.348 E7.3900
G1 X70.152 Y114.723 E7.5149
G1 X70.000 Y114.356 E7.5283
G1 X70.000 Y35.644 E10.1764
G1 X70.152 Y35.277 E10.1898
G1 X70.491 Y35.503 F4200
G92 E0
G1 X73.003 Y32.991 E0.1195 F1350
G1 X73.224 Y32.900 E0.1275
G1 X136.776 Y32.900 E2.2657
G1 X136.997 Y32.991 E2.2737
G1 X139.509 Y35.503 E2.3932
G1 X139.600 Y35.724 E2.4013
G1 X139.600 Y114.276 E5.0440
G1 X139.509 Y114.497 E5.0521
G1 X136.997 Y117.009 E5.1716
G1 X136.776 Y117.100 E5.1796
G1 X73.224 Y117.100 E7.3177
G1 X73.003 Y117.009 E7.3258
G1 X70.491 Y114.497 E7.4453
G1 X70.400 Y114.276 E7.4533
G1 X70.400 Y35.724 E10.0961
G1 X70.491 Y35.503 E10.1041
G1 X70.830 Y35.730 F4200
G92 E0
G1 X73.230 Y33.330 E0.1142 F1350
G1 X73.303 Y33.300 E0.1168
G1 X136.697 Y33.300 E2.2496
G1 X136.770 Y33.330 E2.2523
G1 X139.170 Y35.730 E2.3665
G1 X139.200 Y35.803 E2.3691
G1 X139.200 Y114.197 E5.0066
G1 X139.170 Y114.270 E5.0092
G1 X136.770 Y116.670 E5.1234
G1 X136.697 Y116.700 E5.1261
G1 X73.303 Y116.700 E7.2588
G1 X73.230 Y116.670 E7.2615
G1 X70.830 Y114.270 E7.3757
G1 X70.800 Y114.197 E7.3784
G1 X70.800 Y35.803 E10.0158
G1 X70.830 Y35.730 E10.0185
G92 E0
G1 E-1.5000 F1800
; inner perimeter
G1 X75.600 Y38.100 F4200
G1 E0.1000 F1800
G92 E0
G1 X134.400 Y38.100 E1.9782 F1215
G1 X134.400 Y111.900 E4.4611
G1 X75.600 Y111.900 E6.4394
G1 X75.600 Y38.100 E8.9223
; outer perimeter
G1 X75.200 Y37.700 F4200
G92 E0
G1 X134.800 Y37.700 E2.0052 F1080
G1 X134.800 Y112.300 E4.5150
G1 X75.200 Y112.300 E6.5201
G1 X75.200 Y37.700 E9.0299
; inner perimeter
G1 X76.557 Y39.589 F4200
G92 E0
G1 X76.389 Y39.855 E0.0106 F1215
G1 X76.258 Y40.140 E0.0211
G1 X76.165 Y40.440 E0.0317
G1 X76.112 Y40.750 E0.0423
G1 X76.100 Y41.064 E0.0528
G1 X76.128 Y41.377 E0.0634
G1 X76.198 Y41.683 E0.0740
G1 X76.307 Y41.977 E0.0845
G1 X76.453 Y42.255 E0.0951
G1 X76.634 Y42.512 E0.1057
G1 X76.848 Y42.742 E0.1162
G1 X77.089 Y42.943 E0.1268
G1 X77.355 Y43.111 E0.1374
G1 X77.640 Y43.242 E0.1479
G1 X77.940 Y43.335 E0.1585
G1 X78.250 Y43.388 E0.1691
G1 X78.564 Y43.400 E0.1797
G1 X78.877 Y43.372 E0.1902
G1 X79.183 Y43.302 E0.2008
G1 X79.478 Y43.193 E0.2114
G1 X79.755 Y43.047 E0.2219
G1 X80.012 Y42.866 E0.2325
G1 X80.242 Y42.652 E0.2431
G1 X80.443 Y42.411 E0.2536
G1 X80.611 Y42.145 E0.2642
G1 X80.742 Y41.860 E0.2748
G1 X80.835 Y41.560 E0.2853
G1 X80.888 Y41.250 E0.2959
G1 X80.900 Y40.936 E0.3065
G1 X80.872 Y40.623 E0.3170
G1 X80.802 Y40.317 E0.3276
G1 X80.693 Y40.022 E0.3382
G1 X80.547 Y39.745 E0.3487
G1 X80.366 Y39.488 E0.3593
G1 X80.152 Y39.258 E0.3699
G1 X79.911 Y39.057 E0.3804
G1 X79.645 Y38.889 E0.3910
G1 X79.360 Y38.758 E0.4016
G1 X79.060 Y38.665 E0.4121
G1 X78.750 Y38.612 E0.4227
G1 X78.436 Y38.600 E0.4333
G1 X78.123 Y38.628 E0.4438
G1 X77.817 Y38.698 E0.4544
G1 X77.522 Y38.807 E0.4650
G1 X77.245 Y38.953 E0.4755
G1 X76.988 Y39.134 E0.4861
G1 X76.757 Y39.348 E0.4967
G1 X76.557 Y39.589 E0.5072
; outer perimeter
G1 X76.881 Y39.825 F4200
G92 E0
G1 X76.742 Y40.046 E0.0088 F1080
G1 X76.632 Y40.284 E0.0176
G1 X76.555 Y40.534 E0.0264
G1 X76.510 Y40.792 E0.0352
G1 X76.500 Y41.053 E0.0440
G1 X76.524 Y41.314 E0.0528
G1 X76.582 Y41.569 E0.0616
G1 X76.673 Y41.814 E0.0704
G1 X76.795 Y42.046 E0.0792
G1 X76.946 Y42.259 E0.0880
G1 X77.124 Y42.452 E0.0968
G1 X77.325 Y42.619 E0.1056
G1 X77.546 Y42.758 E0.1144
G1 X77.784 Y42.868 E0.1232
G1 X78.034 Y42.945 E0.1321
G1 X78.292 Y42.990 E0.1409
G1 X78.553 Y43.000 E0.1497
G1 X78.814 Y42.976 E0.1585
G1 X79.069 Y42.918 E0.1673
G1 X79.314 Y42.827 E0.1761
G1 X79.546 Y42.705 E0.1849
G1 X79.759 Y42.554 E0.1937
G1 X79.952 Y42.376 E0.2025
G1 X80.119 Y42.175 E0.2113
G1 X80.258 Y41.954 E0.2201
G1 X80.368 Y41.716 E0.2289
G1 X80.445 Y41.466 E0.2377
G1 X80.490 Y41.208 E0.2465
G1 X80.500 Y40.947 E0.2553
G1 X80.476 Y40.686 E0.2641
G1 X80.418 Y40.431 E0.2729
G1 X80.327 Y40.186 E0.2817
G1 X80.205 Y39.954 E0.2905
G1 X80.054 Y39.740 E0.2993
G1 X79.876 Y39.548 E0.3081
G1 X79.675 Y39.381 E0.3169
G1 X79.454 Y39.242 E0.3257
G1 X79.216 Y39.132 E0.3345
G1 X78.966 Y39.055 E0.3433
G1 X78.708 Y39.010 E0.3521
G1 X78.447 Y39.000 E0.3609
G1 X78.186 Y39.024 E0.3697
G1 X77.931 Y39.082 E0.3785
G1 X77.686 Y39.173 E0.3874
G1 X77.454 Y39.295 E0.3962
G1 X77.240 Y39.446 E0.4050
G1 X77.048 Y39.624 E0.4138
G1 X76.881 Y39.825 E0.4226
G92 E0
G1 E-1.5000 F1800
; inner perimeter
G1 X94.400 Y41.400 F4200
G1 E0.1000 F1800
G92 E0
G1 X94.400 Y81.400 E1.3457 F1215
G1 X81.400 Y81.400 E1.7831
G1 X81.400 Y94.600 E2.2272
G1 X94.400 Y94.600 E2.6646
G1 X94.400 Y102.600 E2.9337
G1 X105.600 Y102.600 E3.3105
G1 X105.600 Y64.600 E4.5890
G1 X113.600 Y64.600 E4.8581
G1 X113.600 Y41.400 E5.6387
G1 X94.400 Y41.400 E6.2846
; outer perimeter
G1 X94.800 Y41.800 F4200
G92 E0
G1 X94.800 Y102.200 E2.0321 F1080
G1 X105.200 Y102.200 E2.3820
G1 X105.200 Y64.200 E3.6604
G1 X113.200 Y64.200 E3.9296
G1 X113.200 Y41.800 E4.6832
G1 X94.800 Y41.800 E5.3022
G92 E0
G1 E-1.5000 F1800
; inner perimeter
G1 X120.100 Y47.400 F4200
G1 E0.1000 F1800
G92 E0
G1 X120.100 Y102.600 E1.8571 F1215
G1 X129.300 Y102.600 E2.1666
G1 X129.300 Y47.400 E4.0238
G1 X120.100 Y47.400 E4.3333
; outer perimeter
G1 X120.500 Y47.800 F4200
G92 E0
G1 X120.500 Y102.200 E1.8302 F1080
G1 X128.900 Y102.200 E2.1128
G1 X128.900 Y47.800 E3.9430
G1 X120.500 Y47.800 E4.2256
; inner perimeter
G1 X126.306 Y40.818 F4200
G92 E0
G1 X126.302 Y41.132 E0.0106 F1215
G1 X126.340 Y41.444 E0.0211
G1 X126.418 Y41.748 E0.0317
G1 X126.535 Y42.040 E0.0423
G1 X126.690 Y42.313 E0.0528
G1 X126.878 Y42.565 E0.0634
G1 X127.098 Y42.789 E0.0740
G1 X127.345 Y42.983 E0.0845
G1 X127.616 Y43.143 E0.0951
G1 X127.905 Y43.266 E0.1057
G1 X128.207 Y43.350 E0.1162
G1 X128.518 Y43.394 E0.1268
G1 X128.832 Y43.398 E0.1374
G1 X129.144 Y43.360 E0.1479
G1 X129.448 Y43.282 E0.1585
G1 X129.740 Y43.164 E0.1691
G1 X130.013 Y43.010 E0.1796
G1 X130.265 Y42.822 E0.1902
G1 X130.489 Y42.602 E0.2008
G1 X130.683 Y42.355 E0.2113
G1 X130.843 Y42.084 E0.2219
G1 X130.966 Y41.795 E0.2325
G1 X131.050 Y41.493 E0.2431
G1 X131.094 Y41.182 E0.2536
G1 X131.098 Y40.868 E0.2642
G1 X131.060 Y40.556 E0.2748
G1 X130.982 Y40.252 E0.2853
G1 X130.864 Y39.960 E0.2959
G1 X130.710 Y39.687 E0.3065
G1 X130.522 Y39.435 E0.3170
G1 X130.302 Y39.211 E0.3276
G1 X130.055 Y39.017 E0.3382
G1 X129.784 Y38.857 E0.3487
G1 X129.495 Y38.734 E0.3593
G1 X129.193 Y38.650 E0.3699
G1 X128.882 Y38.606 E0.3804
G1 X128.568 Y38.602 E0.3910
G1 X128.256 Y38.640 E0.4016
G1 X127.952 Y38.718 E0.4121
G1 X127.660 Y38.836 E0.4227
G1 X127.387 Y38.990 E0.4333
G1 X127.135 Y39.178 E0.4438
G1 X126.911 Y39.398 E0.4544
G1 X126.717 Y39.645 E0.4650
G1 X126.557 Y39.916 E0.4755
G1 X126.434 Y40.205 E0.4861
G1 X126.350 Y40.507 E0.4967
G1 X126.306 Y40.818 E0.5072
; outer perimeter
G1 X126.705 Y40.849 F4200
G92 E0
G1 X126.703 Y41.110 E0.0088 F1080
G1 X126.734 Y41.370 E0.0176
G1 X126.799 Y41.623 E0.0264
G1 X126.897 Y41.866 E0.0352
G1 X127.025 Y42.094 E0.0440
G1 X127.182 Y42.303 E0.0528
G1 X127.366 Y42.490 E0.0616
G1 X127.572 Y42.652 E0.0704
G1 X127.797 Y42.785 E0.0792
G1 X128.037 Y42.888 E0.0880
G1 X128.290 Y42.958 E0.0968
G1 X128.549 Y42.995 E0.1056
G1 X128.810 Y42.997 E0.1144
G1 X129.070 Y42.966 E0.1232
G1 X129.323 Y42.901 E0.1321
G1 X129.566 Y42.803 E0.1409
G1 X129.794 Y42.675 E0.1497
G1 X130.003 Y42.518 E0.1585
G1 X130.190 Y42.334 E0.1673
G1 X130.352 Y42.128 E0.1761
G1 X130.485 Y41.903 E0.1849
G1 X130.588 Y41.663 E0.1937
G1 X130.658 Y41.410 E0.2025
G1 X130.695 Y41.151 E0.2113
G1 X130.697 Y40.890 E0.2201
G1 X130.666 Y40.630 E0.2289
G1 X130.601 Y40.377 E0.2377
G1 X130.503 Y40.134 E0.2465
G1 X130.375 Y39.906 E0.2553
G1 X130.218 Y39.697 E0.2641
G1 X130.034 Y39.510 E0.2729
G1 X129.828 Y39.348 E0.2817
G1 X129.603 Y39.215 E0.2905
G1 X129.363 Y39.112 E0.2993
G1 X129.110 Y39.042 E0.3081
G1 X128.851 Y39.005 E0.3169
G1 X128.590 Y39.003 E0.3257
G1 X128.330 Y39.034 E0.3345
G1 X128.077 Y39.099 E0.3433
G1 X127.834 Y39.197 E0.3521
G1 X127.606 Y39.325 E0.3609
G1 X127.397 Y39.482 E0.3697
G1 X127.210 Y39.666 E0.3785
G1 X127.048 Y39.872 E0.3874
G1 X126.915 Y40.097 E0.3962
G1 X126.812 Y40.337 E0.4050
G1 X126.742 Y40.590 E0.4138
G1 X126.705 Y40.849 E0.4226
G92 E0
G1 E-1.5000 F1800
; inner perimeter
; outer perimeter
G1 X81.800 Y81.800 F4200
G1 E0.1000 F1800
G92 E0
G1 X81.800 Y94.200 E0.4172 F1080
G1 X94.200 Y94.200 E0.8344
G1 X94.200 Y81.800 E1.2515
G1 X81.800 Y81.800 E1.6687
; inner perimeter
G1 X78.333 Y106.604 F4200
G92 E0
G1 X78.022 Y106.647 E0.0106 F1215
G1 X77.719 Y106.729 E0.0211
G1 X77.429 Y106.851 E0.0317
G1 X77.158 Y107.009 E0.0423
G1 X76.910 Y107.201 E0.0528
G1 X76.688 Y107.424 E0.0634
G1 X76.498 Y107.674 E0.0740
G1 X76.342 Y107.946 E0.0845
G1 X76.223 Y108.237 E0.0951
G1 X76.143 Y108.541 E0.1057
G1 X76.103 Y108.852 E0.1162
G1 X76.104 Y109.167 E0.1268
G1 X76.147 Y109.478 E0.1374
G1 X76.229 Y109.781 E0.1479
G1 X76.351 Y110.071 E0.1585
G1 X76.509 Y110.342 E0.1691
G1 X76.701 Y110.590 E0.1796
G1 X76.924 Y110.812 E0.1902
G1 X77.174 Y111.002 E0.2008
G1 X77.447 Y111.158 E0.2114
G1 X77.737 Y111.277 E0.2219
G1 X78.041 Y111.357 E0.2325
G1 X78.352 Y111.397 E0.2431
G1 X78.667 Y111.395 E0.2536
G1 X78.978 Y111.353 E0.2642
G1 X79.281 Y111.271 E0.2748
G1 X79.571 Y111.149 E0.2853
G1 X79.842 Y110.991 E0.2959
G1 X80.090 Y110.799 E0.3065
G1 X80.312 Y110.576 E0.3170
G1 X80.502 Y110.326 E0.3276
G1 X80.658 Y110.053 E0.3382
G1 X80.777 Y109.763 E0.3487
G1 X80.857 Y109.459 E0.3593
G1 X80.897 Y109.148 E0.3699
