; G-Code generated by Simplify3D(R) Version 3.0.2
; Oct 5, 2015 at 5:43:05 PM
; Settings Summary
;   processName,Process1
;   applyToModels,Left_side
;   profileName,PrinterBot Simple Metal Custom (modified)
;   profileVersion,2015-05-01 08:00:00
;   baseProfile,Default (modified)
;   printMaterial,PLA
;   printQuality,Medium
;   printExtruders,
;   extruderName,Primary Extruder
;   extruderToolheadNumber,0
;   extruderDiameter,0.4
;   extruderAutoWidth,0
;   extruderWidth,0.4
;   extrusionMultiplier,1
;   extruderUseRetract,1
;   extruderRetractionDistance,1.5
;   extruderExtraRestartDistance,0.1
;   extruderRetractionZLift,0
;   extruderRetractionSpeed,1800
;   extruderUseCoasting,0
;   extruderCoastingDistance,0.2
;   extruderUseWipe,0
;   extruderWipeDistance,5
;   primaryExtruder,0
;   layerHeight,0.2
;   topSolidLayers,3
;   bottomSolidLayers,3
;   perimeterOutlines,2
;   printPerimetersInsideOut,1
;   startPointOption,2
;   startPointOriginX,0
;   startPointOriginY,0
;   startPointOriginZ,300
;   sequentialIslands,0
;   spiralVaseMode,0
;   firstLayerHeightPercentage,60
;   firstLayerWidthPercentage,100
;   firstLayerUnderspeed,0.5
;   useRaft,0
;   raftExtruder,0
;   raftLayers,3
;   raftOffset,3
;   raftSeparationDistance,0.14
;   raftInfill,85
;   disableRaftBaseLayers,0
;   useSkirt,1
;   skirtExtruder,0
;   skirtLayers,1
;   skirtOutlines,5
;   skirtOffset,2
;   usePrimePillar,0
;   primePillarExtruder,999
;   primePillarWidth,12
;   primePillarLocation,7
;   primePillarSpeedMultiplier,1
;   useOozeShield,0
;   oozeShieldExtruder,999
;   oozeShieldOffset,2
;   oozeShieldOutlines,1
;   oozeShieldSidewallShape,1
;   oozeShieldSidewallAngle,30
;   oozeShieldSpeedMultiplier,1
;   infillExtruder,0
;   internalInfillPattern,Rectilinear
;   externalInfillPattern,Rectilinear
;   infillPercentage,20
;   outlineOverlapPercentage,15
;   infillExtrusionWidthPercentage,100
;   minInfillLength,5
;   infillLayerInterval,1
;   infillAngles,45,-45
;   overlapInfillAngles,0
;   generateSupport,0
;   supportExtruder,0
;   supportInfillPercentage,30
;   supportExtraInflation,0.4
;   denseSupportLayers,0
;   denseSupportInfillPercentage,70
;   supportLayerInterval,1
;   supportHorizontalPartOffset,0.3
;   supportUpperSeparationLayers,1
;   supportLowerSeparationLayers,1
;   supportType,0
;   supportGridSpacing,4
;   maxOverhangAngle,45
;   supportAngles,0
;   temperatureName,Primary Extruder,Heated Bed
;   temperatureNumber,0,1
;   temperatureSetpointCount,2,3
;   temperatureSetpointLayers,1,2,1,2,3
;   temperatureSetpointTemperatures,210,200,70,65,63
;   temperatureStabilizeAtStartup,1,1
;   temperatureHeatedBed,0,1
;   temperatureRelayBetweenLayers,0,0
;   temperatureRelayBetweenLoops,0,0
;   fanLayers,1,2,3
;   fanSpeeds,0,0,100
;   blipFanToFullPower,1
;   adjustSpeedForCooling,1
;   minSpeedLayerTime,15
;   minCoolingSpeedSlowdown,20
;   increaseFanForCooling,0
;   minFanLayerTime,45
;   maxCoolingFanSpeed,100
;   increaseFanForBridging,0
;   bridgingFanSpeed,100
;   use5D,1
;   relativeEdistances,0
;   allowEaxisZeroing,1
;   independentExtruderAxes,0
;   includeM10123,0
;   stickySupport,1
;   applyToolheadOffsets,0
;   gcodeXoffset,0
;   gcodeYoffset,0
;   gcodeZoffset,0
;   overrideMachineDefinition,1
;   machineTypeOverride,0
;   strokeXoverride,150
;   strokeYoverride,150
;   strokeZoverride,150
;   originOffsetXoverride,0
;   originOffsetYoverride,0
;   originOffsetZoverride,0
;   homeXdirOverride,-1
;   homeYdirOverride,-1
;   homeZdirOverride,-1
;   flipXoverride,1
;   flipYoverride,-1
;   flipZoverride,1
;   toolheadOffsets,0,0|0,0|0,0|0,0|0,0|0,0
;   overrideFirmwareConfiguration,1
;   firmwareTypeOverride,RepRap (Marlin/Repetier/Sprinter)
;   GPXconfigOverride,r2
;   baudRateOverride,250000
;   overridePrinterModels,1
;   printerModelsOverride
;   startingGcode,G28 X0 Y0 ; home X and Y axes,G29 ; probe z,M201 X1000 Y1000 ; acceleration settings
;   layerChangeGcode,
;   retractionGcode,
;   toolChangeGcode,
;   endingGcode,M104 S0 T0 ; turn off extruder,M140 S0 T1 ; turn off bed,G28 X0 Y0 ; home,M84 ; disable motors
;   createX3G,0
;   celebration,0
;   celebrationSong,Random Song
;   createMB5G,0
;   postProcessing,
;   defaultSpeed,2700
;   outlineUnderspeed,0.8
;   solidInfillUnderspeed,0.8
;   supportUnderspeed,0.8
;   rapidXYspeed,4200
;   rapidZspeed,1002
;   minBridgingArea,50
;   bridgingExtraInflation,0
;   bridgingExtrusionMultiplier,1
;   bridgingSpeedMultiplier,0.8
;   filamentDiameter,1.74
;   filamentPricePerKg,22
;   filamentDensity,1.25
;   useMinPrintHeight,0
;   minPrintHeight,0
;   useMaxPrintHeight,0
;   maxPrintHeight,0
;   useDiaphragm,0
;   diaphragmLayerInterval,20
;   robustSlicing,1
;   mergeAllIntoSolid,0
;   onlyRetractWhenCrossingOutline,1
;   retractBetweenLayers,1
;   useRetractionMinTravel,0
;   retractionMinTravel,3
;   retractWhileWiping,0
;   onlyWipeOutlines,1
;   avoidCrossingOutline,0
;   maxMovementDetourFactor,3
;   toolChangeRetractionDistance,12
;   toolChangeExtraRestartDistance,-0.5
;   toolChangeRetractionSpeed,600
;   allowThinWallGapFill,1
;   thinWallAllowedOverlapPercentage,10
;   horizontalSizeCompensation,0
G90
M82
M106 S0
M140 S70
M190 S70
M104 S210 T0
M109 S210 T0
G28 X0 Y0 ; home X and Y axes
G29 ; probe z
M201 X1000 Y1000 ; acceleration settings
G92 E0
G1 E-1.5000 F1800
G1 Z0.120 F1002
; layer 1, Z = 0.12
T0
; tool H0.200 W0.400
; skirt
G1 X3.514 Y71.200 F4200
G1 E0.1000 F540
G92 E0
G1 X146.486 Y71.200 E4.8101 F1350
G1 X147.148 Y71.474 E4.8342
G1 X148.826 Y73.152 E4.9140
G1 X149.100 Y73.814 E4.9381
G1 X149.100 Y136.186 E7.0366
G1 X148.826 Y136.848 E7.0607
G1 X147.148 Y138.526 E7.1405
G1 X146.486 Y138.800 E7.1646
G1 X3.514 Y138.800 E11.9747
G1 X2.852 Y138.526 E11.9988
G1 X1.174 Y136.848 E12.0786
G1 X0.900 Y136.186 E12.1027
G1 X0.900 Y73.814 E14.2012
G1 X1.174 Y73.152 E14.2253
G1 X2.852 Y71.474 E14.3051
G1 X3.514 Y71.200 E14.3292
G1 X3.593 Y71.600 F4200
G92 E0
G1 X146.407 Y71.600 E4.8048 F1350
G1 X146.921 Y71.813 E4.8235
G1 X148.487 Y73.379 E4.8980
G1 X148.700 Y73.893 E4.9167
G1 X148.700 Y136.107 E7.0098
G1 X148.487 Y136.621 E7.0285
G1 X146.921 Y138.187 E7.1030
G1 X146.407 Y138.400 E7.1218
G1 X3.593 Y138.400 E11.9265
G1 X3.079 Y138.187 E11.9453
G1 X1.513 Y136.621 E12.0197
G1 X1.300 Y136.107 E12.0385
G1 X1.300 Y73.893 E14.1316
G1 X1.513 Y73.379 E14.1503
G1 X3.079 Y71.813 E14.2248
G1 X3.593 Y71.600 E14.2435
G1 X3.673 Y72.000 F4200
G92 E0
G1 X146.327 Y72.000 E4.7994 F1350
G1 X146.695 Y72.152 E4.8128
G1 X148.148 Y73.605 E4.8819
G1 X148.300 Y73.973 E4.8953
G1 X148.300 Y136.027 E6.9830
G1 X148.148 Y136.395 E6.9964
G1 X146.695 Y137.848 E7.0656
G1 X146.327 Y138.000 E7.0789
G1 X3.673 Y138.000 E11.8783
G1 X3.305 Y137.848 E11.8917
G1 X1.852 Y136.395 E11.9609
G1 X1.700 Y136.027 E11.9742
G1 X1.700 Y73.973 E14.0620
G1 X1.852 Y73.605 E14.0754
G1 X3.305 Y72.152 E14.1445
G1 X3.673 Y72.000 E14.1579
G1 X3.752 Y72.400 F4200
G92 E0
G1 X146.248 Y72.400 E4.7941 F1350
G1 X146.468 Y72.491 E4.8021
G1 X147.809 Y73.832 E4.8659
G1 X147.900 Y74.052 E4.8739
G1 X147.900 Y135.948 E6.9563
G1 X147.809 Y136.168 E6.9643
G1 X146.468 Y137.509 E7.0281
G1 X146.248 Y137.600 E7.0361
G1 X3.752 Y137.600 E11.8302
G1 X3.532 Y137.509 E11.8382
G1 X2.191 Y136.168 E11.9020
G1 X2.100 Y135.948 E11.9100
G1 X2.100 Y74.052 E13.9924
G1 X2.191 Y73.832 E14.0004
G1 X3.532 Y72.491 E14.0642
G1 X3.752 Y72.400 E14.0722
G1 X3.832 Y72.800 F4200
G92 E0
G1 X146.168 Y72.800 E4.7887 F1350
G1 X146.242 Y72.830 E4.7914
G1 X147.470 Y74.058 E4.8498
G1 X147.500 Y74.132 E4.8525
G1 X147.500 Y135.868 E6.9295
G1 X147.470 Y135.942 E6.9322
G1 X146.242 Y137.170 E6.9906
G1 X146.168 Y137.200 E6.9933
G1 X3.832 Y137.200 E11.7820
G1 X3.758 Y137.170 E11.7847
G1 X2.530 Y135.942 E11.8431
G1 X2.500 Y135.868 E11.8458
G1 X2.500 Y74.132 E13.9228
G1 X2.530 Y74.058 E13.9255
G1 X3.758 Y72.830 E13.9839
G1 X3.832 Y72.800 E13.9866
G92 E0
G1 E-1.5000 F1800
; inner perimeter
G1 X5.300 Y75.600 F4200
G1 E0.1000 F1800
G92 E0
G1 X18.667 Y75.600 E0.4497 F1215
G1 X18.180 Y76.103 E0.4733
G1 X17.891 Y76.492 E0.4896
G1 X17.655 Y76.915 E0.5059
G1 X17.477 Y77.365 E0.5222
G1 X17.359 Y77.834 E0.5384
G1 X17.303 Y78.315 E0.5547
G1 X17.311 Y78.799 E0.5710
G1 X17.381 Y79.278 E0.5873
G1 X17.514 Y79.744 E0.6036
G1 X17.706 Y80.188 E0.6199
G1 X17.955 Y80.604 E0.6362
G1 X18.255 Y80.983 E0.6525
G1 X18.603 Y81.320 E0.6688
G1 X18.992 Y81.609 E0.6850
G1 X19.415 Y81.845 E0.7013
G1 X19.865 Y82.023 E0.7176
G1 X20.334 Y82.141 E0.7339
G1 X20.815 Y82.197 E0.7502
G1 X21.299 Y82.189 E0.7665
G1 X21.778 Y82.119 E0.7828
G1 X22.244 Y81.986 E0.7991
G1 X22.688 Y81.794 E0.8154
G1 X23.104 Y81.545 E0.8316
G1 X23.483 Y81.245 E0.8479
G1 X23.820 Y80.897 E0.8642
G1 X24.109 Y80.508 E0.8805
G1 X24.345 Y80.085 E0.8968
G1 X24.523 Y79.635 E0.9131
G1 X24.641 Y79.166 E0.9294
G1 X24.697 Y78.685 E0.9457
G1 X24.689 Y78.201 E0.9619
G1 X24.619 Y77.722 E0.9782
G1 X24.486 Y77.256 E0.9945
G1 X24.294 Y76.812 E1.0108
G1 X24.045 Y76.396 E1.0271
G1 X23.745 Y76.017 E1.0434
G1 X23.315 Y75.600 E1.0635
G1 X126.700 Y75.600 E4.5418
G1 X126.337 Y75.929 E4.5582
G1 X126.024 Y76.299 E4.5745
G1 X125.762 Y76.706 E4.5908
G1 X125.556 Y77.144 E4.6071
G1 X125.409 Y77.605 E4.6234
G1 X125.322 Y78.082 E4.6397
G1 X125.299 Y78.565 E4.6560
G1 X125.339 Y79.048 E4.6723
G1 X125.442 Y79.521 E4.6886
G1 X125.606 Y79.976 E4.7048
G1 X125.828 Y80.407 E4.7211
G1 X126.104 Y80.805 E4.7374
G1 X126.429 Y81.163 E4.7537
G1 X126.799 Y81.476 E4.7700
G1 X127.206 Y81.738 E4.7863
G1 X127.644 Y81.944 E4.8026
G1 X128.105 Y82.091 E4.8189
G1 X128.582 Y82.178 E4.8351
G1 X129.065 Y82.201 E4.8514
G1 X129.548 Y82.161 E4.8677
G1 X130.021 Y82.058 E4.8840
G1 X130.476 Y81.894 E4.9003
G1 X130.907 Y81.672 E4.9166
G1 X131.305 Y81.396 E4.9329
G1 X131.663 Y81.071 E4.9492
G1 X131.976 Y80.701 E4.9655
G1 X132.238 Y80.294 E4.9817
G1 X132.444 Y79.856 E4.9980
G1 X132.591 Y79.395 E5.0143
G1 X132.678 Y78.918 E5.0306
G1 X132.701 Y78.435 E5.0469
G1 X132.661 Y77.952 E5.0632
G1 X132.558 Y77.479 E5.0795
G1 X132.394 Y77.024 E5.0958
G1 X132.172 Y76.593 E5.1121
G1 X131.896 Y76.195 E5.1283
G1 X131.355 Y75.600 E5.1554
G1 X144.700 Y75.600 E5.6044
G1 X144.700 Y134.400 E7.5826
G1 X5.300 Y134.400 E12.2725
G1 X5.300 Y75.600 E14.2508
; outer perimeter
G1 X4.900 Y75.200 F4200
G92 E0
G1 X145.100 Y75.200 E4.7168 F1080
G1 X145.100 Y134.800 E6.7220
G1 X4.900 Y134.800 E11.4388
G1 X4.900 Y75.200 E13.4440
; inner perimeter
; outer perimeter
G1 X17.859 Y77.488 F4200
G92 E0
G1 X17.753 Y77.906 E0.0145 F1080
G1 X17.704 Y78.335 E0.0290
G1 X17.710 Y78.767 E0.0436
G1 X17.773 Y79.194 E0.0581
G1 X17.892 Y79.609 E0.0726
G1 X18.063 Y80.005 E0.0871
G1 X18.285 Y80.376 E0.1017
G1 X18.553 Y80.714 E0.1162
G1 X18.863 Y81.015 E0.1307
G1 X19.209 Y81.272 E0.1452
G1 X19.586 Y81.482 E0.1598
G1 X19.988 Y81.641 E0.1743
G1 X20.406 Y81.747 E0.1888
G1 X20.835 Y81.796 E0.2033
G1 X21.267 Y81.790 E0.2179
G1 X21.694 Y81.727 E0.2324
G1 X22.109 Y81.608 E0.2469
G1 X22.505 Y81.437 E0.2614
G1 X22.876 Y81.215 E0.2760
G1 X23.214 Y80.947 E0.2905
G1 X23.515 Y80.637 E0.3050
G1 X23.772 Y80.291 E0.3195
G1 X23.982 Y79.914 E0.3341
G1 X24.141 Y79.512 E0.3486
G1 X24.247 Y79.094 E0.3631
G1 X24.296 Y78.665 E0.3776
G1 X24.290 Y78.233 E0.3922
G1 X24.227 Y77.806 E0.4067
G1 X24.108 Y77.391 E0.4212
G1 X23.937 Y76.995 E0.4357
G1 X23.715 Y76.624 E0.4503
G1 X23.447 Y76.286 E0.4648
G1 X23.137 Y75.985 E0.4793
G1 X22.791 Y75.728 E0.4938
G1 X22.414 Y75.518 E0.5084
G1 X22.012 Y75.359 E0.5229
G1 X21.594 Y75.253 E0.5374
G1 X21.165 Y75.204 E0.5519
G1 X20.733 Y75.210 E0.5665
G1 X20.306 Y75.273 E0.5810
G1 X19.891 Y75.392 E0.5955
G1 X19.495 Y75.563 E0.6100
G1 X19.124 Y75.784 E0.6246
G1 X18.786 Y76.053 E0.6391
G1 X18.485 Y76.363 E0.6536
G1 X18.228 Y76.709 E0.6681
G1 X18.018 Y77.086 E0.6827
G1 X17.859 Y77.488 E0.6972
G92 E0
G1 E-1.5000 F1800
; inner perimeter
G1 X20.400 Y104.400 F4200
G1 E0.1000 F1800
G92 E0
G1 X20.400 Y108.600 E0.1413 F1215
G1 X70.600 Y108.600 E1.8302
G1 X70.600 Y104.400 E1.9715
G1 X20.400 Y104.400 E3.6604
; outer perimeter
G1 X20.800 Y104.800 F4200
G92 E0
G1 X20.800 Y108.200 E0.1144 F1080
G1 X70.200 Y108.200 E1.7764
G1 X70.200 Y104.800 E1.8908
G1 X20.800 Y104.800 E3.5528
; inner perimeter
G1 X20.400 Y110.400 F4200
G92 E0
G1 X20.400 Y114.600 E0.1413 F1215
G1 X70.600 Y114.600 E1.8302
G1 X70.600 Y110.400 E1.9715
G1 X20.400 Y110.400 E3.6604
; outer perimeter
G1 X20.800 Y110.800 F4200
G92 E0
G1 X20.800 Y114.200 E0.1144 F1080
G1 X70.200 Y114.200 E1.7764
G1 X70.200 Y110.800 E1.8908
G1 X20.800 Y110.800 E3.5528
; inner perimeter
G1 X20.400 Y116.400 F4200
G92 E0
G1 X20.400 Y120.600 E0.1413 F1215
G1 X70.600 Y120.600 E1.8302
G1 X70.600 Y116.400 E1.9715
G1 X20.400 Y116.400 E3.6604
; outer perimeter
G1 X20.800 Y116.800 F4200
G92 E0
G1 X20.800 Y120.200 E0.1144 F1080
G1 X70.200 Y120.200 E1.7764
G1 X70.200 Y116.800 E1.8908
G1 X20.800 Y116.800 E3.5528
; inner perimeter
G1 X79.400 Y116.400 F4200
G92 E0
G1 X79.400 Y120.600 E0.1413 F1215
G1 X129.600 Y120.600 E1.8302
G1 X129.600 Y116.400 E1.9715
G1 X79.400 Y116.400 E3.6604
; outer perimeter
G1 X79.800 Y116.800 F4200
G92 E0
G1 X79.800 Y120.200 E0.1144 F1080
G1 X129.200 Y120.200 E1.7764
G1 X129.200 Y116.800 E1.8908
G1 X79.800 Y116.800 E3.5528
; inner perimeter
G1 X79.400 Y110.400 F4200
G92 E0
G1 X79.400 Y114.600 E0.1413 F1215
G1 X129.600 Y114.600 E1.8302
G1 X129.600 Y110.400 E1.9715
G1 X79.400 Y110.400 E3.6604
; outer perimeter
G1 X79.800 Y110.800 F4200
G92 E0
G1 X79.800 Y114.200 E0.1144 F1080
G1 X129.200 Y114.200 E1.7764
G1 X129.200 Y110.800 E1.8908
G1 X79.800 Y110.800 E3.5528
; inner perimeter
G1 X79.400 Y104.400 F4200
G92 E0
G1 X79.400 Y108.600 E0.1413 F1215
G1 X129.600 Y108.600 E1.8302
G1 X129.600 Y104.400 E1.9715
G1 X79.400 Y104.400 E3.6604
; outer perimeter
G1 X79.800 Y104.800 F4200
G92 E0
G1 X79.800 Y108.200 E0.1144 F1080
G1 X129.200 Y108.200 E1.7764
G1 X129.200 Y104.800 E1.8908
G1 X79.800 Y104.800 E3.5528
; inner perimeter
; outer perimeter
G1 X125.700 Y78.558 F4200
G92 E0
G1 X125.736 Y78.988 E0.0145 F1080
G1 X125.828 Y79.410 E0.0290
G1 X125.974 Y79.817 E0.0436
G1 X126.171 Y80.200 E0.0581
G1 X126.417 Y80.555 E0.0726
G1 X126.708 Y80.875 E0.0871
G1 X127.037 Y81.153 E0.1017
G1 X127.400 Y81.387 E0.1162
G1 X127.791 Y81.571 E0.1307
G1 X128.202 Y81.703 E0.1452
G1 X128.627 Y81.779 E0.1598
G1 X129.058 Y81.800 E0.1743
G1 X129.488 Y81.764 E0.1888
G1 X129.910 Y81.672 E0.2033
G1 X130.317 Y81.526 E0.2179
G1 X130.700 Y81.329 E0.2324
G1 X131.055 Y81.083 E0.2469
G1 X131.375 Y80.792 E0.2614
G1 X131.653 Y80.463 E0.2760
G1 X131.887 Y80.100 E0.2905
G1 X132.071 Y79.709 E0.3050
G1 X132.203 Y79.298 E0.3195
G1 X132.279 Y78.873 E0.3341
G1 X132.300 Y78.442 E0.3486
G1 X132.264 Y78.012 E0.3631
G1 X132.172 Y77.590 E0.3776
G1 X132.026 Y77.183 E0.3922
G1 X131.829 Y76.800 E0.4067
G1 X131.583 Y76.445 E0.4212
G1 X131.292 Y76.125 E0.4357
G1 X130.963 Y75.847 E0.4503
G1 X130.600 Y75.613 E0.4648
G1 X130.209 Y75.429 E0.4793
G1 X129.798 Y75.297 E0.4938
G1 X129.373 Y75.221 E0.5084
G1 X128.942 Y75.200 E0.5229
G1 X128.512 Y75.236 E0.5374
G1 X128.090 Y75.328 E0.5519
G1 X127.683 Y75.474 E0.5665
G1 X127.300 Y75.671 E0.5810
G1 X126.945 Y75.917 E0.5955
G1 X126.625 Y76.208 E0.6100
G1 X126.347 Y76.537 E0.6246
G1 X126.113 Y76.900 E0.6391
G1 X125.929 Y77.291 E0.6536
G1 X125.797 Y77.702 E0.6681
G1 X125.721 Y78.127 E0.6826
G1 X125.700 Y78.558 E0.6972
G92 E0
G1 E-1.5000 F1800
; solid layer
G1 X132.219 Y76.065 F4200
G1 E0.1000 F1800
G92 E0
G1 X132.344 Y75.940 E0.0059 F1080
G1 X132.910 Y75.940 E0.0250
G1 X132.451 Y76.399 E0.0468
G1 X132.464 Y76.418 E0.0476
G1 X132.646 Y76.770 E0.0609
G1 X133.476 Y75.940 E0.1004
G1 X134.041 Y75.940 E0.1194
G1 X132.809 Y77.173 E0.1781
G1 X132.885 Y77.385 E0.1857
G1 X132.935 Y77.612 E0.1935
G1 X134.607 Y75.940 E0.2731
G1 X135.173 Y75.940 E0.2921
G1 X133.014 Y78.099 E0.3948
G1 X133.041 Y78.429 E0.4059
G1 X133.031 Y78.648 E0.4133
G1 X135.738 Y75.940 E0.5421
G1 X136.304 Y75.940 E0.5612
G1 X132.956 Y79.288 E0.7205
G1 X132.922 Y79.477 E0.7269
G1 X132.761 Y79.981 E0.7447
G1 X132.700 Y80.109 E0.7495
G1 X136.870 Y75.940 E0.9479
G1 X129.337 Y110.060 F4200
G92 E0
G1 X144.360 Y95.037 E0.7148 F1080
G1 X144.360 Y95.603 E0.7338
