; G-Code generated by Simplify3D(R) Version 3.0.2
; Oct 5, 2015 at 7:44:30 PM
; Settings Summary
;   processName,Process1
;   applyToModels,Right_side_reset_fixed
;   profileName,PrinterBot Simple Metal Custom (modified)
;   profileVersion,2015-05-01 08:00:00
;   baseProfile,Default (modified)
;   printMaterial,PLA
;   printQuality,Medium
;   printExtruders,
;   extruderName,Primary Extruder
;   extruderToolheadNumber,0
;   extruderDiameter,0.4
;   extruderAutoWidth,0
;   extruderWidth,0.4
;   extrusionMultiplier,1
;   extruderUseRetract,1
;   extruderRetractionDistance,1.5
;   extruderExtraRestartDistance,0.1
;   extruderRetractionZLift,0
;   extruderRetractionSpeed,1800
;   extruderUseCoasting,0
;   extruderCoastingDistance,0.2
;   extruderUseWipe,0
;   extruderWipeDistance,5
;   primaryExtruder,0
;   layerHeight,0.2
;   topSolidLayers,3
;   bottomSolidLayers,3
;   perimeterOutlines,2
;   printPerimetersInsideOut,1
;   startPointOption,2
;   startPointOriginX,0
;   startPointOriginY,0
;   startPointOriginZ,300
;   sequentialIslands,0
;   spiralVaseMode,0
;   firstLayerHeightPercentage,60
;   firstLayerWidthPercentage,100
;   firstLayerUnderspeed,0.5
;   useRaft,0
;   raftExtruder,0
;   raftLayers,3
;   raftOffset,3
;   raftSeparationDistance,0.14
;   raftInfill,85
;   disableRaftBaseLayers,0
;   useSkirt,1
;   skirtExtruder,0
;   skirtLayers,1
;   skirtOutlines,5
;   skirtOffset,2
;   usePrimePillar,0
;   primePillarExtruder,999
;   primePillarWidth,12
;   primePillarLocation,7
;   primePillarSpeedMultiplier,1
;   useOozeShield,0
;   oozeShieldExtruder,999
;   oozeShieldOffset,2
;   oozeShieldOutlines,1
;   oozeShieldSidewallShape,1
;   oozeShieldSidewallAngle,30
;   oozeShieldSpeedMultiplier,1
;   infillExtruder,0
;   internalInfillPattern,Rectilinear
;   externalInfillPattern,Rectilinear
;   infillPercentage,20
;   outlineOverlapPercentage,15
;   infillExtrusionWidthPercentage,100
;   minInfillLength,5
;   infillLayerInterval,1
;   infillAngles,45,-45
;   overlapInfillAngles,0
;   generateSupport,0
;   supportExtruder,0
;   supportInfillPercentage,30
;   supportExtraInflation,0.4
;   denseSupportLayers,0
;   denseSupportInfillPercentage,70
;   supportLayerInterval,1
;   supportHorizontalPartOffset,0.3
;   supportUpperSeparationLayers,1
;   supportLowerSeparationLayers,1
;   supportType,0
;   supportGridSpacing,4
;   maxOverhangAngle,45
;   supportAngles,0
;   temperatureName,Primary Extruder,Heated Bed
;   temperatureNumber,0,1
;   temperatureSetpointCount,2,3
;   temperatureSetpointLayers,1,2,1,2,3
;   temperatureSetpointTemperatures,210,200,70,65,63
;   temperatureStabilizeAtStartup,1,1
;   temperatureHeatedBed,0,1
;   temperatureRelayBetweenLayers,0,0
;   temperatureRelayBetweenLoops,0,0
;   fanLayers,1,2,3
;   fanSpeeds,0,0,100
;   blipFanToFullPower,1
;   adjustSpeedForCooling,1
;   minSpeedLayerTime,15
;   minCoolingSpeedSlowdown,20
;   increaseFanForCooling,0
;   minFanLayerTime,45
;   maxCoolingFanSpeed,100
;   increaseFanForBridging,0
;   bridgingFanSpeed,100
;   use5D,1
;   relativeEdistances,0
;   allowEaxisZeroing,1
;   independentExtruderAxes,0
;   includeM10123,0
;   stickySupport,1
;   applyToolheadOffsets,0
;   gcodeXoffset,0
;   gcodeYoffset,0
;   gcodeZoffset,0
;   overrideMachineDefinition,1
;   machineTypeOverride,0
;   strokeXoverride,150
;   strokeYoverride,150
;   strokeZoverride,150
;   originOffsetXoverride,0
;   originOffsetYoverride,0
;   originOffsetZoverride,0
;   homeXdirOverride,-1
;   homeYdirOverride,-1
;   homeZdirOverride,-1
;   flipXoverride,1
;   flipYoverride,-1
;   flipZoverride,1
;   toolheadOffsets,0,0|0,0|0,0|0,0|0,0|0,0
;   overrideFirmwareConfiguration,1
;   firmwareTypeOverride,RepRap (Marlin/Repetier/Sprinter)
;   GPXconfigOverride,r2
;   baudRateOverride,250000
;   overridePrinterModels,1
;   printerModelsOverride
;   startingGcode,G28 X0 Y0 ; home X and Y axes,G29 ; probe z,M201 X1000 Y1000 ; acceleration settings
;   layerChangeGcode,
;   retractionGcode,
;   toolChangeGcode,
;   endingGcode,M104 S0 T0 ; turn off extruder,M140 S0 T1 ; turn off bed,G28 X0 Y0 ; home,M84 ; disable motors
;   createX3G,0
;   celebration,0
;   celebrationSong,Random Song
;   createMB5G,0
;   postProcessing,
;   defaultSpeed,2700
;   outlineUnderspeed,0.8
;   solidInfillUnderspeed,0.8
;   supportUnderspeed,0.8
;   rapidXYspeed,4200
;   rapidZspeed,1002
;   minBridgingArea,50
;   bridgingExtraInflation,0
;   bridgingExtrusionMultiplier,1
;   bridgingSpeedMultiplier,0.8
;   filamentDiameter,1.74
;   filamentPricePerKg,22
;   filamentDensity,1.25
;   useMinPrintHeight,0
;   minPrintHeight,0
;   useMaxPrintHeight,0
;   maxPrintHeight,0
;   useDiaphragm,0
;   diaphragmLayerInterval,20
;   robustSlicing,1
;   mergeAllIntoSolid,0
;   onlyRetractWhenCrossingOutline,1
;   retractBetweenLayers,1
;   useRetractionMinTravel,0
;   retractionMinTravel,3
;   retractWhileWiping,0
;   onlyWipeOutlines,1
;   avoidCrossingOutline,0
;   maxMovementDetourFactor,3
;   toolChangeRetractionDistance,12
;   toolChangeExtraRestartDistance,-0.5
;   toolChangeRetractionSpeed,600
;   allowThinWallGapFill,1
;   thinWallAllowedOverlapPercentage,10
;   horizontalSizeCompensation,0
G90
M82
M106 S0
M140 S70
M190 S70
M104 S210 T0
M109 S210 T0
G28 X0 Y0 ; home X and Y axes
G29 ; probe z
M201 X1000 Y1000 ; acceleration settings
G92 E0
G1 E-1.5000 F1800
G1 Z0.120 F1002
; layer 1, Z = 0.12
T0
; tool H0.200 W0.400
; skirt
G1 X3.514 Y11.202 F4200
G1 E0.1000 F540
G92 E0
G1 X146.486 Y11.202 E4.8101 F1350
G1 X147.148 Y11.476 E4.8342
G1 X148.826 Y13.154 E4.9140
G1 X149.100 Y13.816 E4.9381
G1 X149.100 Y76.186 E7.0365
G1 X148.826 Y76.848 E7.0606
G1 X147.148 Y78.526 E7.1404
G1 X146.486 Y78.800 E7.1645
G1 X3.514 Y78.800 E11.9746
G1 X2.852 Y78.526 E11.9987
G1 X1.174 Y76.848 E12.0786
G1 X0.900 Y76.186 E12.1027
G1 X0.900 Y13.816 E14.2010
G1 X1.174 Y13.154 E14.2251
G1 X2.852 Y11.476 E14.3050
G1 X3.514 Y11.202 E14.3291
G1 X3.593 Y11.602 F4200
G92 E0
G1 X146.407 Y11.602 E4.8048 F1350
G1 X146.921 Y11.815 E4.8235
G1 X148.487 Y13.381 E4.8980
G1 X148.700 Y13.895 E4.9167
G1 X148.700 Y76.107 E7.0097
G1 X148.487 Y76.621 E7.0285
G1 X146.921 Y78.187 E7.1030
G1 X146.407 Y78.400 E7.1217
G1 X3.593 Y78.400 E11.9265
G1 X3.079 Y78.187 E11.9452
G1 X1.513 Y76.621 E12.0197
G1 X1.300 Y76.107 E12.0384
G1 X1.300 Y13.895 E14.1314
G1 X1.513 Y13.381 E14.1502
G1 X3.079 Y11.815 E14.2247
G1 X3.593 Y11.602 E14.2434
G1 X3.673 Y12.002 F4200
G92 E0
G1 X146.327 Y12.002 E4.7994 F1350
G1 X146.695 Y12.154 E4.8128
G1 X148.148 Y13.607 E4.8819
G1 X148.300 Y13.975 E4.8953
G1 X148.300 Y76.027 E6.9830
G1 X148.148 Y76.395 E6.9964
G1 X146.695 Y77.848 E7.0655
G1 X146.327 Y78.000 E7.0789
G1 X3.673 Y78.000 E11.8783
G1 X3.305 Y77.848 E11.8917
G1 X1.852 Y76.395 E11.9608
G1 X1.700 Y76.027 E11.9742
G1 X1.700 Y13.975 E14.0618
G1 X1.852 Y13.607 E14.0752
G1 X3.305 Y12.154 E14.1444
G1 X3.673 Y12.002 E14.1577
G1 X3.752 Y12.402 F4200
G92 E0
G1 X146.248 Y12.402 E4.7941 F1350
G1 X146.468 Y12.493 E4.8021
G1 X147.809 Y13.834 E4.8659
G1 X147.900 Y14.054 E4.8739
G1 X147.900 Y75.948 E6.9562
G1 X147.809 Y76.168 E6.9642
G1 X146.468 Y77.509 E7.0280
G1 X146.248 Y77.600 E7.0360
G1 X3.752 Y77.600 E11.8301
G1 X3.532 Y77.509 E11.8381
G1 X2.191 Y76.168 E11.9019
G1 X2.100 Y75.948 E11.9099
G1 X2.100 Y14.054 E13.9922
G1 X2.191 Y13.834 E14.0003
G1 X3.532 Y12.493 E14.0641
G1 X3.752 Y12.402 E14.0721
G1 X3.832 Y12.802 F4200
G92 E0
G1 X146.168 Y12.802 E4.7887 F1350
G1 X146.242 Y12.832 E4.7914
G1 X147.470 Y14.060 E4.8498
G1 X147.500 Y14.134 E4.8525
G1 X147.500 Y75.868 E6.9294
G1 X147.470 Y75.942 E6.9321
G1 X146.242 Y77.170 E6.9905
G1 X146.168 Y77.200 E6.9932
G1 X3.832 Y77.200 E11.7819
G1 X3.758 Y77.170 E11.7846
G1 X2.530 Y75.942 E11.8430
G1 X2.500 Y75.868 E11.8457
G1 X2.500 Y14.134 E13.9226
G1 X2.530 Y14.060 E13.9253
G1 X3.758 Y12.832 E13.9837
G1 X3.832 Y12.802 E13.9864
G92 E0
G1 E-1.5000 F1800
; inner perimeter
G1 X5.300 Y15.602 F4200
G1 E0.1000 F1800
G92 E0
G1 X144.700 Y15.602 E4.6899 F1215
G1 X144.700 Y74.400 E6.6681
G1 X131.322 Y74.400 E7.1182
G1 X131.778 Y73.947 E7.1398
G1 X132.072 Y73.562 E7.1561
G1 X132.314 Y73.146 E7.1723
G1 X132.501 Y72.699 E7.1886
G1 X132.627 Y72.231 E7.2049
G1 X132.692 Y71.752 E7.2212
G1 X132.694 Y71.267 E7.2375
G1 X132.632 Y70.786 E7.2538
G1 X132.507 Y70.319 E7.2701
G1 X132.321 Y69.871 E7.2864
G1 X132.081 Y69.451 E7.3027
G1 X131.787 Y69.067 E7.3189
G1 X131.445 Y68.723 E7.3353
G1 X131.063 Y68.429 E7.3515
G1 X130.643 Y68.185 E7.3678
G1 X130.194 Y67.999 E7.3842
G1 X129.729 Y67.873 E7.4004
G1 X129.250 Y67.808 E7.4167
G1 X128.767 Y67.806 E7.4329
G1 X128.284 Y67.868 E7.4493
G1 X127.815 Y67.993 E7.4656
G1 X127.368 Y68.179 E7.4819
G1 X126.949 Y68.419 E7.4982
G1 X126.565 Y68.713 E7.5144
G1 X126.221 Y69.055 E7.5307
G1 X125.926 Y69.437 E7.5470
G1 X125.683 Y69.857 E7.5633
G1 X125.497 Y70.306 E7.5796
G1 X125.371 Y70.771 E7.5959
G1 X125.306 Y71.250 E7.6121
G1 X125.304 Y71.734 E7.6284
G1 X125.368 Y72.217 E7.6448
G1 X125.492 Y72.684 E7.6611
G1 X125.676 Y73.131 E7.6773
G1 X125.917 Y73.551 E7.6936
G1 X126.211 Y73.935 E7.7099
G1 X126.672 Y74.400 E7.7319
G1 X23.363 Y74.400 E11.2076
G1 X23.917 Y73.777 E11.2356
G1 X24.188 Y73.376 E11.2519
G1 X24.405 Y72.945 E11.2682
G1 X24.565 Y72.489 E11.2844
G1 X24.663 Y72.017 E11.3006
G1 X24.701 Y71.532 E11.3170
G1 X24.673 Y71.046 E11.3334
G1 X24.582 Y70.570 E11.3497
G1 X24.429 Y70.112 E11.3659
G1 X24.219 Y69.678 E11.3821
G1 X23.954 Y69.272 E11.3984
G1 X23.638 Y68.906 E11.4147
G1 X23.275 Y68.583 E11.4311
G1 X22.875 Y68.312 E11.4473
G1 X22.445 Y68.095 E11.4635
G1 X21.986 Y67.934 E11.4799
G1 X21.513 Y67.837 E11.4962
G1 X21.030 Y67.799 E11.5125
G1 X20.546 Y67.827 E11.5288
G1 X20.068 Y67.918 E11.5451
G1 X19.610 Y68.071 E11.5614
G1 X19.174 Y68.281 E11.5777
G1 X18.769 Y68.547 E11.5940
G1 X18.404 Y68.864 E11.6102
G1 X18.082 Y69.224 E11.6265
G1 X17.810 Y69.625 E11.6428
G1 X17.593 Y70.055 E11.6590
G1 X17.432 Y70.514 E11.6753
G1 X17.335 Y70.987 E11.6916
G1 X17.297 Y71.470 E11.7079
G1 X17.325 Y71.954 E11.7242
G1 X17.416 Y72.429 E11.7405
G1 X17.569 Y72.889 E11.7568
G1 X17.779 Y73.326 E11.7731
G1 X18.044 Y73.730 E11.7894
G1 X18.359 Y74.095 E11.8056
G1 X18.700 Y74.400 E11.8210
G1 X5.300 Y74.400 E12.2718
G1 X5.300 Y15.602 E14.2499
; outer perimeter
G1 X4.900 Y15.202 F4200
G92 E0
G1 X145.100 Y15.202 E4.7168 F1080
G1 X145.100 Y74.800 E6.7219
G1 X21.013 Y74.800 E10.8966
G1 X21.403 Y74.777 E10.9097
G1 X21.829 Y74.696 E10.9243
G1 X22.237 Y74.560 E10.9388
G1 X22.627 Y74.372 E10.9534
G1 X22.987 Y74.136 E10.9678
G1 X23.313 Y73.855 E10.9823
G1 X23.600 Y73.531 E10.9969
G1 X23.843 Y73.173 E11.0114
G1 X24.036 Y72.788 E11.0259
G1 X24.179 Y72.382 E11.0404
G1 X24.266 Y71.960 E11.0549
G1 X24.300 Y71.528 E11.0695
G1 X24.275 Y71.095 E11.0841
G1 X24.194 Y70.671 E11.0986
G1 X24.058 Y70.263 E11.1131
G1 X23.870 Y69.875 E11.1276
G1 X23.634 Y69.513 E11.1421
G1 X23.353 Y69.187 E11.1566
G1 X23.029 Y68.900 E11.1712
G1 X22.672 Y68.657 E11.1857
G1 X22.288 Y68.464 E11.2002
G1 X21.879 Y68.321 E11.2147
G1 X21.456 Y68.234 E11.2293
G1 X21.026 Y68.200 E11.2438
G1 X20.595 Y68.225 E11.2583
G1 X20.169 Y68.306 E11.2729
G1 X19.761 Y68.442 E11.2874
G1 X19.371 Y68.630 E11.3019
G1 X19.011 Y68.866 E11.3164
G1 X18.685 Y69.149 E11.3309
G1 X18.398 Y69.471 E11.3454
G1 X18.155 Y69.828 E11.3600
G1 X17.962 Y70.212 E11.3744
G1 X17.819 Y70.621 E11.3890
G1 X17.732 Y71.044 E11.4035
G1 X17.698 Y71.474 E11.4181
G1 X17.723 Y71.905 E11.4326
G1 X17.804 Y72.328 E11.4471
G1 X17.940 Y72.739 E11.4616
G1 X18.128 Y73.129 E11.4762
G1 X18.364 Y73.489 E11.4907
G1 X18.645 Y73.814 E11.5052
G1 X18.969 Y74.104 E11.5198
G1 X19.327 Y74.345 E11.5343
G1 X19.709 Y74.538 E11.5487
G1 X20.119 Y74.683 E11.5633
G1 X20.542 Y74.768 E11.5779
G1 X20.941 Y74.800 E11.5913
G1 X4.900 Y74.800 E12.1310
G1 X4.900 Y15.202 E14.1361
; inner perimeter
G1 X14.098 Y29.402 F4200
G92 E0
G1 X14.098 Y33.600 E0.1412 F1215
G1 X70.598 Y33.600 E2.0421
G1 X70.598 Y29.402 E2.1833
G1 X14.098 Y29.402 E4.0842
; outer perimeter
G1 X14.498 Y29.802 F4200
G92 E0
G1 X14.498 Y33.200 E0.1143 F1080
G1 X70.198 Y33.200 E1.9883
G1 X70.198 Y29.802 E2.1026
G1 X14.498 Y29.802 E3.9765
; inner perimeter
G1 X14.098 Y35.402 F4200
G92 E0
G1 X14.098 Y39.600 E0.1412 F1215
G1 X70.598 Y39.600 E2.0421
G1 X70.598 Y35.402 E2.1833
G1 X14.098 Y35.402 E4.0842
; outer perimeter
G1 X14.498 Y35.802 F4200
G92 E0
G1 X14.498 Y39.200 E0.1143 F1080
G1 X70.198 Y39.200 E1.9883
G1 X70.198 Y35.802 E2.1026
G1 X14.498 Y35.802 E3.9765
; inner perimeter
G1 X14.098 Y41.402 F4200
G92 E0
G1 X14.098 Y45.600 E0.1412 F1215
G1 X70.598 Y45.600 E2.0421
G1 X70.598 Y41.402 E2.1833
G1 X14.098 Y41.402 E4.0842
; outer perimeter
G1 X14.498 Y41.802 F4200
G92 E0
G1 X14.498 Y45.200 E0.1143 F1080
G1 X70.198 Y45.200 E1.9883
G1 X70.198 Y41.802 E2.1026
G1 X14.498 Y41.802 E3.9765
G92 E0
G1 E-1.5000 F1800
; inner perimeter
; outer perimeter
; inner perimeter
G1 X61.777 Y48.876 F4200
G1 E0.1000 F1800
G92 E0
G1 X61.325 Y49.702 E0.0317 F1215
G1 X61.104 Y50.622 E0.0635
G1 X61.128 Y51.565 E0.0952
G1 X61.397 Y52.468 E0.1269
G1 X61.889 Y53.275 E0.1587
G1 X62.574 Y53.923 E0.1905
G1 X63.403 Y54.375 E0.2222
G1 X64.319 Y54.594 E0.2539
G1 X65.262 Y54.570 E0.2857
G1 X66.165 Y54.303 E0.3173
G1 X66.972 Y53.811 E0.3491
G1 X67.621 Y53.128 E0.3808
G1 X68.073 Y52.297 E0.4126
G1 X68.294 Y51.381 E0.4443
G1 X68.268 Y50.437 E0.4761
G1 X68.001 Y49.532 E0.5079
G1 X67.509 Y48.728 E0.5396
G1 X66.826 Y48.079 E0.5713
G1 X65.995 Y47.627 E0.6031
G1 X65.080 Y47.406 E0.6348
G1 X64.135 Y47.430 E0.6666
G1 X63.230 Y47.699 E0.6983
G1 X62.425 Y48.192 E0.7301
G1 X61.777 Y48.876 E0.7618
; outer perimeter
G1 X62.103 Y49.113 F4200
G92 E0
G1 X61.702 Y49.847 E0.0281 F1080
G1 X61.505 Y50.665 E0.0564
G1 X61.527 Y51.502 E0.0846
G1 X61.766 Y52.304 E0.1128
G1 X62.203 Y53.021 E0.1410
G1 X62.811 Y53.597 E0.1692
G1 X63.548 Y53.998 E0.1974
G1 X64.361 Y54.193 E0.2255
G1 X65.199 Y54.171 E0.2538
G1 X66.002 Y53.934 E0.2819
G1 X66.719 Y53.497 E0.3102
G1 X67.295 Y52.891 E0.3383
G1 X67.696 Y52.152 E0.3666
G1 X67.893 Y51.339 E0.3947
G1 X67.869 Y50.500 E0.4229
G1 X67.632 Y49.696 E0.4512
G1 X67.195 Y48.981 E0.4794
G1 X66.589 Y48.405 E0.5075
G1 X65.850 Y48.004 E0.5358
G1 X65.037 Y47.807 E0.5639
G1 X64.198 Y47.829 E0.5921
G1 X63.394 Y48.068 E0.6204
G1 X62.679 Y48.505 E0.6486
G1 X62.103 Y49.113 E0.6768
G92 E0
G1 E-1.5000 F1800
; inner perimeter
G1 X79.400 Y41.402 F4200
G1 E0.1000 F1800
G92 E0
G1 X79.400 Y45.600 E0.1412 F1215
G1 X135.900 Y45.600 E2.0421
G1 X135.900 Y41.402 E2.1833
G1 X79.400 Y41.402 E4.0842
; outer perimeter
G1 X79.800 Y41.802 F4200
G92 E0
G1 X79.800 Y45.200 E0.1143 F1080
G1 X135.500 Y45.200 E1.9883
G1 X135.500 Y41.802 E2.1026
G1 X79.800 Y41.802 E3.9765
; inner perimeter
G1 X79.400 Y35.402 F4200
G92 E0
G1 X79.400 Y39.600 E0.1412 F1215
G1 X135.900 Y39.600 E2.0421
G1 X135.900 Y35.402 E2.1833
G1 X79.400 Y35.402 E4.0842
; outer perimeter
G1 X79.800 Y35.802 F4200
G92 E0
G1 X79.800 Y39.200 E0.1143 F1080
G1 X135.500 Y39.200 E1.9883
G1 X135.500 Y35.802 E2.1026
G1 X79.800 Y35.802 E3.9765
; inner perimeter
G1 X79.400 Y29.402 F4200
G92 E0
G1 X79.400 Y33.600 E0.1412 F1215
G1 X135.900 Y33.600 E2.0421
G1 X135.900 Y29.402 E2.1833
G1 X79.400 Y29.402 E4.0842
; outer perimeter
G1 X79.800 Y29.802 F4200
G92 E0
G1 X79.800 Y33.200 E0.1143 F1080
G1 X135.500 Y33.200 E1.9883
G1 X135.500 Y29.802 E2.1026
G1 X79.800 Y29.802 E3.9765
G92 E0
G1 E-1.5000 F1800
; inner perimeter
; outer perimeter
G1 X126.042 Y70.035 F4200
G1 E0.1000 F1800
G92 E0
G1 X125.876 Y70.435 E0.0146 F1080
G1 X125.764 Y70.850 E0.0290
G1 X125.706 Y71.278 E0.0436
G1 X125.704 Y71.709 E0.0581
G1 X125.761 Y72.139 E0.0727
G1 X125.872 Y72.556 E0.0872
G1 X126.036 Y72.954 E0.1017
G1 X126.251 Y73.329 E0.1162
G1 X126.513 Y73.672 E0.1307
G1 X126.818 Y73.979 E0.1453
G1 X127.160 Y74.240 E0.1598
G1 X127.533 Y74.457 E0.1743
G1 X127.931 Y74.624 E0.1888
G1 X128.348 Y74.736 E0.2033
G1 X128.776 Y74.794 E0.2179
G1 X129.209 Y74.796 E0.2324
G1 X129.637 Y74.739 E0.2470
G1 X130.052 Y74.628 E0.2614
G1 X130.452 Y74.464 E0.2759
G1 X130.827 Y74.249 E0.2905
G1 X131.170 Y73.987 E0.3050
G1 X131.477 Y73.682 E0.3195
G1 X131.739 Y73.339 E0.3341
G1 X131.955 Y72.967 E0.3486
